; HEADER_BLOCK_START
; generated by AnycubicSlicerNext 1.3.3.1 on 2025-03-01 at 16:10:23
; total layer number: 35
; filament_density: 1.24
; filament_diameter: 1.75
; max_z_height: 7.04
; exclude_object: 0
; model_instances: 1
; HEADER_BLOCK_END

; THUMBNAIL_BLOCK_START
; THUMBNAIL_BLOCK_END

; external perimeters extrusion width = 0.42mm
; perimeters extrusion width = 0.45mm
; infill extrusion width = 0.45mm
; solid infill extrusion width = 0.42mm
; top infill extrusion width = 0.42mm
; support material extrusion width = 0.40mm
; first layer extrusion width = 0.50mm

; EXECUTABLE_BLOCK_START
M201 X2000 Y2000 Z800 E2000
M203 X300 Y300 Z8 E100
M204 P2000 R2000 T2000
M205 X10.00 Y10.00 Z2.00 E5.00 ; sets the jerk limits, mm/sec
;TYPE:Custom
G90 ; use absolute coordinates
M83 ; extruder relative mode
M104 S220 ; set extruder temp
M140 S60 ; set bed temp
M190 S60 ; wait for bed temp
M109 S220 ; wait for extruder temp
G28                                        ; move X/Y/Z to min endstops
G1 Z0.28                                   ; lift nozzle a bit 
G92 E0 
G1 Y3 F1800                                    ; zero the extruded length 
G1 X60  E25 F500                       ; Extrude 25mm of filament in a 5cm line. 
G92 E0                                     ; zero the extruded length again 
G1 E-2 F500                                ; Retract a little 
G1 X70 F4000                              ; Quickly wipe away from the filament line
M117
G90
G21
M83 ; use relative distances for extrusion
; filament start gcode
M106 S0
;LAYER_CHANGE
;Z:0.24
;HEIGHT:0.24
; BEFORE_LAYER_CHANGE 0 @ 0.24mm
G92 E0
G1 E-2.5 F6000
; AFTER_LAYER_CHANGE 0 @ 0.24mm
M204 P500
; printing object "CycloidDiskBest.stl" id:0 copy 0
M204 T500
G1 X89.787 Y89.992 F18000
G1 Z.24
G1 E2.5 F6000
;TYPE:Brim
;WIDTH:0.5
;MM3_PER_MM:0.107639
G1 F3000
G1 X90.487 Y89.435 E.03886
G1 X90.794 Y89.234 E.0159
G1 X91.635 Y88.787 E.04135
G1 X92.043 Y88.614 E.01924
G1 X92.147 Y88.524 E.00598
G1 X92.371 Y88.156 E.01869
G1 X92.54 Y87.922 E.01254
G1 X93.166 Y87.196 E.04162
G1 X93.515 Y86.865 E.02087
G1 X94.111 Y86.388 E.03316
G1 X94.805 Y85.935 E.03594
G1 X95.338 Y85.663 E.02596
G1 X95.797 Y85.468 E.02168
G1 X96.718 Y85.18 E.0419
G1 X97.438 Y85.045 E.03176
G1 X97.553 Y84.986 E.00561
G1 X97.855 Y84.693 E.01827
G1 X98.533 Y84.148 E.03778
G1 X98.897 Y83.902 E.01907
G1 X99.655 Y83.493 E.03738
G1 X100.138 Y83.29 E.02275
G1 X100.484 Y83.164 E.01595
G1 X101.161 Y82.968 E.03062
G1 X101.793 Y82.853 E.02786
G1 X102.727 Y82.787 E.04067
G1 X103.243 Y82.799 E.02241
G1 X103.474 Y82.828 E.01009
G1 X103.61 Y82.802 E.00603
G1 X104.247 Y82.451 E.03156
G1 X104.874 Y82.166 E.0299
G1 X105.921 Y81.84 E.04761
G1 X106.386 Y81.754 E.02054
G1 X107.261 Y81.667 E.03816
G1 X107.759 Y81.663 E.02159
G1 X108.974 Y81.795 E.05305
G1 X109.308 Y81.868 E.01487
G1 X109.908 Y82.062 E.02734
G1 X110.039 Y82.064 E.00572
G1 X110.801 Y81.843 E.03441
G1 X111.24 Y81.755 E.01945
G1 X111.79 Y81.695 E.02402
G1 X112.496 Y81.659 E.03067
G1 X113.114 Y81.694 E.0269
G1 X113.948 Y81.812 E.03653
G1 X114.849 Y82.067 E.04067
G1 X115.406 Y82.283 E.02593
G1 X115.749 Y82.449 E.01655
G1 X116.387 Y82.804 E.03169
G1 X116.531 Y82.835 E.00638
G1 X116.816 Y82.799 E.01248
G1 X117.356 Y82.789 E.02343
G1 X117.698 Y82.808 E.01486
G1 X118.479 Y82.895 E.03412
G1 X118.895 Y82.981 E.01844
G1 X119.383 Y83.119 E.022
G1 X120.301 Y83.472 E.0427
G1 X121.129 Y83.92 E.04087
G1 X121.519 Y84.182 E.02039
G1 X122.186 Y84.733 E.03755
G1 X122.452 Y84.99 E.01607
G1 X122.573 Y85.05 E.00585
G1 X123.35 Y85.196 E.03432
G1 X124.295 Y85.503 E.04311
G1 X124.659 Y85.662 E.01725
G1 X125.374 Y86.047 E.03527
G1 X125.755 Y86.292 E.01966
G1 X126.485 Y86.866 E.04031
G1 X126.833 Y87.195 E.0208
G1 X127.473 Y87.944 E.04275
G1 X127.878 Y88.542 E.03136
G1 X127.977 Y88.623 E.00554
G1 X128.419 Y88.809 E.02081
G1 X129.176 Y89.217 E.03733
G1 X129.555 Y89.463 E.01961
G1 X130.23 Y90.007 E.03763
G1 X130.641 Y90.411 E.02502
G1 X131.059 Y90.882 E.02732
G1 X131.356 Y91.275 E.0214
G1 X131.644 Y91.719 E.02297
G1 X132.081 Y92.585 E.0421
G1 X132.232 Y92.965 E.01777
G1 X132.306 Y93.209 E.01107
G1 X132.39 Y93.327 E.00629
G1 X132.654 Y93.516 E.01408
G1 X132.953 Y93.765 E.01691
G1 X133.526 Y94.289 E.03369
G1 X134.246 Y95.153 E.04883
G1 X134.695 Y95.888 E.03737
G1 X135.069 Y96.671 E.03767
G1 X135.225 Y97.115 E.02042
G1 X135.393 Y97.677 E.02549
G1 X135.47 Y98.035 E.01586
G1 X135.553 Y98.807 E.03374
G1 X135.602 Y98.925 E.00555
G1 X136.143 Y99.588 E.03713
G1 X136.396 Y99.959 E.01952
G1 X136.851 Y100.806 E.04173
G1 X136.956 Y101.039 E.01107
G1 X137.153 Y101.586 E.02523
G1 X137.301 Y102.07 E.02199
G1 X137.388 Y102.434 E.01623
G1 X137.461 Y102.85 E.01833
G1 X137.509 Y103.369 E.02262
G1 X137.532 Y103.954 E.02544
G1 X137.516 Y104.326 E.01614
G1 X137.439 Y105.035 E.03098
G1 X137.462 Y105.162 E.00559
G1 X137.722 Y105.669 E.02472
G1 X137.869 Y106.013 E.01625
G1 X138.2 Y107.074 E.04825
G1 X138.281 Y107.479 E.01791
G1 X138.348 Y108.058 E.02532
G1 X138.379 Y108.878 E.0356
G1 X138.285 Y109.909 E.04494
G1 X138.195 Y110.367 E.02027
G1 X137.946 Y111.196 E.03756
G1 X137.827 Y111.507 E.01446
G1 X137.821 Y111.649 E.00618
G1 X137.928 Y112.017 E.01663
G1 X137.981 Y112.283 E.01178
G1 X138.049 Y112.836 E.02419
G1 X138.096 Y113.472 E.02767
G1 X138.093 Y113.789 E.01375
G1 X138.023 Y114.602 E.03541
G1 X137.933 Y115.119 E.0228
G1 X137.699 Y115.965 E.0381
G1 X137.51 Y116.47 E.02343
G1 X137.346 Y116.821 E.01679
G1 X137.073 Y117.331 E.02514
G1 X136.723 Y117.877 E.02814
G1 X136.687 Y117.996 E.0054
G1 X136.681 Y118.737 E.03215
G1 X136.589 Y119.539 E.03506
G1 X136.522 Y119.872 E.01472
G1 X136.275 Y120.718 E.03825
G1 X136.083 Y121.195 E.02235
G1 X135.869 Y121.66 E.02223
G1 X135.559 Y122.202 E.02707
G1 X135.311 Y122.575 E.01944
G1 X134.668 Y123.342 E.04347
G1 X134.189 Y123.796 E.02865
G1 X134.113 Y123.922 E.0064
G1 X134.053 Y124.212 E.01284
G1 X133.933 Y124.612 E.0181
G1 X133.79 Y125.065 E.02063
G1 X133.65 Y125.418 E.01647
G1 X133.132 Y126.403 E.04832
G1 X132.883 Y126.772 E.01934
G1 X132.4 Y127.383 E.0338
G1 X132.042 Y127.764 E.02266
G1 X131.754 Y128.027 E.01694
G1 X131.3 Y128.4 E.02552
G1 X130.943 Y128.655 E.01905
G1 X130.619 Y128.856 E.01657
G1 X130.343 Y128.994 E.01339
G1 X130.244 Y129.09 E.00596
G1 X129.816 Y129.9 E.03978
G1 X129.576 Y130.274 E.01927
G1 X129.007 Y130.982 E.03947
G1 X128.78 Y131.228 E.0145
G1 X128.416 Y131.566 E.02157
G1 X127.714 Y132.125 E.03898
G1 X127.329 Y132.374 E.0199
G1 X126.927 Y132.588 E.01973
G1 X126.312 Y132.88 E.02956
G1 X126.031 Y132.985 E.01301
G1 X125.383 Y133.174 E.0293
G1 X125.275 Y133.245 E.00564
G1 X124.856 Y133.743 E.02822
G1 X124.575 Y134.033 E.01754
G1 X123.734 Y134.739 E.04768
G1 X123.101 Y135.141 E.03255
G1 X122.577 Y135.409 E.02554
G1 X122.119 Y135.608 E.02169
G1 X121.812 Y135.717 E.01411
G1 X120.946 Y135.959 E.03906
G1 X120.631 Y136.019 E.01393
G1 X119.849 Y136.097 E.03409
G1 X119.576 Y136.108 E.01188
G1 X119.441 Y136.159 E.00625
G1 X119.15 Y136.401 E.01645
G1 X118.804 Y136.638 E.01818
G1 X118.007 Y137.072 E.03942
G1 X117.594 Y137.255 E.0196
G1 X116.782 Y137.522 E.03709
G1 X116.137 Y137.67 E.02873
G1 X115.43 Y137.755 E.03093
G1 X114.804 Y137.783 E.0272
G1 X114.477 Y137.77 E.01419
G1 X113.63 Y137.678 E.037
G1 X113.282 Y137.614 E.01536
G1 X113.149 Y137.63 E.0058
G1 X112.615 Y137.87 E.0254
G1 X111.508 Y138.197 E.05014
G1 X111.126 Y138.266 E.01684
G1 X110.485 Y138.334 E.02796
G1 X109.708 Y138.34 E.03375
G1 X109.413 Y138.322 E.01283
G1 X108.733 Y138.24 E.0297
G1 X108.398 Y138.176 E.01482
G1 X107.331 Y137.848 E.04847
G1 X106.838 Y137.631 E.02335
G1 X106.706 Y137.616 E.00579
G1 X106.288 Y137.696 E.01846
G1 X105.5 Y137.772 E.03435
G1 X105.056 Y137.782 E.0193
G1 X104.571 Y137.755 E.02106
G1 X103.955 Y137.682 E.02693
G1 X103.305 Y137.544 E.02885
G1 X102.484 Y137.283 E.0374
G1 X101.968 Y137.059 E.02443
G1 X101.227 Y136.657 E.03658
G1 X100.808 Y136.373 E.02196
G1 X100.565 Y136.163 E.01397
G1 X100.426 Y136.109 E.00647
G1 X100.09 Y136.097 E.01462
G1 X99.318 Y136.01 E.03369
G1 X98.95 Y135.938 E.0163
G1 X98.162 Y135.709 E.03562
G1 X97.801 Y135.578 E.01667
G1 X97.445 Y135.419 E.0169
G1 X97.043 Y135.217 E.01953
G1 X96.506 Y134.902 E.02702
G1 X95.904 Y134.447 E.03278
G1 X95.553 Y134.152 E.0199
G1 X95.274 Y133.882 E.01685
G1 X95.106 Y133.705 E.01061
G1 X94.76 Y133.267 E.0242
G1 X94.649 Y133.191 E.00583
G1 X93.95 Y132.979 E.03173
G1 X93.491 Y132.795 E.02146
G1 X92.571 Y132.311 E.04515
G1 X91.948 Y131.871 E.03308
G1 X91.592 Y131.574 E.02013
G1 X91.164 Y131.169 E.02558
G1 X90.479 Y130.352 E.04626
G1 X90.115 Y129.791 E.02905
G1 X89.757 Y129.088 E.03425
G1 X89.66 Y128.99 E.00598
G1 X89.289 Y128.799 E.01809
G1 X88.764 Y128.45 E.02737
G1 X88.247 Y128.028 E.02896
G1 X87.8 Y127.602 E.02683
G1 X87.338 Y127.068 E.03067
G1 X87.081 Y126.723 E.01865
G1 X86.892 Y126.449 E.01446
G1 X86.604 Y125.934 E.0256
G1 X86.391 Y125.51 E.02059
G1 X86.219 Y125.089 E.01976
G1 X85.94 Y124.173 E.04155
G1 X85.883 Y123.907 E.01183
G1 X85.801 Y123.777 E.00669
G1 X85.668 Y123.674 E.00727
G1 X85.344 Y123.359 E.01963
G1 X84.689 Y122.574 E.04436
G1 X84.498 Y122.295 E.0147
G1 X84.247 Y121.841 E.02251
G1 X84.209 Y121.803 E.00234
G1 X83.971 Y121.32 E.02335
G1 X83.694 Y120.619 E.03274
G1 X83.491 Y119.93 E.03118
G1 X83.387 Y119.378 E.02437
G1 X83.319 Y118.68 E.03046
G1 X83.311 Y117.989 E.02999
G1 X83.274 Y117.869 E.00543
G1 X82.898 Y117.292 E.02991
G1 X82.656 Y116.825 E.02282
G1 X82.436 Y116.34 E.02313
G1 X82.301 Y115.965 E.01729
G1 X82.106 Y115.285 E.03069
G1 X81.992 Y114.696 E.02607
G1 X81.907 Y113.79 E.03951
G1 X81.911 Y113.293 E.02157
G1 X81.998 Y112.395 E.03917
G1 X82.092 Y111.925 E.02079
G1 X82.178 Y111.658 E.01217
G1 X82.173 Y111.509 E.00649
G1 X82.032 Y111.142 E.01707
G1 X81.809 Y110.382 E.03437
G1 X81.74 Y110.05 E.01472
G1 X81.638 Y109.19 E.0376
G1 X81.62 Y108.831 E.01561
G1 X81.653 Y108.035 E.0346
G1 X81.71 Y107.559 E.0208
G1 X81.813 Y107.016 E.02397
G1 X82.039 Y106.268 E.03393
G1 X82.298 Y105.619 E.03036
G1 X82.535 Y105.193 E.02116
G1 X82.562 Y105.06 E.00588
G1 X82.484 Y104.328 E.03193
G1 X82.471 Y103.736 E.02572
G1 X82.557 Y102.743 E.04325
G1 X82.706 Y102.047 E.03091
G1 X82.859 Y101.535 E.02319
G1 X83.149 Y100.806 E.03406
G1 X83.596 Y99.981 E.04076
G1 X83.922 Y99.497 E.02533
G1 X84.378 Y98.964 E.03042
G1 X84.43 Y98.845 E.00567
G1 X84.514 Y98.129 E.03127
G1 X84.623 Y97.61 E.02303
G1 X84.774 Y97.118 E.02234
G1 X85.019 Y96.462 E.03037
G1 X85.275 Y95.94 E.02526
G1 X85.76 Y95.144 E.04046
G1 X86.348 Y94.424 E.04036
G1 X86.685 Y94.079 E.02091
G1 X87.041 Y93.77 E.02047
G1 X87.628 Y93.317 E.03215
G1 X87.707 Y93.198 E.00624
G1 X87.765 Y92.981 E.00974
G1 X87.931 Y92.555 E.01984
G1 X88.151 Y92.108 E.02163
G1 X88.485 Y91.512 E.02966
G1 X88.692 Y91.205 E.01604
G1 X89.19 Y90.593 E.03427
G1 X89.759 Y90.021 E.03502
G1 X90.077 Y90.338 F18000
G1 F3000
G1 X90.092 Y90.322 E.00095
G1 X90.746 Y89.803 E.03623
G1 X91.017 Y89.624 E.01412
G1 X91.822 Y89.195 E.03961
G1 X92.208 Y89.031 E.01817
G1 X92.339 Y88.95 E.0067
G1 X92.54 Y88.742 E.01253
G1 X92.896 Y88.195 E.02833
G1 X93.496 Y87.501 E.03983
G1 X93.815 Y87.2 E.01903
G1 X94.37 Y86.755 E.03089
G1 X95.024 Y86.327 E.03391
G1 X95.523 Y86.072 E.02434
G1 X95.959 Y85.888 E.02054
G1 X96.82 Y85.618 E.03916
G1 X97.51 Y85.488 E.03052
G1 X97.647 Y85.441 E.00627
G1 X97.875 Y85.298 E.01167
G1 X98.157 Y85.026 E.01702
G1 X98.795 Y84.512 E.03556
G1 X99.124 Y84.29 E.01724
G1 X99.844 Y83.901 E.0355
G1 X100.305 Y83.706 E.02175
G1 X100.627 Y83.59 E.01485
G1 X101.258 Y83.407 E.02851
G1 X101.842 Y83.3 E.02577
G1 X102.731 Y83.236 E.03872
G1 X103.203 Y83.247 E.02049
G1 X103.403 Y83.271 E.00874
G1 X103.69 Y83.242 E.01253
G1 X103.837 Y83.19 E.00675
G1 X104.453 Y82.85 E.03056
G1 X105.042 Y82.583 E.02806
G1 X106.021 Y82.279 E.04451
G1 X106.455 Y82.198 E.01916
G1 X107.279 Y82.116 E.03596
G1 X107.744 Y82.113 E.02017
G1 X108.909 Y82.24 E.05086
G1 X109.198 Y82.303 E.01286
G1 X109.756 Y82.484 E.02545
G1 X110.028 Y82.512 E.01189
G1 X110.174 Y82.492 E.0064
G1 X110.913 Y82.278 E.03339
G1 X111.303 Y82.2 E.01725
G1 X111.83 Y82.142 E.02301
G1 X112.501 Y82.109 E.0292
G1 X113.076 Y82.142 E.02498
G1 X113.846 Y82.251 E.03376
G1 X114.701 Y82.491 E.03855
G1 X115.232 Y82.697 E.02473
G1 X115.546 Y82.849 E.01513
G1 X116.16 Y83.191 E.03052
G1 X116.303 Y83.245 E.00665
G1 X116.597 Y83.278 E.01285
G1 X116.855 Y83.247 E.01128
G1 X117.353 Y83.238 E.0216
G1 X117.665 Y83.255 E.01355
G1 X118.415 Y83.34 E.03277
G1 X118.793 Y83.418 E.01679
G1 X119.235 Y83.543 E.01992
G1 X120.121 Y83.885 E.0412
G1 X120.891 Y84.301 E.03803
G1 X121.245 Y84.538 E.01847
G1 X121.883 Y85.065 E.03592
G1 X122.131 Y85.303 E.01492
G1 X122.371 Y85.449 E.01222
G1 X122.5 Y85.493 E.00588
G1 X123.247 Y85.634 E.03303
G1 X124.141 Y85.926 E.04082
G1 X124.468 Y86.068 E.01547
G1 X125.142 Y86.431 E.03324
G1 X125.49 Y86.654 E.01793
G1 X126.187 Y87.202 E.0385
G1 X126.503 Y87.5 E.01883
G1 X127.111 Y88.211 E.04061
G1 X127.499 Y88.782 E.03
G1 X127.69 Y88.967 E.01152
G1 X127.812 Y89.041 E.0062
G1 X128.231 Y89.217 E.01973
G1 X128.942 Y89.6 E.03507
G1 X129.286 Y89.823 E.01776
G1 X129.926 Y90.338 E.03567
G1 X130.312 Y90.717 E.02349
G1 X130.715 Y91.171 E.02632
G1 X130.991 Y91.537 E.01991
G1 X131.251 Y91.937 E.02071
G1 X131.669 Y92.764 E.04024
G1 X131.872 Y93.325 E.02591
G1 X132.019 Y93.579 E.01275
G1 X132.141 Y93.7 E.00744
G1 X132.66 Y94.105 E.02859
G1 X133.207 Y94.607 E.03219
G1 X133.874 Y95.408 E.04527
G1 X134.297 Y96.096 E.03505
G1 X134.657 Y96.853 E.03639
G1 X134.956 Y97.781 E.04233
G1 X135.027 Y98.113 E.01473
G1 X135.105 Y98.841 E.0318
G1 X135.187 Y99.094 E.01154
G1 X135.261 Y99.217 E.0062
G1 X135.78 Y99.851 E.03559
G1 X136.008 Y100.187 E.0176
G1 X136.453 Y101.016 E.04086
G1 X136.729 Y101.733 E.03338
G1 X136.947 Y102.516 E.03526
G1 X137.016 Y102.915 E.01755
G1 X137.061 Y103.402 E.02125
G1 X137.083 Y103.959 E.0242
G1 X137.068 Y104.296 E.01464
G1 X136.994 Y104.977 E.02974
G1 X136.999 Y105.121 E.00625
G1 X137.07 Y105.379 E.01161
G1 X137.314 Y105.855 E.02321
G1 X137.445 Y106.162 E.0145
G1 X137.766 Y107.192 E.04685
G1 X137.838 Y107.554 E.01602
G1 X137.9 Y108.087 E.0233
G1 X137.929 Y108.874 E.03418
G1 X137.841 Y109.839 E.04202
G1 X137.761 Y110.253 E.01831
G1 X137.523 Y111.046 E.03597
G1 X137.412 Y111.337 E.01349
G1 X137.379 Y111.499 E.0072
G1 X137.394 Y111.787 E.01249
G1 X137.539 Y112.36 E.02567
G1 X137.603 Y112.884 E.02289
G1 X137.647 Y113.481 E.02602
G1 X137.645 Y113.773 E.01267
G1 X137.579 Y114.538 E.03332
G1 X137.496 Y115.014 E.02097
G1 X137.274 Y115.821 E.03632
G1 X137.094 Y116.301 E.02228
G1 X136.688 Y117.099 E.03886
G1 X136.353 Y117.623 E.02701
G1 X136.259 Y117.864 E.01122
G1 X136.239 Y118.002 E.00603
G1 X136.232 Y118.716 E.03101
G1 X136.146 Y119.464 E.03266
G1 X136.084 Y119.77 E.01357
G1 X135.847 Y120.58 E.03663
G1 X135.467 Y121.46 E.04161
G1 X135.179 Y121.962 E.02512
G1 X134.955 Y122.299 E.01758
G1 X134.346 Y123.028 E.04125
G1 X133.89 Y123.461 E.02726
G1 X133.732 Y123.687 E.01197
G1 X133.672 Y123.842 E.00725
G1 X133.616 Y124.108 E.01181
G1 X133.369 Y124.909 E.03637
G1 X133.245 Y125.223 E.01466
G1 X132.749 Y126.166 E.04621
G1 X132.523 Y126.503 E.01763
G1 X132.056 Y127.094 E.03271
G1 X131.731 Y127.44 E.02062
G1 X131.463 Y127.685 E.01574
G1 X131.031 Y128.041 E.02431
G1 X130.698 Y128.279 E.01777
G1 X130.405 Y128.461 E.01494
G1 X130.156 Y128.586 E.0121
G1 X129.935 Y128.766 E.0124
G1 X129.843 Y128.89 E.00668
G1 X129.431 Y129.669 E.03825
G1 X129.216 Y130.005 E.01735
G1 X128.67 Y130.686 E.03787
G1 X128.465 Y130.907 E.01309
G1 X128.119 Y131.23 E.02053
G1 X127.457 Y131.757 E.03675
G1 X127.096 Y131.99 E.01866
G1 X126.142 Y132.464 E.04622
