; HEADER_BLOCK_START
; generated by AnycubicSlicerNext 1.3.3.1 on 2025-03-01 at 19:50:40
; total layer number: 65
; filament_density: 1.24
; filament_diameter: 1.75
; max_z_height: 13.04
; exclude_object: 0
; model_instances: 1
; HEADER_BLOCK_END

; THUMBNAIL_BLOCK_START
; THUMBNAIL_BLOCK_END

; external perimeters extrusion width = 0.42mm
; perimeters extrusion width = 0.45mm
; infill extrusion width = 0.45mm
; solid infill extrusion width = 0.42mm
; top infill extrusion width = 0.42mm
; support material extrusion width = 0.40mm
; first layer extrusion width = 0.50mm

; EXECUTABLE_BLOCK_START
M201 X2000 Y2000 Z800 E2000
M203 X300 Y300 Z8 E100
M204 P2000 R2000 T2000
M205 X10.00 Y10.00 Z2.00 E5.00 ; sets the jerk limits, mm/sec
;TYPE:Custom
G90 ; use absolute coordinates
M83 ; extruder relative mode
M104 S220 ; set extruder temp
M140 S60 ; set bed temp
M190 S60 ; wait for bed temp
M109 S220 ; wait for extruder temp
G28                                        ; move X/Y/Z to min endstops
G1 Z0.28                                   ; lift nozzle a bit 
G92 E0 
G1 Y3 F1800                                    ; zero the extruded length 
G1 X60  E25 F500                       ; Extrude 25mm of filament in a 5cm line. 
G92 E0                                     ; zero the extruded length again 
G1 E-2 F500                                ; Retract a little 
G1 X70 F4000                              ; Quickly wipe away from the filament line
M117
G90
G21
M83 ; use relative distances for extrusion
; filament start gcode
M106 S0
;LAYER_CHANGE
;Z:0.24
;HEIGHT:0.24
; BEFORE_LAYER_CHANGE 0 @ 0.24mm
G92 E0
G1 E-2.5 F6000
; AFTER_LAYER_CHANGE 0 @ 0.24mm
M204 P500
; printing object "CycloidDiskBestReceiver.stl" id:1710810369792 copy 0
M204 T500
G1 X115.841 Y82.556 F18000
G1 Z.24
G1 E2.5 F6000
;TYPE:Support
;WIDTH:0.5
;MM3_PER_MM:0.107639
G1 F3000
G3 X117.393 Y83.191 I-.931 J4.494 E.0732
G3 X120.123 Y83.963 I-.364 J6.502 E.12418
G3 X127.025 Y89.116 I1.563 J5.105 E.43496
G2 X128.456 Y89.626 I1.096 J-.812 E.06992
G3 X132.979 Y98.095 I.231 J5.319 E.51934
G3 X135.345 Y102.95 I-2.004 J3.981 E.25186
G3 X136.205 Y107.288 I-3.538 J2.956 E.20023
G3 X136.351 Y111.873 I-3.947 J2.42 E.20832
G3 X136.633 Y113.525 I-4.328 J1.59 E.07317
G3 X134.181 Y121.013 I-3.666 J2.945 E.40551
G3 X132.018 Y124.268 I-4.233 J-.466 E.17623
G3 X129.329 Y129.467 I-4.347 J1.047 E.27699
G3 X124.709 Y132.626 I-4.258 J-1.27 E.26282
G3 X122.446 Y133.668 I-4.144 J-6.02 E.10868
G3 X115.684 Y136.167 I-4.411 J-1.539 E.35741
G3 X111.287 Y135.991 I-2.047 J-3.87 E.20013
G3 X108.806 Y136.798 I-3.247 J-5.762 E.11399
G3 X103.525 Y136.889 I-2.701 J-3.486 E.24581
G3 X101.078 Y136.27 I-.127 J-4.642 E.11097
G3 X94.984 Y134.771 I-1.94 J-5.253 E.2892
G3 X90.743 Y130.446 I1.289 J-5.504 E.27744
G3 X89.392 Y127.812 I4.939 J-4.198 E.12969
G3 X86.742 Y123.182 I1.77 J-4.086 E.24825
G3 X85.985 Y121.929 I2.471 J-2.347 E.06407
G3 X83.744 Y115.728 I1.842 J-4.171 E.31991
G3 X83.942 Y112.641 I5.573 J-1.191 E.13597
G3 X83.275 Y108.57 I3.42 J-2.651 E.18667
G3 X84.27 Y102.163 I3.474 J-2.741 E.31584
G3 X86.144 Y99.161 I5.363 J1.262 E.1564
G3 X87.119 Y96.106 I5.563 J.093 E.14119
G3 X91.461 Y90.515 I4.495 J-.991 E.35053
G3 X93.222 Y89.15 I3.535 J2.744 E.09775
G3 X96.754 Y85.777 I4.682 J1.366 E.22205
G3 X101.223 Y84.652 I3.123 J2.969 E.21108
G3 X104.483 Y84.115 I2.487 J4.926 E.14565
G3 X109.104 Y83.839 I2.52 J3.364 E.21279
G3 X112.34 Y83.337 I2.423 J4.95 E.14433
G3 X115.775 Y82.542 I2.631 J3.547 E.15745
G1 X109.611 Y84.603 F18000
G1 F3000
G3 X109.544 Y84.604 I.405 J25.395 E6.92436
G1 E-1.75 F6000
;WIPE_START
G1 F3000
G1 X108.546 Y84.673 E-.75
;WIPE_END
G1 X136.91 Y118.641 F18000
G1 E2.5 F6000
G1 F3000
G1 X136.91 Y114.722 E.17013
G2 X136.411 Y113.888 I-2.3 J.809 E.04245
G1 X136.411 Y119.054 E.22425
G3 X135.913 Y119.621 I-1.643 J-.943 E.03297
G1 X135.913 Y104.702 E.64761
G2 X135.415 Y103.661 I-2.616 J.612 E.05049
G1 X135.415 Y105.55 E.08199
G3 X134.916 Y100.861 I15.101 J-3.976 E.20546
G2 X134.418 Y99.795 I-2.671 J.6 E.05147
G1 X134.418 Y101.661 E.081
G3 X133.92 Y99.205 I5.202 J-2.334 E.10969
G2 X133.421 Y98.803 I-1.163 J.932 E.02801
G1 X133.421 Y99.663 E.03733
G1 X136.411 Y111.38 F18000
G1 F3000
G1 X136.411 Y108.022 E.14576
G1 X135.415 Y120.273 F18000
G1 F3000
G1 X135.415 Y114.458 E.2524
G2 X134.916 Y120.302 I18.153 J4.491 E.25561
G3 X134.418 Y120.529 I-.808 J-1.11 E.02394
G1 X134.418 Y118.341 E.09501
G2 X133.92 Y120.666 I5.497 J2.394 E.10394
G1 X133.809 Y120.697 E.005
G3 X133.421 Y122.25 I-4.476 J-.292 E.06984
G1 X133.421 Y120.824 E.0619
G2 X132.923 Y123.001 I2.904 J1.81 E.09878
G3 X132.425 Y123.504 I-1.39 J-.881 E.03096
G1 X132.425 Y122.761 E.03222
G2 X131.926 Y124.086 I1.876 J1.462 E.06239
G1 E-1.75 F6000
;WIPE_START
G1 F3000
G1 X131.926 Y123.601 E-.3636
G1 X132.189 Y123.158 E-.3864
;WIPE_END
G1 X133.421 Y96.924 F18000
G1 E2.5 F6000
G1 F3000
G1 X133.421 Y93.6 E.14432
G2 X132.923 Y92.409 I-6.727 J2.116 E.05611
G1 X132.923 Y97.487 E.22044
G1 X132.719 Y97.767 E.01503
G2 X132.425 Y97.238 I-14.805 J7.88 E.02628
G1 X132.425 Y91.723 E.23937
G2 X131.926 Y91.243 I-1.57 J1.129 E.03022
G1 X131.899 Y96.353 E.22182
G2 X131.428 Y95.625 I-48.939 J31.141 E.03763
G1 X131.428 Y90.869 E.20643
G2 X130.93 Y90.565 I-1.084 J1.218 E.02547
G1 X130.93 Y94.912 E.18867
G2 X130.431 Y94.24 I-16.369 J11.626 E.0363
G1 X130.431 Y90.353 E.16872
G2 X129.933 Y90.199 I-.674 J1.292 E.02277
G1 X129.933 Y93.617 E.14838
G2 X129.435 Y93.027 I-15.176 J12.328 E.0335
G1 X129.435 Y90.086 E.12769
G2 X128.936 Y90.051 I-.346 J1.352 E.0218
G1 X128.936 Y92.475 E.10523
G2 X128.438 Y91.949 I-13.297 J12.103 E.03145
G1 X128.438 Y90.036 E.08304
G1 X127.94 Y90.105 E.02184
G1 X127.94 Y91.455 E.0586
G3 X127.441 Y89.971 I.711 J-1.064 E.07309
G2 X126.943 Y89.547 I-1.212 J.92 E.02863
G1 X126.943 Y90.54 E.04307
G2 X126.445 Y90.116 I-17.215 J19.736 E.0284
G1 X126.445 Y87.827 E.09936
G2 X125.946 Y86.566 I-3.714 J.739 E.05916
G1 X125.946 Y89.715 E.13668
G2 X125.448 Y89.332 I-15.575 J19.753 E.02728
G1 X125.448 Y85.861 E.15068
G2 X124.95 Y85.364 I-1.613 J1.121 E.0307
G1 X124.95 Y88.969 E.15648
G2 X124.452 Y88.623 I-14.11 J19.808 E.02633
G1 X124.452 Y84.98 E.15817
G2 X123.953 Y84.667 I-1.107 J1.212 E.02567
G1 X123.953 Y88.295 E.15746
G2 X123.455 Y87.983 I-76.511 J121.614 E.02552
G1 X123.455 Y84.455 E.15315
G2 X122.957 Y84.292 I-.694 J1.288 E.02287
G1 X122.94 Y87.676 E.14688
G2 X122.458 Y87.403 I-26.154 J45.647 E.02403
G1 X122.458 Y84.179 E.13996
G2 X121.96 Y84.137 I-.365 J1.348 E.02183
G1 X121.96 Y87.136 E.13017
G2 X121.462 Y86.883 I-10.356 J19.829 E.02425
G1 X121.462 Y84.116 E.12014
G1 X120.963 Y84.184 E.02184
G1 X120.963 Y86.642 E.10669
G2 X120.465 Y86.416 I-6.495 J13.662 E.02375
G1 X120.465 Y84.276 E.0929
G1 X119.967 Y84.348 E.02186
G1 X119.967 Y86.2 E.08037
G2 X119.468 Y85.998 I-6.168 J14.498 E.02334
G1 X119.468 Y84.035 E.0852
G1 X118.97 Y83.813 E.02369
G1 X118.97 Y85.806 E.08654
G2 X118.472 Y85.629 I-6.162 J16.541 E.02296
G1 X118.472 Y83.684 E.08443
G2 X117.973 Y83.594 I-.461 J1.12 E.02215
G1 X117.973 Y85.46 E.08102
G2 X117.475 Y85.304 I-4.571 J13.761 E.02266
G1 X117.475 Y83.594 E.07423
G3 X116.977 Y83.39 I.04 J-.806 E.02384
G1 X116.977 Y85.158 E.07676
G2 X116.478 Y85.023 I-14.845 J53.891 E.02241
G1 X116.478 Y83.167 E.08059
G2 X115.98 Y82.999 I-.642 J1.081 E.023
G1 X115.98 Y84.901 E.08258
G2 X115.482 Y84.786 I-3.4 J13.63 E.0222
G1 X115.482 Y82.892 E.08221
G2 X114.983 Y82.873 I-.296 J1.154 E.02181
G1 X114.983 Y84.683 E.07859
G2 X114.485 Y84.591 I-2.866 J14.064 E.022
G1 X114.485 Y82.885 E.07405
G1 X113.987 Y82.992 E.02212
G1 X113.987 Y84.507 E.06576
G2 X113.488 Y84.434 I-3.172 J19.911 E.02186
G1 X113.488 Y83.151 E.05566
G1 X112.99 Y83.375 E.02371
G1 X112.99 Y84.372 E.0433
G3 X112.492 Y83.726 I-.15 J-.4 E.04713
G1 X111.993 Y83.69 E.02169
G1 X111.993 Y84.274 E.02538
G1 X111.495 Y84.241 E.02168
G1 X111.495 Y83.61 E.02739
G1 X110.997 Y83.637 E.02166
G1 X110.997 Y84.216 E.02516
G2 X110.498 Y84.203 I-.627 J14.367 E.02164
G1 X110.498 Y83.706 E.02157
G1 X110 Y83.845 E.02245
G1 X110 Y84.197 E.01528
G3 X109.502 Y83.856 I-.225 J-.206 E.03782
G1 E-1.75 F6000
;WIPE_START
G1 F3000
G1 X109.502 Y84.201 E-.25902
G1 X110 Y84.197 E-.37376
G1 X110 Y84.041 E-.11721
;WIPE_END
G1 X131.428 Y127.489 F18000
G1 E2.5 F6000
G1 F3000
G1 X131.428 Y124.374 E.13523
G3 X130.93 Y125.091 I-18.033 J-12.005 E.0379
G1 X130.93 Y127.871 E.12067
G3 X130.431 Y128.391 I-4.868 J-4.166 E.03128
G1 X130.431 Y125.759 E.11425
G3 X129.933 Y126.383 I-15.412 J-11.797 E.03467
G1 X129.933 Y128.74 E.10234
G3 X129.435 Y128.985 I-.812 J-1.025 E.02428
G1 X129.435 Y126.974 E.0873
G3 X128.936 Y127.528 I-62.857 J-56.047 E.03234
G1 X128.936 Y129.369 E.07996
G3 X128.438 Y130.448 I-2.772 J-.627 E.05194
G1 X128.438 Y128.051 E.10405
G3 X127.94 Y128.544 I-12.589 J-12.216 E.03044
G1 X127.94 Y131.051 E.10881
G3 X127.441 Y131.468 I-1.226 J-.956 E.02844
G1 X127.441 Y129.015 E.10649
G3 X126.943 Y129.459 I-11.478 J-12.39 E.02897
G1 X126.943 Y131.783 E.10088
G1 X126.445 Y132.004 E.02366
G1 X126.445 Y129.883 E.09204
G3 X125.946 Y130.286 I-12.492 J-14.965 E.0278
G1 X125.946 Y132.133 E.08021
G3 X125.448 Y132.225 I-.463 J-1.12 E.02216
G1 X125.448 Y130.666 E.06768
G3 X124.95 Y131.031 I-9.718 J-12.758 E.02681
G1 X124.95 Y132.223 E.05176
G1 X124.452 Y132.31 E.02196
G1 X124.452 Y131.375 E.04062
G3 X123.953 Y131.704 I-8.798 J-12.747 E.02594
G1 X123.953 Y132.688 E.04268
G3 X123.455 Y132.966 I-.88 J-.993 E.02496
G1 X123.455 Y132.015 E.04124
G2 X122.909 Y133.183 I.321 J.861 E.06199
G1 X122.458 Y133.257 E.01984
G1 X122.458 Y132.595 E.02873
G3 X121.96 Y132.864 I-10.987 J-19.755 E.02458
G3 X121.462 Y134.761 I-2.627 J.324 E.08721
G1 X121.462 Y133.118 E.07132
G3 X120.963 Y133.357 I-9.853 J-19.867 E.024
G1 X120.963 Y135.338 E.08596
G1 X120.465 Y135.725 E.02739
G1 X120.465 Y133.586 E.09286
G3 X119.967 Y133.799 I-6.4 J-14.267 E.02353
G1 X119.967 Y136.014 E.09614
G3 X119.468 Y136.24 I-.796 J-1.093 E.02392
G1 X119.468 Y134.003 E.09709
G3 X118.97 Y134.193 I-5.665 J-14.111 E.02315
G1 X118.97 Y136.368 E.09443
G3 X118.472 Y136.444 I-.431 J-1.168 E.02203
G1 X118.472 Y134.373 E.08989
G3 X117.973 Y134.541 I-18.212 J-53.257 E.02283
G1 X117.973 Y136.468 E.08366
G3 X117.475 Y136.41 I-.108 J-1.235 E.02193
G1 X117.475 Y134.695 E.07443
G3 X116.977 Y134.841 I-3.854 J-12.245 E.02254
G1 X116.977 Y136.318 E.06411
G1 X116.478 Y136.131 E.0231
G1 X116.478 Y134.977 E.05011
G2 X115.98 Y135.876 I-.011 J.582 E.05473
G2 X115.482 Y135.813 I-.272 J.15 E.02539
G1 X115.482 Y135.214 E.02598
G2 X114.983 Y136.011 I-.056 J.519 E.05076
G3 X114.485 Y136.177 I-.626 J-1.049 E.02298
G1 X114.485 Y135.41 E.03331
G3 X113.987 Y135.492 I-2.634 J-14.372 E.02193
G1 X113.987 Y136.259 E.03327
G3 X113.488 Y136.269 I-.272 J-1.127 E.02181
G1 X113.487 Y135.566 E.03049
G2 X112.99 Y136.24 I-.104 J.444 E.04606
G1 X112.492 Y136.101 E.02245
G1 X112.435 Y135.688 E.0181
G3 X111.993 Y135.726 I-2.052 J-21.589 E.01925
G1 X111.993 Y136.137 E.01784
G1 X110.498 Y136.227 F18000
G1 F3000
G1 X110.498 Y135.798 E.01862
G1 X110 Y135.802 E.02163
G1 X110 Y136.208 E.01762
G3 X109.502 Y136.328 I-.522 J-1.071 E.02243
G1 X109.502 Y135.797 E.02308
G3 X109.003 Y135.784 I.256 J-19.944 E.02164
G1 X109.003 Y136.405 E.02694
G2 X108.505 Y136.519 I-.18 J.359 E.02405
G1 X108.505 Y135.76 E.03293
G3 X108.007 Y135.726 I4.444 J-69.033 E.02168
G1 X108.007 Y136.849 E.04873
G1 X107.508 Y137.073 E.02373
G1 X107.508 Y135.681 E.06043
G3 X107.01 Y135.629 I1.193 J-13.779 E.02175
G1 X107.01 Y137.215 E.06886
G3 X106.512 Y137.318 I-.489 J-1.114 E.02225
G1 X106.512 Y135.565 E.07607
G3 X106.013 Y135.493 I2.618 J-19.943 E.02186
G1 X106.013 Y137.319 E.07923
G3 X105.515 Y137.282 I-.164 J-1.183 E.02185
G1 X105.497 Y135.408 E.08139
G3 X105.017 Y135.316 I3.446 J-19.329 E.02123
G1 X105.017 Y137.177 E.0808
G3 X104.518 Y136.991 I.185 J-1.258 E.02326
G1 X104.518 Y135.213 E.07718
G1 X104.02 Y135.101 E.02218
G1 X104.02 Y136.75 E.07159
G2 X103.522 Y136.485 I-.439 J.225 E.02607
G1 X103.488 Y134.968 E.06586
G3 X103.023 Y134.84 I4.884 J-18.647 E.02091
G1 X103.023 Y136.474 E.07093
G3 X102.525 Y136.398 I-.072 J-1.188 E.02205
G1 X102.525 Y134.696 E.07385
G3 X102.027 Y134.539 I4.252 J-14.372 E.02268
G1 X102.027 Y136.278 E.07548
G1 X101.528 Y136.038 E.02401
G1 X101.528 Y134.373 E.0723
G3 X101.03 Y134.194 I18.682 J-52.887 E.02298
G1 X101.03 Y135.851 E.07192
G3 X100.532 Y136.055 I-.809 J-1.268 E.0235
G1 X100.532 Y134.004 E.08904
G3 X100.033 Y133.801 I19.423 J-48.459 E.02335
G1 X100.033 Y136.17 E.10283
G3 X99.535 Y136.25 I-.47 J-1.329 E.02203
G1 X99.535 Y133.584 E.11571
G3 X99.037 Y133.358 I5.852 J-13.537 E.02376
G1 X99.037 Y136.273 E.12655
G3 X98.538 Y136.242 I-.163 J-1.384 E.02179
G1 X98.538 Y133.116 E.13569
G3 X98.04 Y132.864 I7.196 J-14.841 E.02424
G1 X98.04 Y136.175 E.14374
G3 X97.542 Y136.028 I.154 J-1.442 E.02267
G1 X97.542 Y132.596 E.14899
G3 X97.043 Y132.313 I7.358 J-13.535 E.02488
G1 X97.043 Y135.85 E.15355
G1 X96.545 Y135.582 E.02456
G1 X96.535 Y132.012 E.15499
G3 X96.047 Y131.705 I10.647 J-17.491 E.02503
G1 X96.047 Y135.237 E.15334
G3 X95.548 Y134.804 I.94 J-1.585 E.02881
G1 X95.548 Y131.375 E.14885
G3 X95.05 Y131.031 I13.565 J-20.182 E.02629
G1 X95.05 Y134.372 E.14504
G3 X94.552 Y134.243 I.107 J-1.434 E.02247
G1 X94.552 Y130.668 E.15519
G3 X94.054 Y130.284 I9.828 J-13.287 E.0273
G1 X94.054 Y134.081 E.16484
G3 X93.555 Y133.816 I.48 J-1.503 E.02464
G1 X93.555 Y129.884 E.17069
G3 X93.057 Y129.459 I10.802 J-13.184 E.02842
G1 X93.057 Y133.495 E.17517
G3 X92.559 Y133.093 I.856 J-1.571 E.02794
G1 X92.559 Y129.015 E.17699
G3 X92.06 Y128.544 I11.587 J-12.749 E.02978
G1 X92.06 Y132.522 E.17269
G3 X91.562 Y131.725 I1.944 J-1.769 E.04105
G1 X91.562 Y128.049 E.15955
G3 X91.064 Y127.527 I13.347 J-13.235 E.03134
G1 X91.064 Y130.199 E.11598
G1 X90.565 Y129.646 E.03231
G1 X90.565 Y126.971 E.11613
G3 X90.067 Y126.385 I14.106 J-12.51 E.03338
G1 X90.067 Y128.801 E.10488
G3 X89.77 Y127.545 I2.793 J-1.323 E.05645
G1 X89.569 Y127.449 E.00969
G1 X89.569 Y125.758 E.07341
G3 X89.07 Y125.089 I14.391 J-11.243 E.03621
G1 X89.07 Y127.211 E.09213
G3 X88.572 Y126.87 I.541 J-1.324 E.02642
G1 X88.572 Y124.374 E.10834
G3 X88.074 Y123.6 I19.874 J-13.343 E.03996
G1 X88.074 Y126.412 E.12204
G3 X87.575 Y125.691 I2.276 J-2.106 E.03816
G1 X87.575 Y122.761 E.12718
G3 X87.077 Y121.844 I19.751 J-11.326 E.04531
G1 X87.077 Y122.956 E.04829
G3 X86.579 Y122.252 I1.352 J-1.485 E.03776
G1 X86.579 Y120.828 E.06181
G3 X86.08 Y119.677 I23.448 J-10.841 E.05442
G1 X86.08 Y121.53 E.08041
G3 X85.582 Y121.277 I.343 J-1.294 E.02443
G1 X85.582 Y118.34 E.12752
G3 X85.084 Y116.702 I26.578 J-8.984 E.07431
G1 X85.084 Y120.918 E.183
G3 X84.585 Y120.394 I.978 J-1.429 E.03163
G1 X84.585 Y114.457 E.25768
G3 X84.343 Y112.737 I24.454 J-4.322 E.07544
G2 X84.087 Y113.39 I1.356 J.908 E.03068
G1 X84.087 Y120.021 E.28787
G1 E-1.75 F6000
;WIPE_START
G1 F3000
G1 X84.087 Y119.021 E-.75
;WIPE_END
G1 X108.505 Y84.442 F18000
G1 E2.5 F6000
G1 F3000
G1 X108.505 Y83.993 E.0195
G1 X108.007 Y83.795 E.02328
G1 X108.007 Y84.275 E.02086
G3 X107.508 Y83.713 I-.197 J-.327 E.04604
G2 X107.01 Y83.673 I-.34 J1.112 E.02187
G1 X107.01 Y84.371 E.03027
G2 X106.512 Y84.433 I7.482 J61.335 E.0218
G1 X106.512 Y83.7 E.03182
G2 X106.013 Y84.508 I-.064 J.518 E.05172
G2 X105.515 Y84.59 I2.025 J13.903 E.02192
G1 X105.515 Y83.971 E.02689
G1 X105.017 Y84.235 E.02448
G1 X105.017 Y84.684 E.01948
G1 X104.518 Y84.786 E.02208
G1 X104.518 Y84.53 E.01113
G1 X104.02 Y84.448 E.02192
G1 X103.989 Y84.907 E.01995
G2 X103.522 Y85.025 I4.502 J18.715 E.02092
G1 X103.522 Y84.401 E.02707
G1 X103.023 Y84.429 E.02166
G1 X103.023 Y85.158 E.03168
G2 X102.525 Y85.304 I3.966 J14.472 E.02254
G1 X102.525 Y84.532 E.03353
