; HEADER_BLOCK_START
; generated by AnycubicSlicerNext 1.3.3.1 on 2025-03-01 at 23:49:46
; total layer number: 80
; filament_density: 1.24
; filament_diameter: 1.75
; max_z_height: 16.04
; exclude_object: 0
; model_instances: 1
; HEADER_BLOCK_END

; THUMBNAIL_BLOCK_START
; THUMBNAIL_BLOCK_END

; external perimeters extrusion width = 0.42mm
; perimeters extrusion width = 0.45mm
; infill extrusion width = 0.45mm
; solid infill extrusion width = 0.42mm
; top infill extrusion width = 0.42mm
; support material extrusion width = 0.40mm
; first layer extrusion width = 0.50mm

; EXECUTABLE_BLOCK_START
M201 X2000 Y2000 Z800 E2000
M203 X300 Y300 Z8 E100
M204 P2000 R2000 T2000
M205 X10.00 Y10.00 Z2.00 E5.00 ; sets the jerk limits, mm/sec
;TYPE:Custom
G90 ; use absolute coordinates
M83 ; extruder relative mode
M104 S220 ; set extruder temp
M140 S60 ; set bed temp
M190 S60 ; wait for bed temp
M109 S220 ; wait for extruder temp
G28                                        ; move X/Y/Z to min endstops
G1 Z0.28                                   ; lift nozzle a bit 
G92 E0 
G1 Y3 F1800                                    ; zero the extruded length 
G1 X60  E25 F500                       ; Extrude 25mm of filament in a 5cm line. 
G92 E0                                     ; zero the extruded length again 
G1 E-2 F500                                ; Retract a little 
G1 X70 F4000                              ; Quickly wipe away from the filament line
M117
G90
G21
M83 ; use relative distances for extrusion
; filament start gcode
M106 S0
;LAYER_CHANGE
;Z:0.24
;HEIGHT:0.24
; BEFORE_LAYER_CHANGE 0 @ 0.24mm
G92 E0
G1 E-2.5 F6000
; AFTER_LAYER_CHANGE 0 @ 0.24mm
M204 P500
; printing object "CycloidDiskBestBase.stl" id:2006749159936 copy 0
M204 T500
G1 X93.237 Y75.841 F18000
G1 Z.24
G1 E2.5 F6000
;TYPE:Support
;WIDTH:0.5
;MM3_PER_MM:0.107639
G1 F3000
G1 X93.648 Y75.859 E.01785
G1 X94.579 Y76.073 E.04147
G1 X95.457 Y76.449 E.04145
G1 X96.253 Y76.976 E.04144
G1 X96.943 Y77.636 E.04144
G1 X97.244 Y78.052 E.02231
G1 X97.241 Y78.054 E.00015
G1 X96.869 Y78.205 E.01741
G1 X96.802 Y78.233 E.00316
G1 X96.432 Y78.389 E.01742
G1 X96.366 Y78.417 E.00315
G1 X95.999 Y78.578 E.01737
G1 X95.917 Y78.615 E.00394
G1 X95.368 Y78.867 E.02619
G1 X95.27 Y78.914 E.00474
G1 X94.728 Y79.176 E.02612
G1 X94.647 Y79.216 E.00395
G1 X94.288 Y79.398 E.01743
G1 X94.224 Y79.431 E.00315
G1 X93.868 Y79.617 E.01743
G1 X93.788 Y79.66 E.00394
G1 X93.26 Y79.948 E.02611
G1 X93.181 Y79.992 E.00395
G1 X92.832 Y80.191 E.01742
G1 X92.769 Y80.227 E.00315
G1 X92.422 Y80.43 E.01742
G1 X92.36 Y80.467 E.00316
G1 X92.017 Y80.675 E.01742
G1 X91.955 Y80.713 E.00315
G1 X91.614 Y80.926 E.01743
G1 X91.538 Y80.974 E.00394
G1 X91.033 Y81.302 E.02611
G1 X90.957 Y81.352 E.00395
G1 X90.624 Y81.576 E.01743
G1 X90.564 Y81.617 E.00315
G1 X90.234 Y81.846 E.01743
G1 X90.16 Y81.898 E.00395
G1 X89.671 Y82.249 E.0261
G1 X89.598 Y82.303 E.00394
G1 X89.276 Y82.543 E.01743
G1 X89.218 Y82.587 E.00316
G1 X88.9 Y82.831 E.01742
G1 X88.842 Y82.876 E.00315
G1 X88.527 Y83.125 E.01742
G1 X88.471 Y83.17 E.00315
G1 X88.16 Y83.422 E.01736
G1 X88.129 Y83.448 E.00175
G1 X87.794 Y82.557 E.04131
G1 X87.623 Y81.617 E.04149
G1 X87.623 Y80.661 E.04149
G1 X87.793 Y79.721 E.04149
G1 X88.129 Y78.826 E.04149
G1 X88.62 Y78.005 E.04149
G1 X89.249 Y77.285 E.04149
G1 X89.996 Y76.69 E.04149
G1 X90.838 Y76.238 E.04149
G1 X91.747 Y75.943 E.04148
G1 X92.694 Y75.816 E.04148
G1 X93.17 Y75.838 E.02068
G1 X96.545 Y78.122 F18000
G1 F3000
G1 X96.545 Y77.815 E.01334
G1 X96.047 Y77.337 E.02996
G1 X96.047 Y78.117 E.03383
G1 X95.836 Y78.209 E.01001
G1 X95.75 Y78.248 E.00409
G1 X95.548 Y78.34 E.00961
G1 X95.548 Y76.994 E.05845
G1 X95.265 Y76.806 E.01478
G1 X95.05 Y76.714 E.01013
G1 X95.05 Y78.571 E.08063
G1 X94.552 Y78.813 E.02404
G1 X94.552 Y76.5 E.10039
G1 X94.454 Y76.458 E.00464
G1 X94.054 Y76.366 E.01782
G1 X94.054 Y79.065 E.11713
G1 X94.038 Y79.073 E.00076
G1 X93.679 Y79.26 E.01756
G1 X93.596 Y79.305 E.00409
G1 X93.555 Y79.327 E.00203
G1 X93.555 Y76.259 E.13318
G1 X93.219 Y76.244 E.01461
G1 X93.057 Y76.236 E.00704
G1 X93.057 Y79.599 E.14598
G1 X92.983 Y79.64 E.00368
G1 X92.631 Y79.84 E.01756
G1 X92.566 Y79.878 E.00327
G1 X92.559 Y79.882 E.00036
G1 X92.559 Y76.241 E.15806
G1 X92.06 Y76.308 E.02183
G1 X92.06 Y80.177 E.16794
G1 X91.806 Y80.33 E.01288
G1 X91.742 Y80.37 E.00327
G1 X91.562 Y80.483 E.00923
G1 X91.562 Y76.427 E.17603
G1 X91.064 Y76.589 E.02274
G1 X91.064 Y80.801 E.18283
G1 X90.812 Y80.964 E.01303
G1 X90.733 Y81.016 E.0041
G1 X90.565 Y81.129 E.00878
G1 X90.565 Y76.842 E.18608
G1 X90.219 Y77.028 E.01705
G1 X90.067 Y77.15 E.00846
G1 X90.067 Y81.471 E.18756
G1 X90.002 Y81.515 E.00341
G1 X89.925 Y81.57 E.0041
G1 X89.569 Y81.826 E.01908
G1 X89.569 Y77.547 E.18577
G1 X89.529 Y77.578 E.00222
G1 X89.07 Y78.103 E.03023
G1 X89.07 Y82.193 E.17756
G1 X89.034 Y82.22 E.00197
G1 X88.974 Y82.266 E.00328
G1 X88.653 Y82.512 E.01754
G1 X88.593 Y82.558 E.00328
G1 X88.572 Y82.575 E.00119
G1 X88.572 Y78.871 E.16078
G1 X88.494 Y79.001 E.00657
G1 X88.184 Y79.828 E.03834
G1 X88.074 Y80.437 E.02685
G1 X88.074 Y82.727 E.09939
G1 E-1.75 F6000
;WIPE_START
G1 F3000
G1 X88.074 Y81.727 E-.75
;WIPE_END
G1 X94.632 Y93.51 F18000
G1 E2.5 F6000
G1 F3000
G1 X94.759 Y93.535 E.00559
G1 X94.882 Y93.577 E.00567
G1 X94.999 Y93.635 E.00567
G1 X95.108 Y93.708 E.00567
G1 X95.206 Y93.794 E.00567
G1 X95.293 Y93.892 E.00567
G1 X95.365 Y94.001 E.00567
G1 X95.422 Y94.116 E.00559
G1 X95.467 Y94.251 E.00618
G1 X95.49 Y94.37 E.00524
G1 X95.499 Y94.5 E.00567
G1 X95.49 Y94.63 E.00567
G1 X95.465 Y94.759 E.00567
G1 X95.423 Y94.882 E.00567
G1 X95.365 Y94.999 E.00567
G1 X95.292 Y95.108 E.00567
G1 X95.206 Y95.206 E.00567
G1 X95.108 Y95.293 E.00567
G1 X95.008 Y95.36 E.00524
G1 X94.881 Y95.423 E.00618
G1 X94.759 Y95.465 E.00559
G1 X94.63 Y95.49 E.00567
G1 X94.5 Y95.499 E.00567
G1 X94.37 Y95.49 E.00567
G1 X94.251 Y95.467 E.00524
G1 X94.116 Y95.422 E.00618
G1 X94.001 Y95.365 E.00559
G1 X93.892 Y95.293 E.00567
G1 X93.794 Y95.206 E.00567
G1 X93.708 Y95.108 E.00567
G1 X93.635 Y94.999 E.00567
G1 X93.577 Y94.882 E.00567
G1 X93.535 Y94.759 E.00567
G1 X93.51 Y94.63 E.00567
G1 X93.501 Y94.5 E.00567
G1 X93.51 Y94.37 E.00567
G1 X93.535 Y94.241 E.00567
G1 X93.577 Y94.118 E.00567
G1 X93.635 Y94.001 E.00567
G1 X93.707 Y93.892 E.00567
G1 X93.794 Y93.794 E.00567
G1 X93.892 Y93.707 E.00567
G1 X94.001 Y93.635 E.00567
G1 X94.118 Y93.577 E.00567
G1 X94.241 Y93.535 E.00567
G1 X94.37 Y93.51 E.00567
G1 X94.49 Y93.502 E.00524
G1 X94.565 Y93.506 E.00326
G1 X95.05 Y95.075 F18000
G1 F3000
G1 X95.05 Y94.277 E.03464
G1 X95.048 Y94.27 E.00034
G1 X95.015 Y94.203 E.00323
G1 X94.972 Y94.138 E.00338
G1 X94.92 Y94.08 E.00338
G1 X94.862 Y94.028 E.00337
G1 X94.797 Y93.985 E.00338
G1 X94.727 Y93.951 E.00337
G1 X94.654 Y93.926 E.00338
G1 X94.581 Y93.911 E.00323
G1 X94.552 Y93.91 E.00126
G1 X94.552 Y95.091 E.05128
G1 X94.5 Y95.094 E.00226
G1 X94.422 Y95.089 E.00337
G1 X94.354 Y95.076 E.00301
G1 X94.27 Y95.048 E.00388
G1 X94.203 Y95.015 E.00323
G1 X94.138 Y94.972 E.00338
G1 X94.08 Y94.92 E.00337
G1 X94.054 Y94.89 E.00172
G1 X94.054 Y93.842 E.0455
G1 E-1.75 F6000
;WIPE_START
G1 F3000
G1 X94.054 Y94.842 E-.75
;WIPE_END
G1 X76.006 Y104.731 F18000
G1 E2.5 F6000
G1 F3000
G1 X75.965 Y105.004 E.01199
G1 X75.952 Y105.094 E.00394
G1 X75.871 Y105.691 E.02612
G1 X75.86 Y105.781 E.00394
G1 X75.813 Y106.18 E.01743
G1 X75.805 Y106.252 E.00315
G1 X75.763 Y106.651 E.01743
G1 X75.755 Y106.742 E.00395
G1 X75.703 Y107.343 E.0262
G1 X75.696 Y107.434 E.00394
G1 X75.668 Y107.832 E.01734
G1 X75.664 Y107.905 E.00315
G1 X75.642 Y108.306 E.01743
G1 X75.638 Y108.396 E.00394
G1 X75.615 Y108.997 E.02611
G1 X75.612 Y109.088 E.00394
G1 X75.604 Y109.49 E.01744
G1 X75.603 Y109.563 E.00316
G1 X75.6 Y109.964 E.01741
G1 X75.6 Y110.036 E.00315
G1 X75.603 Y110.438 E.01741
G1 X75.604 Y110.51 E.00316
G1 X75.612 Y110.912 E.01743
G1 X75.615 Y111.003 E.00394
G1 X75.638 Y111.604 E.02611
G1 X75.642 Y111.694 E.00394
G1 X75.664 Y112.095 E.01743
G1 X75.668 Y112.168 E.00316
G1 X75.696 Y112.568 E.01743
G1 X75.703 Y112.659 E.00394
G1 X75.755 Y113.259 E.02612
G1 X75.765 Y113.367 E.00474
G1 X75.83 Y113.967 E.02618
G1 X75.84 Y114.057 E.00394
G1 X75.89 Y114.454 E.01737
G1 X75.899 Y114.526 E.00315
G1 X75.954 Y114.924 E.01741
G1 X75.965 Y114.995 E.00315
G1 X76.022 Y115.367 E.01633
G1 X75.942 Y115.371 E.00345
G1 X74.996 Y115.243 E.04143
G1 X74.088 Y114.948 E.04143
G1 X73.248 Y114.496 E.04144
G1 X72.501 Y113.902 E.04144
G1 X71.872 Y113.183 E.04144
G1 X71.382 Y112.364 E.04145
G1 X71.046 Y111.47 E.04145
G1 X70.875 Y110.53 E.04146
G1 X70.875 Y109.575 E.04146
G1 X71.045 Y108.635 E.04146
G1 X71.38 Y107.741 E.04147
G1 X71.87 Y106.92 E.04147
G1 X72.498 Y106.201 E.04147
G1 X73.245 Y105.605 E.04147
G1 X74.086 Y105.152 E.04148
G1 X74.995 Y104.857 E.04148
G1 X75.939 Y104.729 E.04136
G1 X75.117 Y115.056 F18000
G1 F3000
G1 X75.117 Y105.248 E.42576
G1 X75.085 Y105.252 E.0014
G1 X74.619 Y105.403 E.02129
G1 X74.619 Y114.696 E.40339
G1 X74.247 Y114.576 E.01694
G1 X74.12 Y114.507 E.00626
G1 X74.12 Y105.592 E.38701
G1 X73.622 Y105.86 E.02457
G1 X73.622 Y114.24 E.36373
G1 X73.471 Y114.158 E.00746
G1 X73.124 Y113.882 E.01925
G1 X73.124 Y106.218 E.33268
G1 X72.778 Y106.493 E.01919
G1 X72.625 Y106.668 E.01008
G1 X72.625 Y113.431 E.29354
G1 X72.2 Y112.945 E.02804
G1 X72.127 Y112.822 E.00617
G1 X72.127 Y107.277 E.24074
G1 X71.745 Y107.916 E.03234
G1 X71.629 Y108.227 E.0144
G1 X71.629 Y112.383 E.18039
G1 E-1.75 F6000
;WIPE_START
G1 F3000
G1 X71.629 Y111.383 E-.75
;WIPE_END
G1 X94.632 Y124.51 F18000
G1 E2.5 F6000
G1 F3000
G1 X94.759 Y124.535 E.00559
G1 X94.882 Y124.577 E.00567
G1 X94.999 Y124.635 E.00567
G1 X95.108 Y124.707 E.00567
G1 X95.206 Y124.794 E.00567
G1 X95.293 Y124.892 E.00567
G1 X95.365 Y125.001 E.00567
G1 X95.422 Y125.116 E.00559
G1 X95.467 Y125.251 E.00618
G1 X95.49 Y125.37 E.00524
G1 X95.499 Y125.5 E.00567
G1 X95.49 Y125.63 E.00567
G1 X95.465 Y125.759 E.00567
G1 X95.423 Y125.882 E.00567
G1 X95.365 Y125.999 E.00567
G1 X95.293 Y126.108 E.00567
G1 X95.206 Y126.206 E.00567
G1 X95.108 Y126.293 E.00567
G1 X95.008 Y126.36 E.00524
G1 X94.881 Y126.423 E.00618
G1 X94.759 Y126.465 E.00559
G1 X94.63 Y126.49 E.00567
G1 X94.5 Y126.499 E.00567
G1 X94.37 Y126.49 E.00567
G1 X94.241 Y126.465 E.00567
G1 X94.118 Y126.423 E.00567
G1 X94.001 Y126.365 E.00567
G1 X93.892 Y126.293 E.00567
G1 X93.794 Y126.206 E.00567
G1 X93.707 Y126.108 E.00567
G1 X93.635 Y125.999 E.00567
G1 X93.577 Y125.882 E.00567
G1 X93.535 Y125.759 E.00567
G1 X93.51 Y125.63 E.00567
G1 X93.501 Y125.5 E.00567
G1 X93.51 Y125.37 E.00567
G1 X93.535 Y125.241 E.00567
G1 X93.577 Y125.118 E.00567
G1 X93.635 Y125.001 E.00567
G1 X93.708 Y124.892 E.00567
G1 X93.794 Y124.794 E.00567
G1 X93.892 Y124.707 E.00567
G1 X94.001 Y124.635 E.00567
G1 X94.118 Y124.577 E.00567
G1 X94.241 Y124.535 E.00567
G1 X94.37 Y124.51 E.00567
G1 X94.49 Y124.502 E.00524
G1 X94.565 Y124.506 E.00326
G1 X95.05 Y126.075 F18000
G1 F3000
G1 X95.05 Y125.277 E.03464
G1 X95.048 Y125.27 E.00034
G1 X95.015 Y125.203 E.00323
G1 X94.972 Y125.138 E.00338
G1 X94.92 Y125.08 E.00338
G1 X94.862 Y125.028 E.00338
G1 X94.797 Y124.985 E.00338
G1 X94.727 Y124.951 E.00338
G1 X94.654 Y124.926 E.00337
G1 X94.581 Y124.911 E.00323
G1 X94.552 Y124.91 E.00126
G1 X94.552 Y126.091 E.05128
G1 X94.5 Y126.094 E.00225
G1 X94.422 Y126.089 E.00338
G1 X94.346 Y126.074 E.00337
G1 X94.273 Y126.049 E.00338
G1 X94.203 Y126.015 E.00338
G1 X94.138 Y125.972 E.00338
G1 X94.08 Y125.92 E.00337
G1 X94.054 Y125.89 E.00172
G1 X94.054 Y124.842 E.0455
G1 E-1.75 F6000
;WIPE_START
G1 F3000
G1 X94.054 Y125.842 E-.75
;WIPE_END
G1 X88.642 Y136.966 F18000
G1 E2.5 F6000
G1 F3000
G1 X88.713 Y137.023 E.00394
G1 X89.03 Y137.269 E.01743
G1 X89.088 Y137.313 E.00315
G1 X89.408 Y137.556 E.01742
G1 X89.466 Y137.599 E.00316
G1 X89.789 Y137.837 E.01741
G1 X89.848 Y137.879 E.00315
G1 X90.175 Y138.112 E.01742
G1 X90.234 Y138.154 E.00316
G1 X90.564 Y138.383 E.01743
G1 X90.624 Y138.424 E.00315
G1 X90.955 Y138.647 E.01733
G1 X91.031 Y138.697 E.00394
G1 X91.537 Y139.025 E.0262
G1 X91.614 Y139.074 E.00395
G1 X91.955 Y139.287 E.01744
G1 X92.017 Y139.325 E.00316
G1 X92.36 Y139.533 E.01742
G1 X92.422 Y139.57 E.00316
G1 X92.769 Y139.773 E.01742
G1 X92.832 Y139.809 E.00315
G1 X93.179 Y140.007 E.01734
G1 X93.258 Y140.051 E.00394
G1 X93.788 Y140.34 E.02621
G1 X93.884 Y140.391 E.00474
G1 X94.419 Y140.669 E.02612
G1 X94.5 Y140.71 E.00395
G1 X94.859 Y140.889 E.01742
G1 X94.924 Y140.92 E.00315
G1 X95.286 Y141.094 E.01742
G1 X95.352 Y141.125 E.00315
G1 X95.716 Y141.294 E.01743
G1 X95.782 Y141.324 E.00316
G1 X96.149 Y141.488 E.01742
G1 X96.232 Y141.524 E.00394
G1 X96.785 Y141.76 E.02611
G1 X96.869 Y141.795 E.00395
G1 X97.241 Y141.946 E.01743
G1 X97.309 Y141.973 E.00315
G1 X97.681 Y142.119 E.01736
G1 X97.763 Y142.15 E.00379
G1 X97.744 Y142.189 E.00188
G1 X97.182 Y142.96 E.04144
G1 X96.492 Y143.619 E.04143
G1 X95.695 Y144.145 E.04142
G1 X94.817 Y144.519 E.04142
G1 X93.887 Y144.731 E.04142
G1 X92.934 Y144.774 E.04141
G1 X91.989 Y144.646 E.04141
G1 X91.081 Y144.351 E.04141
G1 X90.241 Y143.899 E.04141
G1 X89.495 Y143.304 E.04142
G1 X88.867 Y142.586 E.04142
G1 X88.377 Y141.767 E.04143
G1 X88.04 Y140.874 E.04143
G1 X87.869 Y139.935 E.04144
G1 X87.868 Y138.98 E.04144
G1 X88.038 Y138.04 E.04145
G1 X88.373 Y137.146 E.04146
G1 X88.532 Y136.878 E.01354
G1 X88.589 Y136.924 E.00318
G1 X97.043 Y142.808 F18000
G1 F3000
G1 X97.043 Y142.302 E.02198
G1 X96.716 Y142.168 E.01536
G1 X96.628 Y142.132 E.0041
G1 X96.545 Y142.097 E.00393
G1 X96.545 Y143.01 E.03967
G1 X96.239 Y143.302 E.01835
G1 X96.047 Y143.429 E.01001
G1 X96.047 Y141.884 E.06708
G1 X95.985 Y141.857 E.0029
G1 X95.616 Y141.692 E.01755
G1 X95.548 Y141.661 E.00324
G1 X95.548 Y143.758 E.091
G1 X95.503 Y143.788 E.00235
G1 X95.05 Y143.981 E.02138
G1 X95.05 Y141.429 E.11079
G1 X94.748 Y141.284 E.01454
G1 X94.681 Y141.251 E.00327
G1 X94.552 Y141.187 E.00624
G1 X94.552 Y144.166 E.12932
G1 X94.054 Y144.279 E.02219
G1 X94.054 Y140.934 E.14521
G1 X93.697 Y140.749 E.01745
G1 X93.597 Y140.695 E.00492
G1 X93.555 Y140.673 E.00204
G1 X93.555 Y144.342 E.15927
G1 X93.057 Y144.364 E.02165
G1 X93.057 Y140.401 E.17204
G1 X92.981 Y140.358 E.00378
G1 X92.631 Y140.16 E.01747
G1 X92.566 Y140.122 E.00327
G1 X92.559 Y140.118 E.00036
G1 X92.559 Y144.315 E.18221
G1 X92.079 Y144.25 E.02101
G1 X92.06 Y144.244 E.00085
G1 X92.06 Y139.823 E.19192
G1 X91.807 Y139.67 E.01287
G1 X91.742 Y139.63 E.00328
G1 X91.562 Y139.517 E.00923
G1 X91.562 Y144.082 E.19816
G1 X91.24 Y143.978 E.01467
G1 X91.064 Y143.883 E.00872
G1 X91.064 Y139.199 E.20331
G1 X90.81 Y139.035 E.01313
G1 X90.731 Y138.983 E.00409
G1 X90.565 Y138.871 E.00869
G1 X90.565 Y143.615 E.20593
G1 X90.464 Y143.561 E.00498
G1 X90.067 Y143.244 E.02205
G1 X90.067 Y138.529 E.20465
G1 X90.003 Y138.485 E.00338
G1 X89.941 Y138.442 E.00328
G1 X89.612 Y138.207 E.01754
G1 X89.569 Y138.175 E.00235
G1 X89.569 Y142.776 E.1997
G1 X89.194 Y142.348 E.02468
G1 X89.07 Y142.14 E.01049
G1 X89.07 Y137.806 E.18813
G1 X88.843 Y137.634 E.01237
G1 X88.783 Y137.589 E.00327
G1 X88.671 Y137.501 E.00618
G1 X88.572 Y137.765 E.01224
G1 X88.572 Y141.701 E.17084
G1 E-1.75 F6000
;WIPE_START
G1 F3000
G1 X88.572 Y140.701 E-.75
;WIPE_END
G1 X125.632 Y124.51 F18000
G1 E2.5 F6000
G1 F3000
G1 X125.759 Y124.535 E.00559
G1 X125.882 Y124.577 E.00567
G1 X125.999 Y124.635 E.00567
G1 X126.108 Y124.707 E.00567
G1 X126.206 Y124.794 E.00567
G1 X126.292 Y124.892 E.00567
G1 X126.365 Y125.001 E.00567
G1 X126.423 Y125.118 E.00567
G1 X126.465 Y125.241 E.00567
G1 X126.49 Y125.37 E.00567
