; HEADER_BLOCK_START
; generated by AnycubicSlicerNext 1.3.2 on 2025-02-17 at 02:46:56
; total layer number: 35
; filament_density: 1.24
; filament_diameter: 1.75
; max_z_height: 7.04
; exclude_object: 0
; model_instances: 1
; HEADER_BLOCK_END

; THUMBNAIL_BLOCK_START

;
; THUMBNAIL_BLOCK_END

; external perimeters extrusion width = 0.42mm
; perimeters extrusion width = 0.45mm
; infill extrusion width = 0.45mm
; solid infill extrusion width = 0.42mm
; top infill extrusion width = 0.42mm
; first layer extrusion width = 0.50mm

; EXECUTABLE_BLOCK_START
M201 X2000 Y2000 Z800 E2000
M203 X300 Y300 Z8 E100
M204 P2000 R2000 T2000
M205 X10.00 Y10.00 Z2.00 E5.00 ; sets the jerk limits, mm/sec
;TYPE:Custom
G90 ; use absolute coordinates
M83 ; extruder relative mode
M104 S220 ; set extruder temp
M140 S60 ; set bed temp
M190 S60 ; wait for bed temp
M109 S220 ; wait for extruder temp
G28                                        ; move X/Y/Z to min endstops
G1 Z0.28                                   ; lift nozzle a bit 
G92 E0 
G1 Y3 F1800                                    ; zero the extruded length 
G1 X60  E25 F500                       ; Extrude 25mm of filament in a 5cm line. 
G92 E0                                     ; zero the extruded length again 
G1 E-2 F500                                ; Retract a little 
G1 X70 F4000                              ; Quickly wipe away from the filament line
M117
G90
G21
M82 ; use absolute distances for extrusion
G92 E0
; filament start gcode
M106 S0
;LAYER_CHANGE
;Z:0.24
;HEIGHT:0.24
; BEFORE_LAYER_CHANGE 0 @ 0.24mm
G1 E-2.5 F6000
G92 E0
; AFTER_LAYER_CHANGE 0 @ 0.24mm
;_SET_FAN_SPEED_CHANGING_LAYER
M204 P500
; printing object "Getriebe.stl" id:2417027646208 copy 0
M204 T500
G1 X83.79 Y82.84 F18000
G1 Z.24
G1 E2.5 F6000
;TYPE:Brim
;WIDTH:0.5
G1 F3000
G1 X84.205 Y82.492 E2.52353
G1 X84.672 Y82.181 E2.54786
G1 X85.169 Y81.599 E2.5811
G1 X85.569 Y81.23 E2.60474
G1 X85.983 Y80.926 E2.627
G1 X86.468 Y80.646 E2.65134
G1 X86.99 Y80.107 E2.68389
G1 X87.4 Y79.77 E2.70695
G1 X87.87 Y79.467 E2.73122
G1 X88.358 Y79.226 E2.75484
G1 X88.925 Y78.711 E2.78809
G1 X89.343 Y78.41 E2.81046
G1 X89.816 Y78.145 E2.83399
G1 X90.333 Y77.928 E2.85832
G1 X90.918 Y77.459 E2.89085
G1 X91.387 Y77.165 E2.91489
G1 X91.856 Y76.941 E2.93746
G1 X92.385 Y76.757 E2.9618
G1 X93.013 Y76.316 E2.99506
G1 X93.465 Y76.07 E3.01743
G1 X93.968 Y75.867 E3.04096
G1 X94.508 Y75.716 E3.06529
G1 X95.161 Y75.316 E3.09855
G1 X95.629 Y75.099 E3.12092
G1 X96.143 Y74.927 E3.14445
G1 X96.691 Y74.811 E3.16877
G1 X97.368 Y74.453 E3.20202
G1 X97.876 Y74.257 E3.22565
G1 X98.372 Y74.127 E3.24792
G1 X98.927 Y74.045 E3.27226
G1 X99.625 Y73.73 E3.30552
G1 X100.116 Y73.573 E3.32789
G1 X100.648 Y73.467 E3.35142
G1 X101.206 Y73.42 E3.37574
G1 X101.923 Y73.15 E3.409
G1 X102.423 Y73.024 E3.43138
G1 X102.96 Y72.952 E3.45491
G1 X103.521 Y72.94 E3.47924
G1 X104.253 Y72.716 E3.51249
G1 X104.76 Y72.621 E3.53487
G1 X105.3 Y72.583 E3.55839
G1 X105.86 Y72.607 E3.58272
G1 X106.605 Y72.428 E3.61598
G1 X107.117 Y72.366 E3.63835
G1 X107.659 Y72.362 E3.66188
G1 X108.217 Y72.421 E3.68622
G1 X108.985 Y72.288 E3.72009
G1 X109.523 Y72.26 E3.74345
G1 X110.026 Y72.289 E3.76534
G1 X110.579 Y72.383 E3.78969
G1 X111.341 Y72.299 E3.82294
G1 X111.863 Y72.302 E3.84562
G1 X112.411 Y72.368 E3.86957
G1 X112.941 Y72.493 E3.89318
G1 X113.706 Y72.458 E3.92643
G1 X114.227 Y72.493 E3.9491
G1 X114.769 Y72.594 E3.97304
G1 X115.29 Y72.752 E3.99667
G1 X116.055 Y72.764 E4.0299
G1 X116.602 Y72.838 E4.05385
G1 X117.108 Y72.967 E4.07652
G1 X117.619 Y73.158 E4.10017
G1 X118.396 Y73.22 E4.13403
G1 X118.896 Y73.32 E4.15617
G1 X119.404 Y73.481 E4.1793
G1 X119.916 Y73.709 E4.20363
G1 X120.675 Y73.817 E4.23689
G1 X121.173 Y73.948 E4.25926
G1 X121.679 Y74.143 E4.28279
G1 X122.175 Y74.403 E4.30711
G1 X122.926 Y74.559 E4.34037
G1 X123.415 Y74.72 E4.36275
G1 X123.907 Y74.947 E4.38627
G1 X124.387 Y75.238 E4.4106
G1 X125.125 Y75.44 E4.44386
G1 X125.604 Y75.632 E4.46623
G1 X126.081 Y75.89 E4.48976
G1 X126.541 Y76.21 E4.51409
G1 X127.265 Y76.458 E4.54734
G1 X127.756 Y76.694 E4.57096
G1 X128.191 Y76.966 E4.59323
G1 X128.63 Y77.315 E4.61757
G1 X129.338 Y77.608 E4.65083
G1 X129.788 Y77.859 E4.67321
G1 X130.229 Y78.174 E4.69674
G1 X130.646 Y78.549 E4.72106
G1 X131.333 Y78.887 E4.75432
G1 X131.767 Y79.165 E4.77669
G1 X132.188 Y79.507 E4.80022
G1 X132.58 Y79.908 E4.82455
G1 X133.245 Y80.287 E4.85779
G1 X133.683 Y80.611 E4.88142
G1 X134.058 Y80.96 E4.9037
G1 X134.425 Y81.385 E4.92803
G1 X135.065 Y81.806 E4.9613
G1 X135.46 Y82.136 E4.98366
G1 X135.834 Y82.528 E5.0072
G1 X136.173 Y82.975 E5.03152
G1 X136.786 Y83.435 E5.06478
G1 X137.16 Y83.79 E5.08715
G1 X137.508 Y84.205 E5.11068
G1 X137.819 Y84.672 E5.13501
G1 X138.401 Y85.169 E5.16825
G1 X138.77 Y85.569 E5.19188
G1 X139.074 Y85.983 E5.21415
G1 X139.354 Y86.468 E5.23849
G1 X139.904 Y87.002 E5.27175
G1 X140.23 Y87.4 E5.29412
G1 X140.525 Y87.856 E5.31766
G1 X140.774 Y88.358 E5.34198
G1 X141.289 Y88.925 E5.37524
G1 X141.59 Y89.343 E5.39761
G1 X141.855 Y89.816 E5.42114
G1 X142.072 Y90.333 E5.44546
G1 X142.55 Y90.931 E5.47871
G1 X142.838 Y91.393 E5.50234
G1 X143.059 Y91.856 E5.52461
G1 X143.243 Y92.385 E5.54894
G1 X143.675 Y92.999 E5.5815
G1 X143.926 Y93.459 E5.60425
G1 X144.133 Y93.968 E5.62811
G1 X144.284 Y94.508 E5.65244
G1 X144.684 Y95.161 E5.6857
G1 X144.901 Y95.629 E5.70807
G1 X145.073 Y96.143 E5.7316
G1 X145.189 Y96.691 E5.75592
G1 X145.54 Y97.353 E5.78846
G1 X145.741 Y97.869 E5.81249
G1 X145.873 Y98.372 E5.83508
G1 X145.955 Y98.927 E5.8594
G1 X146.264 Y99.61 E5.89196
G1 X146.425 Y100.109 E5.91471
G1 X146.533 Y100.648 E5.93857
G1 X146.58 Y101.206 E5.96289
G1 X146.85 Y101.923 E5.99615
G1 X146.976 Y102.423 E6.01853
G1 X147.048 Y102.96 E6.04206
G1 X147.06 Y103.52 E6.06638
G1 X147.284 Y104.252 E6.09962
G1 X147.382 Y104.788 E6.12326
G1 X147.417 Y105.3 E6.14553
G1 X147.393 Y105.86 E6.16987
G1 X147.572 Y106.605 E6.20313
G1 X147.634 Y107.117 E6.22551
G1 X147.638 Y107.659 E6.24903
G1 X147.579 Y108.216 E6.27335
G1 X147.711 Y108.971 E6.30662
G1 X147.741 Y109.486 E6.32898
G1 X147.711 Y110.027 E6.35251
G1 X147.617 Y110.579 E6.37684
G1 X147.701 Y111.341 E6.41009
G1 X147.697 Y111.885 E6.43371
G1 X147.635 Y112.394 E6.45599
G1 X147.507 Y112.94 E6.48032
G1 X147.542 Y113.689 E6.51288
G1 X147.508 Y114.212 E6.53563
G1 X147.41 Y114.753 E6.55948
G1 X147.248 Y115.29 E6.58381
G1 X147.236 Y116.056 E6.61707
G1 X147.169 Y116.567 E6.63944
G1 X147.038 Y117.093 E6.66297
G1 X146.842 Y117.618 E6.6873
G1 X146.782 Y118.381 E6.72054
G1 X146.676 Y118.915 E6.74417
G1 X146.519 Y119.404 E6.76645
G1 X146.291 Y119.916 E6.79079
G1 X146.183 Y120.675 E6.82404
G1 X146.052 Y121.173 E6.84642
G1 X145.857 Y121.679 E6.86995
G1 X145.597 Y122.175 E6.89427
G1 X145.441 Y122.926 E6.92753
G1 X145.28 Y123.415 E6.9499
G1 X145.053 Y123.907 E6.97343
G1 X144.762 Y124.387 E6.99776
G1 X144.56 Y125.125 E7.031
G1 X144.356 Y125.63 E7.05463
G1 X144.11 Y126.081 E7.07691
G1 X143.79 Y126.541 E7.10124
G1 X143.542 Y127.266 E7.1345
G1 X143.32 Y127.731 E7.15688
G1 X143.033 Y128.191 E7.1804
G1 X142.685 Y128.63 E7.20473
G1 X142.392 Y129.338 E7.23799
G1 X142.141 Y129.788 E7.26036
G1 X141.826 Y130.229 E7.2839
G1 X141.451 Y130.646 E7.30822
G1 X141.113 Y131.333 E7.34147
G1 X140.835 Y131.767 E7.36384
G1 X140.493 Y132.188 E7.38738
G1 X140.092 Y132.58 E7.4117
G1 X139.712 Y133.245 E7.44496
G1 X139.407 Y133.661 E7.46734
G1 X139.039 Y134.059 E7.49087
G1 X138.615 Y134.425 E7.51519
G1 X138.194 Y135.064 E7.54843
G1 X137.839 Y135.487 E7.57239
G1 X137.459 Y135.845 E7.59505
G1 X137.025 Y136.173 E7.61868
G1 X136.565 Y136.786 E7.65193
G1 X136.21 Y137.16 E7.6743
G1 X135.795 Y137.508 E7.69784
G1 X135.328 Y137.819 E7.72216
G1 X134.83 Y138.401 E7.75542
G1 X134.453 Y138.752 E7.7778
G1 X134.017 Y139.074 E7.80132
G1 X133.532 Y139.354 E7.82564
G1 X133.01 Y139.893 E7.85819
G1 X132.6 Y140.23 E7.88125
G1 X132.13 Y140.533 E7.90552
G1 X131.642 Y140.774 E7.92914
G1 X131.075 Y141.289 E7.96239
G1 X130.657 Y141.59 E7.98476
G1 X130.184 Y141.855 E8.0083
G1 X129.667 Y142.072 E8.03262
G1 X129.082 Y142.541 E8.06515
G1 X128.613 Y142.835 E8.08919
G1 X128.144 Y143.059 E8.11176
G1 X127.615 Y143.243 E8.1361
G1 X126.987 Y143.684 E8.16936
G1 X126.535 Y143.93 E8.19173
G1 X126.032 Y144.133 E8.21526
G1 X125.492 Y144.284 E8.23959
G1 X124.839 Y144.684 E8.27285
G1 X124.371 Y144.901 E8.29522
G1 X123.857 Y145.073 E8.31875
G1 X123.309 Y145.189 E8.34308
G1 X122.632 Y145.547 E8.37632
G1 X122.124 Y145.743 E8.39995
G1 X121.628 Y145.873 E8.42223
G1 X121.073 Y145.955 E8.44656
G1 X120.375 Y146.27 E8.47982
G1 X119.884 Y146.427 E8.50219
G1 X119.352 Y146.533 E8.52572
G1 X118.794 Y146.58 E8.55005
G1 X118.077 Y146.85 E8.5833
G1 X117.577 Y146.976 E8.60567
G1 X117.04 Y147.048 E8.62922
G1 X116.479 Y147.06 E8.65354
G1 X115.747 Y147.284 E8.68678
G1 X115.212 Y147.382 E8.71041
G1 X114.7 Y147.417 E8.73268
G1 X114.14 Y147.393 E8.75702
G1 X113.395 Y147.572 E8.79028
G1 X112.883 Y147.634 E8.81265
G1 X112.341 Y147.638 E8.83618
G1 X111.784 Y147.579 E8.86051
G1 X111.029 Y147.711 E8.89377
G1 X110.507 Y147.741 E8.91644
G1 X109.957 Y147.709 E8.94038
G1 X109.42 Y147.617 E8.964
G1 X108.659 Y147.701 E8.99723
G1 X108.108 Y147.696 E9.02119
G1 X107.589 Y147.632 E9.04385
G1 X107.059 Y147.507 E9.06749
G1 X106.294 Y147.542 E9.10073
G1 X105.773 Y147.507 E9.1234
G1 X105.231 Y147.406 E9.14735
G1 X104.71 Y147.248 E9.17097
G1 X103.944 Y147.236 E9.20422
G1 X103.427 Y147.167 E9.22689
G1 X102.892 Y147.033 E9.25083
G1 X102.382 Y146.843 E9.27445
G1 X101.619 Y146.782 E9.30768
G1 X101.085 Y146.676 E9.33132
G1 X100.596 Y146.519 E9.35359
G1 X100.084 Y146.291 E9.37793
G1 X99.325 Y146.183 E9.41119
G1 X98.827 Y146.052 E9.43356
G1 X98.321 Y145.857 E9.45709
G1 X97.825 Y145.597 E9.48142
G1 X97.074 Y145.441 E9.51468
G1 X96.585 Y145.28 E9.53705
G1 X96.093 Y145.053 E9.56058
G1 X95.613 Y144.762 E9.5849
G1 X94.875 Y144.56 E9.61815
G1 X94.37 Y144.356 E9.64178
G1 X93.919 Y144.11 E9.66405
G1 X93.459 Y143.79 E9.68839
G1 X92.734 Y143.542 E9.72165
G1 X92.269 Y143.32 E9.74402
G1 X91.809 Y143.033 E9.76755
G1 X91.37 Y142.685 E9.79188
G1 X90.662 Y142.392 E9.82514
G1 X90.212 Y142.141 E9.84751
G1 X89.771 Y141.826 E9.87104
G1 X89.354 Y141.451 E9.89536
G1 X88.667 Y141.113 E9.92862
G1 X88.233 Y140.835 E9.95099
G1 X87.812 Y140.493 E9.97452
G1 X87.42 Y140.092 E9.99885
G1 X86.755 Y139.712 E10.03211
G1 X86.34 Y139.408 E10.05448
G1 X85.941 Y139.039 E10.07801
G1 X85.575 Y138.615 E10.10234
G1 X84.935 Y138.194 E10.13558
G1 X84.519 Y137.844 E10.15921
G1 X84.166 Y137.472 E10.18148
G1 X83.827 Y137.025 E10.20582
G1 X83.214 Y136.565 E10.23908
G1 X82.84 Y136.21 E10.26145
G1 X82.492 Y135.795 E10.28498
G1 X82.181 Y135.328 E10.30931
G1 X81.599 Y134.83 E10.34257
G1 X81.248 Y134.453 E10.36494
G1 X80.926 Y134.017 E10.38847
G1 X80.646 Y133.532 E10.4128
G1 X80.096 Y132.998 E10.44605
G1 X79.77 Y132.6 E10.46842
G1 X79.475 Y132.144 E10.49196
G1 X79.226 Y131.642 E10.51628
G1 X78.711 Y131.075 E10.54954
G1 X78.41 Y130.657 E10.57191
G1 X78.145 Y130.184 E10.59544
G1 X77.928 Y129.667 E10.61977
G1 X77.45 Y129.069 E10.65301
G1 X77.162 Y128.607 E10.67664
G1 X76.941 Y128.144 E10.69891
G1 X76.757 Y127.615 E10.72325
G1 X76.325 Y127.001 E10.7558
G1 X76.074 Y126.541 E10.77856
G1 X75.867 Y126.032 E10.80242
G1 X75.716 Y125.492 E10.82674
G1 X75.316 Y124.839 E10.86
G1 X75.099 Y124.372 E10.88237
G1 X74.927 Y123.857 E10.9059
G1 X74.811 Y123.309 E10.93023
G1 X74.453 Y122.632 E10.96347
G1 X74.257 Y122.124 E10.9871
G1 X74.127 Y121.628 E11.00938
G1 X74.045 Y121.074 E11.03371
G1 X73.736 Y120.39 E11.06626
G1 X73.575 Y119.891 E11.08902
G1 X73.467 Y119.352 E11.11287
G1 X73.42 Y118.793 E11.13723
G1 X73.15 Y118.077 E11.17046
G1 X73.024 Y117.577 E11.19284
G1 X72.952 Y117.04 E11.21637
G1 X72.94 Y116.48 E11.24069
G1 X72.716 Y115.748 E11.27393
G1 X72.618 Y115.212 E11.29756
G1 X72.583 Y114.7 E11.31984
G1 X72.607 Y114.14 E11.34417
G1 X72.428 Y113.395 E11.37744
G1 X72.366 Y112.883 E11.3998
G1 X72.362 Y112.341 E11.42334
G1 X72.42 Y111.784 E11.44765
G1 X72.291 Y111.045 E11.48022
G1 X72.259 Y110.522 E11.50297
G1 X72.289 Y109.973 E11.52682
G1 X72.383 Y109.421 E11.55114
G1 X72.299 Y108.659 E11.58439
G1 X72.303 Y108.115 E11.60802
G1 X72.365 Y107.606 E11.63029
G1 X72.493 Y107.06 E11.65462
G1 X72.458 Y106.311 E11.68719
G1 X72.492 Y105.788 E11.70994
G1 X72.59 Y105.247 E11.73379
G1 X72.752 Y104.71 E11.75812
G1 X72.764 Y103.944 E11.79138
G1 X72.831 Y103.433 E11.81375
G1 X72.962 Y102.907 E11.83728
G1 X73.158 Y102.382 E11.8616
G1 X73.218 Y101.618 E11.89486
G1 X73.317 Y101.113 E11.91723
G1 X73.481 Y100.596 E11.94077
G1 X73.709 Y100.084 E11.96509
G1 X73.817 Y99.325 E11.99835
G1 X73.948 Y98.827 E12.02072
G1 X74.143 Y98.321 E12.04425
G1 X74.403 Y97.825 E12.06858
G1 X74.559 Y97.075 E12.10182
G1 X74.731 Y96.558 E12.12545
G1 X74.947 Y96.093 E12.14772
G1 X75.238 Y95.613 E12.17206
G1 X75.44 Y94.875 E12.20532
G1 X75.632 Y94.396 E12.22769
G1 X75.89 Y93.919 E12.25122
G1 X76.21 Y93.459 E12.27555
G1 X76.458 Y92.734 E12.30881
G1 X76.68 Y92.269 E12.33118
G1 X76.967 Y91.809 E12.35471
G1 X77.315 Y91.37 E12.37904
G1 X77.608 Y90.662 E12.41229
G1 X77.859 Y90.212 E12.43467
G1 X78.174 Y89.771 E12.4582
G1 X78.549 Y89.354 E12.48252
G1 X78.887 Y88.667 E12.51578
G1 X79.165 Y88.233 E12.53815
G1 X79.507 Y87.812 E12.56168
G1 X79.908 Y87.42 E12.58601
G1 X80.287 Y86.755 E12.61925
G1 X80.611 Y86.317 E12.64289
G1 X80.96 Y85.942 E12.66516
G1 X81.385 Y85.575 E12.68949
G1 X81.806 Y84.935 E12.72275
G1 X82.141 Y84.535 E12.74543
G1 X82.541 Y84.155 E12.76937
G1 X82.975 Y83.827 E12.79299
G1 X83.435 Y83.214 E12.82624
G1 X83.762 Y82.869 E12.84687
G1 X84.088 Y83.177 F18000
G1 F3000
G1 X84.093 Y83.173 E12.84714
G1 X84.468 Y82.856 E12.86847
G1 X84.912 Y82.56 E12.89162
G1 X85.018 Y82.466 E12.8978
G1 X85.488 Y81.917 E12.92916
G1 X85.861 Y81.572 E12.95121
G1 X86.222 Y81.307 E12.97066
G1 X86.684 Y81.039 E12.99384
G1 X86.797 Y80.951 E13.00004
G1 X87.289 Y80.443 E13.03075
G1 X87.659 Y80.138 E13.05156
G1 X88.085 Y79.862 E13.07361
G1 X88.548 Y79.632 E13.09605
G1 X88.666 Y79.552 E13.10225
G1 X89.202 Y79.065 E13.13365
G1 X89.578 Y78.794 E13.15381
G1 X90.007 Y78.553 E13.17515
G1 X90.498 Y78.345 E13.1983
G1 X90.621 Y78.272 E13.20449
G1 X91.172 Y77.83 E13.23515
G1 X91.61 Y77.555 E13.25762
G1 X92.02 Y77.36 E13.27734
G1 X92.524 Y77.183 E13.30052
G1 X92.651 Y77.118 E13.30669
G1 X93.243 Y76.703 E13.3381
G1 X93.651 Y76.48 E13.35826
G1 X94.106 Y76.295 E13.37959
G1 X94.619 Y76.151 E13.40274
G1 X94.75 Y76.094 E13.40892
G1 X95.367 Y75.716 E13.44033
G1 X95.788 Y75.52 E13.46049
G1 X96.254 Y75.363 E13.48182
G1 X96.775 Y75.252 E13.50497
G1 X96.909 Y75.203 E13.51114
G1 X97.547 Y74.866 E13.5425
G1 X98.021 Y74.682 E13.56455
G1 X98.455 Y74.569 E13.58401
G1 X98.983 Y74.49 E13.60719
G1 X99.119 Y74.45 E13.61337
G1 X99.779 Y74.152 E13.64477
G1 X100.221 Y74.01 E13.66493
G1 X100.703 Y73.914 E13.68626
G1 X101.234 Y73.868 E13.70942
G1 X101.373 Y73.837 E13.71559
G1 X102.05 Y73.581 E13.747
G1 X102.5 Y73.467 E13.76716
G1 X102.987 Y73.401 E13.7885
G1 X103.521 Y73.389 E13.81165
G1 X103.661 Y73.366 E13.81783
G1 X104.353 Y73.154 E13.84922
G1 X104.809 Y73.068 E13.86939
G1 X105.299 Y73.033 E13.89072
G1 X105.832 Y73.054 E13.91387
G1 X105.974 Y73.041 E13.92004
G1 X106.677 Y72.872 E13.95145
G1 X107.138 Y72.815 E13.97161
G1 X107.63 Y72.811 E13.99294
G1 X108.16 Y72.866 E14.01611
G1 X108.302 Y72.861 E14.02226
G1 X109.028 Y72.736 E14.05422
G1 X109.529 Y72.709 E14.07602
G1 X109.968 Y72.735 E14.09512
G1 X110.495 Y72.823 E14.11832
G1 X110.638 Y72.827 E14.12449
G1 X111.356 Y72.749 E14.15588
G1 X111.827 Y72.75 E14.17632
G1 X112.325 Y72.81 E14.19807
G1 X112.828 Y72.928 E14.22052
