; HEADER_BLOCK_START
; generated by AnycubicSlicerNext 1.3.2 on 2025-02-22 at 15:26:22
; total layer number: 45
; filament_density: 1.24
; filament_diameter: 1.75
; max_z_height: 9.04
; exclude_object: 0
; model_instances: 1
; HEADER_BLOCK_END

; THUMBNAIL_BLOCK_START

;
; THUMBNAIL_BLOCK_END

; external perimeters extrusion width = 0.42mm
; perimeters extrusion width = 0.45mm
; infill extrusion width = 0.45mm
; solid infill extrusion width = 0.42mm
; top infill extrusion width = 0.42mm
; first layer extrusion width = 0.50mm

; EXECUTABLE_BLOCK_START
M201 X2000 Y2000 Z800 E2000
M203 X300 Y300 Z8 E100
M204 P2000 R2000 T2000
M205 X10.00 Y10.00 Z2.00 E5.00 ; sets the jerk limits, mm/sec
;TYPE:Custom
G90 ; use absolute coordinates
M83 ; extruder relative mode
M104 S220 ; set extruder temp
M140 S60 ; set bed temp
M190 S60 ; wait for bed temp
M109 S220 ; wait for extruder temp
G28                                        ; move X/Y/Z to min endstops
G1 Z0.28                                   ; lift nozzle a bit 
G92 E0 
G1 Y3 F1800                                    ; zero the extruded length 
G1 X60  E25 F500                       ; Extrude 25mm of filament in a 5cm line. 
G92 E0                                     ; zero the extruded length again 
G1 E-2 F500                                ; Retract a little 
G1 X70 F4000                              ; Quickly wipe away from the filament line
M117
G90
G21
M82 ; use absolute distances for extrusion
G92 E0
; filament start gcode
M106 S0
;LAYER_CHANGE
;Z:0.24
;HEIGHT:0.24
; BEFORE_LAYER_CHANGE 0 @ 0.24mm
G1 E-2.5 F6000
G92 E0
; AFTER_LAYER_CHANGE 0 @ 0.24mm
;_SET_FAN_SPEED_CHANGING_LAYER
M204 P500
; printing object "AxisSpacer9mm4mm.stl" id:0 copy 0
M204 T500
G1 X102.759 Y102.521 F18000
G1 Z.24
G1 E2.5 F6000
;TYPE:Brim
;WIDTH:0.5
G1 F3000
G1 X103.142 Y102.168 E2.52259
G1 X103.542 Y101.836 E2.54518
G1 X103.958 Y101.523 E2.56777
G1 X104.389 Y101.232 E2.59036
G1 X104.835 Y100.962 E2.61295
G1 X105.293 Y100.715 E2.63555
G1 X105.763 Y100.492 E2.65814
G1 X106.243 Y100.292 E2.68073
G1 X106.733 Y100.116 E2.70332
G1 X107.231 Y99.965 E2.72591
G1 X107.736 Y99.839 E2.7485
G1 X108.247 Y99.739 E2.77109
G1 X108.762 Y99.664 E2.79368
G1 X109.278 Y99.615 E2.81619
G1 X110.174 Y99.592 E2.85509
G1 X110.667 Y99.612 E2.87651
G1 X111.185 Y99.658 E2.8991
G1 X111.7 Y99.73 E2.92169
G1 X112.212 Y99.828 E2.94428
G1 X112.717 Y99.951 E2.96687
G1 X113.216 Y100.099 E2.98946
G1 X113.707 Y100.273 E3.01205
G1 X114.188 Y100.47 E3.03464
G1 X114.659 Y100.691 E3.05723
G1 X115.119 Y100.936 E3.07982
G1 X115.565 Y101.203 E3.10241
G1 X115.998 Y101.492 E3.125
G1 X116.416 Y101.802 E3.14759
G1 X116.817 Y102.133 E3.17018
G1 X117.202 Y102.484 E3.19278
G1 X117.569 Y102.853 E3.21537
G1 X117.916 Y103.24 E3.23796
G1 X118.244 Y103.645 E3.26055
G1 X118.552 Y104.065 E3.28314
G1 X118.836 Y104.497 E3.30562
G1 X119.319 Y105.361 E3.34855
G1 X119.693 Y106.205 E3.38864
G1 X119.87 Y106.692 E3.41113
G1 X120.023 Y107.189 E3.43372
G1 X120.151 Y107.694 E3.45632
G1 X120.254 Y108.204 E3.47891
G1 X120.331 Y108.719 E3.5015
G1 X120.382 Y109.237 E3.52409
G1 X120.407 Y109.756 E3.54667
G1 X120.406 Y110.277 E3.56927
G1 X120.379 Y110.797 E3.59186
G1 X120.326 Y111.314 E3.61445
G1 X120.248 Y111.829 E3.63704
G1 X120.144 Y112.339 E3.65963
G1 X120.014 Y112.843 E3.68222
G1 X119.859 Y113.34 E3.70482
G1 X119.68 Y113.828 E3.7274
G1 X119.477 Y114.307 E3.74999
G1 X119.25 Y114.775 E3.77258
G1 X118.999 Y115.232 E3.79517
G1 X118.727 Y115.675 E3.81776
G1 X118.432 Y116.104 E3.84036
G1 X118.117 Y116.518 E3.86295
G1 X117.782 Y116.914 E3.88546
G1 X117.175 Y117.542 E3.92335
G1 X116.792 Y117.888 E3.94577
G1 X116.391 Y118.217 E3.96828
G1 X115.68 Y118.723 E4.00618
G1 X115.24 Y118.994 E4.0286
G1 X114.784 Y119.245 E4.05119
G1 X114.316 Y119.473 E4.07378
G1 X113.837 Y119.677 E4.09637
G1 X113.349 Y119.856 E4.11896
G1 X112.852 Y120.011 E4.14155
G1 X112.348 Y120.141 E4.16414
G1 X111.839 Y120.246 E4.18674
G1 X111.324 Y120.325 E4.20933
G1 X110.806 Y120.378 E4.23192
G1 X110.287 Y120.406 E4.25451
G1 X109.766 Y120.407 E4.2771
G1 X109.247 Y120.382 E4.29969
G1 X108.729 Y120.332 E4.32228
G1 X108.214 Y120.255 E4.34487
G1 X107.704 Y120.153 E4.36746
G1 X107.199 Y120.026 E4.39005
G1 X106.701 Y119.873 E4.41264
G1 X106.212 Y119.696 E4.43523
G1 X105.732 Y119.495 E4.45782
G1 X105.263 Y119.27 E4.48042
G1 X104.806 Y119.021 E4.50301
G1 X104.361 Y118.75 E4.5256
G1 X103.933 Y118.459 E4.54811
G1 X103.245 Y117.921 E4.586
G1 X102.86 Y117.576 E4.60842
G1 X102.491 Y117.21 E4.63101
G1 X102.14 Y116.825 E4.6536
G1 X101.809 Y116.424 E4.67619
G1 X101.498 Y116.006 E4.69879
G1 X101.208 Y115.574 E4.72138
G1 X100.941 Y115.128 E4.74397
G1 X100.697 Y114.671 E4.76645
G1 X100.295 Y113.767 E4.80938
G1 X100 Y112.892 E4.84946
G1 X99.868 Y112.391 E4.87196
G1 X99.762 Y111.881 E4.89455
G1 X99.68 Y111.367 E4.91714
G1 X99.625 Y110.85 E4.93973
G1 X99.595 Y110.33 E4.96232
G1 X99.592 Y109.81 E4.98491
G1 X99.614 Y109.29 E5.00751
G1 X99.663 Y108.772 E5.0301
G1 X99.737 Y108.257 E5.05269
G1 X99.837 Y107.746 E5.07528
G1 X99.962 Y107.241 E5.09787
G1 X100.112 Y106.745 E5.12035
G1 X100.465 Y105.821 E5.16328
G1 X100.873 Y104.993 E5.20336
G1 X101.134 Y104.545 E5.22586
G1 X101.418 Y104.109 E5.24845
G1 X101.723 Y103.687 E5.27104
G1 X102.049 Y103.281 E5.29363
G1 X102.394 Y102.892 E5.31623
G1 X102.731 Y102.55 E5.33708
G1 X103.059 Y102.856 F18000
G1 F3000
G1 X103.074 Y102.841 E5.338
G1 X103.443 Y102.502 E5.35976
G1 X104.224 Y101.885 E5.40298
G1 X105.063 Y101.349 E5.4462
G1 X105.951 Y100.899 E5.48942
G1 X106.88 Y100.54 E5.53264
G1 X107.84 Y100.276 E5.57586
G1 X108.818 Y100.109 E5.61894
G1 X109.309 Y100.063 E5.64034
G1 X110.175 Y100.041 E5.67793
G1 X110.644 Y100.06 E5.69832
G1 X111.634 Y100.174 E5.74155
G1 X112.607 Y100.386 E5.78477
G1 X113.553 Y100.694 E5.82799
G1 X114.464 Y101.096 E5.87121
G1 X115.331 Y101.586 E5.91443
G1 X116.144 Y102.16 E5.95765
G1 X116.896 Y102.813 E6.00087
G1 X117.577 Y103.534 E6.04394
G1 X117.893 Y103.924 E6.06571
G1 X118.448 Y104.723 E6.10796
G1 X118.914 Y105.556 E6.14937
G1 X119.275 Y106.368 E6.18795
G1 X119.447 Y106.841 E6.20979
G1 X119.715 Y107.8 E6.25301
G1 X119.886 Y108.781 E6.29622
G1 X119.958 Y109.774 E6.33944
G1 X119.931 Y110.769 E6.38267
G1 X119.807 Y111.743 E6.4253
G1 X119.584 Y112.714 E6.46852
G1 X119.265 Y113.657 E6.51174
G1 X118.854 Y114.564 E6.55496
G1 X118.354 Y115.425 E6.59818
G1 X117.771 Y116.232 E6.6414
G1 X117.446 Y116.616 E6.66326
G1 X116.86 Y117.222 E6.69985
G1 X116.115 Y117.863 E6.7425
G1 X115.436 Y118.347 E6.77871
G1 X115.018 Y118.605 E6.80004
G1 X114.136 Y119.061 E6.84311
G1 X113.211 Y119.429 E6.88634
G1 X112.254 Y119.703 E6.92956
G1 X111.26 Y119.881 E6.97336
G1 X110.268 Y119.957 E7.01658
G1 X109.272 Y119.934 E7.0598
G1 X108.284 Y119.812 E7.10302
G1 X107.326 Y119.595 E7.14566
G1 X106.382 Y119.281 E7.18887
G1 X105.473 Y118.873 E7.2321
G1 X105.024 Y118.629 E7.25429
G1 X104.194 Y118.094 E7.29717
G1 X103.537 Y117.579 E7.33338
G1 X103.163 Y117.245 E7.35515
G1 X102.474 Y116.526 E7.39837
G1 X101.86 Y115.742 E7.44159
G1 X101.329 Y114.904 E7.48467
G1 X101.098 Y114.469 E7.50603
G1 X100.716 Y113.609 E7.54687
G1 X100.428 Y112.755 E7.586
G1 X100.202 Y111.794 E7.62889
G1 X100.073 Y110.82 E7.67153
G1 X100.041 Y109.825 E7.71475
G1 X100.063 Y109.314 E7.73695
G1 X100.181 Y108.325 E7.78017
G1 X100.396 Y107.356 E7.82324
G1 X100.539 Y106.886 E7.8446
G1 X100.875 Y106.007 E7.88545
G1 X101.273 Y105.198 E7.92457
G1 X101.791 Y104.357 E7.96746
G1 X102.396 Y103.566 E8.01068
G1 X103.032 Y102.886 E8.0511
G1 X103.36 Y103.192 F18000
G1 F3000
G1 X103.393 Y103.156 E8.05325
G1 X103.738 Y102.84 E8.07355
G1 X104.49 Y102.247 E8.11514
G1 X105.292 Y101.736 E8.1564
G1 X106.14 Y101.307 E8.19767
G1 X107.027 Y100.965 E8.23894
G1 X107.944 Y100.713 E8.28022
G1 X108.882 Y100.554 E8.32152
G1 X109.341 Y100.511 E8.34151
G1 X110.176 Y100.49 E8.37779
G1 X110.614 Y100.508 E8.39682
G1 X111.567 Y100.618 E8.43844
G1 X112.495 Y100.822 E8.47971
G1 X113.399 Y101.117 E8.52098
G1 X114.269 Y101.5 E8.56225
G1 X115.096 Y101.969 E8.60352
G1 X115.873 Y102.518 E8.64479
G1 X116.59 Y103.142 E8.68606
G1 X117.243 Y103.834 E8.72736
G1 X117.537 Y104.197 E8.74766
G1 X118.064 Y104.956 E8.78775
G1 X118.51 Y105.751 E8.82733
G1 X118.857 Y106.532 E8.8644
G1 X119.021 Y106.983 E8.88524
G1 X119.278 Y107.906 E8.92682
G1 X119.441 Y108.842 E8.96809
G1 X119.509 Y109.791 E9.00936
G1 X119.483 Y110.741 E9.05064
G1 X119.364 Y111.671 E9.09133
G1 X119.153 Y112.585 E9.13203
G1 X118.85 Y113.486 E9.1733
G1 X118.458 Y114.352 E9.21457
G1 X117.981 Y115.174 E9.25584
G1 X117.42 Y115.951 E9.29742
G1 X117.11 Y116.319 E9.31831
G1 X116.547 Y116.9 E9.35342
G1 X115.833 Y117.513 E9.39428
G1 X115.191 Y117.97 E9.4285
G1 X114.801 Y118.212 E9.44843
G1 X113.956 Y118.65 E9.48973
G1 X113.06 Y119.006 E9.53159
G1 X112.146 Y119.266 E9.57285
G1 X111.197 Y119.436 E9.61469
G1 X110.249 Y119.508 E9.65596
G1 X109.312 Y119.487 E9.69664
G1 X108.368 Y119.371 E9.73792
G1 X107.453 Y119.164 E9.77862
G1 X106.551 Y118.864 E9.81989
G1 X105.677 Y118.473 E9.86147
G1 X105.248 Y118.24 E9.88264
G1 X104.449 Y117.724 E9.92394
G1 X103.829 Y117.238 E9.95815
G1 X103.472 Y116.918 E9.97895
G1 X102.809 Y116.226 E10.02053
G1 X102.224 Y115.477 E10.0618
G1 X101.715 Y114.673 E10.1031
G1 X101.5 Y114.268 E10.12302
G1 X101.137 Y113.452 E10.16179
G1 X100.858 Y112.626 E10.19964
G1 X100.643 Y111.706 E10.24065
G1 X100.52 Y110.776 E10.28135
G1 X100.489 Y109.832 E10.32236
G1 X100.511 Y109.345 E10.34353
G1 X100.625 Y108.394 E10.38511
G1 X100.832 Y107.465 E10.4264
G1 X100.965 Y107.026 E10.44632
G1 X101.284 Y106.192 E10.48509
G1 X101.669 Y105.41 E10.52294
G1 X102.166 Y104.606 E10.56395
G1 X102.743 Y103.851 E10.60522
G1 X103.332 Y103.222 E10.64264
G1 X103.66 Y103.528 F18000
G1 F3000
G1 X103.713 Y103.472 E10.64601
G1 X104.033 Y103.179 E10.66484
G1 X104.756 Y102.609 E10.7048
G1 X105.52 Y102.123 E10.74412
G1 X106.329 Y101.715 E10.78344
G1 X107.174 Y101.39 E10.82276
G1 X108.048 Y101.151 E10.86208
G1 X108.946 Y100.998 E10.90161
G1 X109.372 Y100.959 E10.92019
G1 X110.177 Y100.938 E10.95515
G1 X110.584 Y100.956 E10.97283
G1 X111.499 Y101.063 E11.01283
G1 X112.384 Y101.257 E11.05215
G1 X113.245 Y101.539 E11.09147
G1 X114.073 Y101.905 E11.13079
G1 X114.861 Y102.352 E11.17011
G1 X115.6 Y102.876 E11.20943
G1 X116.284 Y103.47 E11.24876
G1 X116.908 Y104.133 E11.28828
G1 X117.181 Y104.471 E11.30712
G1 X117.679 Y105.189 E11.34507
G1 X118.105 Y105.947 E11.38283
G1 X118.439 Y106.695 E11.41837
G1 X118.595 Y107.125 E11.43822
G1 X118.841 Y108.011 E11.47815
G1 X118.995 Y108.904 E11.51747
G1 X119.06 Y109.807 E11.55678
G1 X119.034 Y110.713 E11.59612
G1 X118.92 Y111.599 E11.63488
G1 X118.719 Y112.469 E11.67365
G1 X118.434 Y113.315 E11.7124
G1 X118.061 Y114.14 E11.75171
G1 X117.607 Y114.924 E11.79104
G1 X117.07 Y115.671 E11.83097
G1 X116.774 Y116.021 E11.85087
G1 X116.235 Y116.577 E11.8845
G1 X115.551 Y117.163 E11.92358
G1 X114.946 Y117.594 E11.95582
G1 X114.583 Y117.819 E11.97435
G1 X113.775 Y118.238 E12.01387
G1 X112.921 Y118.578 E12.05377
G1 X112.051 Y118.827 E12.09307
G1 X111.147 Y118.989 E12.13294
G1 X110.23 Y119.059 E12.17284
G1 X109.338 Y119.038 E12.21159
G1 X108.438 Y118.927 E12.25093
G1 X107.567 Y118.73 E12.2897
G1 X106.72 Y118.448 E12.32845
G1 X105.881 Y118.073 E12.36838
G1 X105.473 Y117.851 E12.3885
G1 X104.705 Y117.354 E12.42822
G1 X104.121 Y116.897 E12.46043
G1 X103.781 Y116.592 E12.48025
G1 X103.145 Y115.927 E12.52019
G1 X102.587 Y115.213 E12.55952
G1 X102.101 Y114.443 E12.59904
G1 X101.901 Y114.067 E12.61752
G1 X101.558 Y113.295 E12.65423
G1 X101.288 Y112.496 E12.69079
G1 X101.083 Y111.619 E12.72992
G1 X100.967 Y110.733 E12.76869
G1 X100.938 Y109.84 E12.80749
G1 X100.959 Y109.377 E12.82762
G1 X101.069 Y108.463 E12.86755
G1 X101.267 Y107.575 E12.90708
G1 X101.391 Y107.167 E12.92555
G1 X101.693 Y106.377 E12.96226
G1 X102.066 Y105.622 E12.99883
G1 X102.54 Y104.856 E13.03794
G1 X103.091 Y104.136 E13.07727
G1 X103.633 Y103.558 E13.11169
G1 X103.96 Y103.865 F18000
G1 F3000
G1 X104.032 Y103.787 E13.11628
G1 X104.327 Y103.518 E13.13364
G1 X105.021 Y102.972 E13.17197
G1 X105.748 Y102.51 E13.20933
G1 X106.517 Y102.123 E13.24671
G1 X107.321 Y101.815 E13.28407
G1 X108.152 Y101.588 E13.32146
G1 X109.009 Y101.443 E13.35921
G1 X109.403 Y101.407 E13.37638
G1 X110.178 Y101.387 E13.41003
G1 X110.553 Y101.404 E13.42634
G1 X111.432 Y101.507 E13.46473
G1 X112.272 Y101.692 E13.5021
G1 X113.09 Y101.961 E13.53947
G1 X113.877 Y102.309 E13.57684
G1 X114.626 Y102.735 E13.61421
G1 X115.328 Y103.233 E13.65158
G1 X115.977 Y103.799 E13.68896
G1 X116.573 Y104.432 E13.72671
G1 X116.824 Y104.744 E13.7441
G1 X117.295 Y105.422 E13.77992
G1 X117.701 Y106.143 E13.81586
G1 X118.021 Y106.859 E13.84987
G1 X118.169 Y107.267 E13.8687
G1 X118.404 Y108.116 E13.90698
G1 X118.55 Y108.965 E13.94435
G1 X118.611 Y109.823 E13.98171
G1 X118.587 Y110.671 E14.01852
G1 X118.479 Y111.513 E14.05536
G1 X118.289 Y112.34 E14.09221
G1 X118.018 Y113.144 E14.12902
G1 X117.664 Y113.929 E14.1664
G1 X117.234 Y114.674 E14.20377
G1 X116.719 Y115.39 E14.24205
G1 X116.438 Y115.723 E14.26096
G1 X115.922 Y116.254 E14.29308
G1 X115.27 Y116.813 E14.33039
G1 X114.701 Y117.218 E14.36067
G1 X114.366 Y117.426 E14.3778
G1 X113.595 Y117.827 E14.41554
G1 X112.783 Y118.151 E14.45348
G1 X111.943 Y118.391 E14.49141
G1 X111.083 Y118.544 E14.52931
G1 X110.212 Y118.61 E14.56724
G1 X109.364 Y118.589 E14.60405
G1 X108.522 Y118.485 E14.64087
G1 X107.694 Y118.299 E14.67771
G1 X106.889 Y118.031 E14.71453
G1 X106.084 Y117.672 E14.7528
G1 X105.698 Y117.463 E14.77188
G1 X104.96 Y116.985 E14.81001
G1 X104.412 Y116.556 E14.84023
G1 X104.089 Y116.266 E14.85907
G1 X103.48 Y115.628 E14.89736
G1 X102.951 Y114.949 E14.93474
G1 X102.486 Y114.214 E14.97249
G1 X102.303 Y113.867 E14.98953
G1 X101.979 Y113.137 E15.02418
G1 X101.719 Y112.367 E15.05946
G1 X101.524 Y111.532 E15.09669
G1 X101.415 Y110.69 E15.13354
G1 X101.387 Y109.847 E15.17014
G1 X101.406 Y109.408 E15.18923
G1 X101.513 Y108.533 E15.22751
G1 X101.703 Y107.684 E15.26526
G1 X101.817 Y107.309 E15.28229
G1 X102.103 Y106.563 E15.31695
G1 X102.462 Y105.834 E15.35223
G1 X102.913 Y105.105 E15.38944
G1 X103.438 Y104.422 E15.42683
G1 X103.933 Y103.894 E15.45825
G1 X104.252 Y104.215 F18000
G1 F3000
G1 X104.533 Y103.936 E15.4754
G1 X105.164 Y103.421 E15.51079
G1 X105.823 Y102.984 E15.54511
G1 X106.543 Y102.604 E15.58043
G1 X107.299 Y102.295 E15.6159
G1 X108.02 Y102.079 E15.64858
G1 X108.815 Y101.922 E15.68376
G1 X109.627 Y101.844 E15.71914
G1 X110.408 Y101.845 E15.75305
G1 X111.217 Y101.927 E15.78834
G1 X112.016 Y102.088 E15.82375
G1 X112.796 Y102.329 E15.85918
G1 X113.547 Y102.646 E15.89457
G1 X114.242 Y103.024 E15.92889
G1 X114.915 Y103.481 E15.96422
G1 X115.541 Y104.004 E15.99962
G1 X116.107 Y104.581 E16.03469
G1 X116.614 Y105.213 E16.06988
G1 X117.058 Y105.897 E16.10527
G1 X117.422 Y106.597 E16.13954
G1 X117.724 Y107.355 E16.17493
G1 X117.936 Y108.079 E16.2077
G1 X118.087 Y108.877 E16.24293
G1 X118.158 Y109.664 E16.27725
G1 X118.15 Y110.478 E16.31258
G1 X118.062 Y111.289 E16.34799
G1 X117.893 Y112.087 E16.38341
G1 X117.648 Y112.857 E16.41846
G1 X117.325 Y113.605 E16.45384
G1 X116.928 Y114.319 E16.48931
G1 X116.501 Y114.939 E16.52199
G1 X115.979 Y115.56 E16.55719
G1 X115.415 Y116.111 E16.59143
G1 X114.787 Y116.615 E16.62639
G1 X114.105 Y117.057 E16.66166
G1 X113.381 Y117.432 E16.69704
G1 X112.68 Y117.712 E16.72982
G1 X111.898 Y117.941 E16.76518
G1 X111.096 Y118.091 E16.80063
G1 X110.342 Y118.158 E16.83348
G1 X109.528 Y118.151 E16.8688
G1 X108.742 Y118.067 E16.90311
G1 X107.953 Y117.904 E16.93811
G1 X107.234 Y117.682 E16.97073
G1 X106.487 Y117.37 E17.00591
G1 X105.769 Y116.983 E17.04132
G1 X105.092 Y116.525 E17.07678
G1 X104.503 Y116.037 E17.10997
G1 X103.932 Y115.463 E17.14512
G1 X103.418 Y114.831 E17.18051
G1 X102.973 Y114.157 E17.21557
G1 X102.595 Y113.439 E17.2508
G1 X102.298 Y112.709 E17.28499
G1 X102.066 Y111.927 E17.32039
G1 X101.922 Y111.186 E17.35316
G1 X101.844 Y110.378 E17.38841
G1 X101.847 Y109.571 E17.42345
G1 X101.93 Y108.76 E17.45885
G1 X102.094 Y107.961 E17.49424
G1 X102.327 Y107.209 E17.52841
G1 X102.631 Y106.484 E17.56251
G1 X103.018 Y105.768 E17.59787
