; HEADER_BLOCK_START
; generated by AnycubicSlicerNext 1.3.2 on 2025-02-17 at 21:50:34
; total layer number: 97
; filament_density: 1.24
; filament_diameter: 1.75
; max_z_height: 19.44
; exclude_object: 0
; model_instances: 1
; HEADER_BLOCK_END

; THUMBNAIL_BLOCK_START

;
; THUMBNAIL_BLOCK_END

; external perimeters extrusion width = 0.42mm
; perimeters extrusion width = 0.45mm
; infill extrusion width = 0.45mm
; solid infill extrusion width = 0.42mm
; top infill extrusion width = 0.42mm
; first layer extrusion width = 0.50mm

; EXECUTABLE_BLOCK_START
M201 X2000 Y2000 Z800 E2000
M203 X300 Y300 Z8 E100
M204 P2000 R2000 T2000
M205 X10.00 Y10.00 Z2.00 E5.00 ; sets the jerk limits, mm/sec
;TYPE:Custom
G90 ; use absolute coordinates
M83 ; extruder relative mode
M104 S220 ; set extruder temp
M140 S60 ; set bed temp
M190 S60 ; wait for bed temp
M109 S220 ; wait for extruder temp
G28                                        ; move X/Y/Z to min endstops
G1 Z0.28                                   ; lift nozzle a bit 
G92 E0 
G1 Y3 F1800                                    ; zero the extruded length 
G1 X60  E25 F500                       ; Extrude 25mm of filament in a 5cm line. 
G92 E0                                     ; zero the extruded length again 
G1 E-2 F500                                ; Retract a little 
G1 X70 F4000                              ; Quickly wipe away from the filament line
M117
G90
G21
M82 ; use absolute distances for extrusion
G92 E0
; filament start gcode
M106 S0
;LAYER_CHANGE
;Z:0.24
;HEIGHT:0.24
; BEFORE_LAYER_CHANGE 0 @ 0.24mm
G1 E-2.5 F6000
G92 E0
; AFTER_LAYER_CHANGE 0 @ 0.24mm
;_SET_FAN_SPEED_CHANGING_LAYER
M204 P500
; printing object "GetriebeSockel.stl" id:13914996251789278978 copy 0
M204 T500
G1 X76.791 Y103.118 F18000
G1 Z.24
G1 E2.5 F6000
;TYPE:Brim
;WIDTH:0.5
G1 F3000
G1 X77.501 Y102.671 E2.53642
G1 X78.251 Y102.297 E2.57281
G1 X79.036 Y101.999 E2.60925
G1 X79.699 Y101.813 E2.63913
G1 X80.464 Y101.671 E2.6729
G1 X81.226 Y101.6 E2.70612
G1 X81.346 Y101.551 E2.71176
G1 X99.843 Y86.577 E3.74481
G1 X100.371 Y86.212 E3.77267
G1 X101.112 Y85.866 E3.80816
G1 X101.816 Y85.668 E3.83989
G1 X102.636 Y85.589 E3.87566
G1 X142.617 Y85.589 E5.61117
G1 X143.259 Y85.637 E5.63913
G1 X143.881 Y85.779 E5.66681
G1 X144.327 Y85.944 E5.68747
G1 X145.001 Y86.29 E5.72034
G1 X145.511 Y86.667 E5.74788
G1 X145.961 Y87.116 E5.77548
G1 X146.337 Y87.624 E5.80292
G1 X146.74 Y88.443 E5.84256
G1 X146.928 Y89.05 E5.87011
G1 X147.024 Y89.683 E5.89789
G1 X147.036 Y90.004 E5.91186
G1 X147.036 Y129.992 E7.64765
G1 X146.988 Y130.634 E7.67561
G1 X146.846 Y131.255 E7.70324
G1 X146.634 Y131.81 E7.72904
G1 X146.335 Y132.375 E7.75678
G1 X145.958 Y132.886 E7.78437
G1 X145.509 Y133.336 E7.81197
G1 X145 Y133.713 E7.83947
G1 X144.281 Y134.076 E7.87441
G1 X143.574 Y134.303 E7.90666
G1 X142.942 Y134.399 E7.93438
G1 X142.621 Y134.411 E7.94836
G1 X102.633 Y134.411 E9.68415
G1 X101.993 Y134.363 E9.71201
G1 X101.2 Y134.165 E9.7475
G1 X100.528 Y133.877 E9.77923
G1 X99.841 Y133.421 E9.815
G1 X81.345 Y118.448 E10.84801
G1 X81.222 Y118.399 E10.85374
G1 X80.634 Y118.35 E10.87937
G1 X79.869 Y118.224 E10.91302
G1 X79.198 Y118.051 E10.9431
G1 X78.661 Y117.87 E10.96769
G1 X78.08 Y117.626 E10.99504
G1 X77.572 Y117.368 E11.01978
G1 X76.932 Y116.977 E11.05235
G1 X76.47 Y116.645 E11.07707
G1 X76.102 Y116.341 E11.09775
G1 X75.646 Y115.913 E11.12493
G1 X75.221 Y115.449 E11.15222
G1 X74.833 Y114.957 E11.17943
G1 X74.324 Y114.172 E11.22002
G1 X74.034 Y113.617 E11.24723
G1 X73.785 Y113.04 E11.27453
G1 X73.58 Y112.445 E11.30181
G1 X73.419 Y111.835 E11.32921
G1 X73.264 Y110.895 E11.37059
G1 X73.22 Y110.267 E11.39788
G1 X73.224 Y109.639 E11.42517
G1 X73.274 Y109.012 E11.45247
G1 X73.372 Y108.39 E11.47978
G1 X73.515 Y107.778 E11.5071
G1 X73.685 Y107.23 E11.53199
G1 X73.912 Y106.648 E11.55911
G1 X74.211 Y106.03 E11.58891
G1 X74.502 Y105.529 E11.61406
G1 X74.851 Y105.016 E11.64101
G1 X75.248 Y104.517 E11.66868
G1 X75.67 Y104.062 E11.69561
G1 X76.173 Y103.596 E11.72537
G1 X76.76 Y103.143 E11.75756
G1 X77.034 Y103.498 F18000
G1 F3000
G1 X77.054 Y103.483 E11.75865
G1 X77.716 Y103.066 E11.7926
G1 X78.425 Y102.711 E11.82705
G1 X79.171 Y102.427 E11.86166
G1 X79.795 Y102.252 E11.8898
G1 X80.52 Y102.117 E11.92181
G1 X81.258 Y102.047 E11.95398
G1 X81.399 Y102.013 E11.96029
G1 X81.639 Y101.891 E11.97201
G1 X100.109 Y86.939 E13.00349
G1 X100.605 Y86.597 E13.02967
G1 X101.259 Y86.293 E13.06098
G1 X101.911 Y86.109 E13.09036
G1 X102.664 Y86.038 E13.1232
G1 X142.605 Y86.038 E14.85699
G1 X143.202 Y86.084 E14.88298
G1 X143.744 Y86.208 E14.90711
G1 X144.138 Y86.353 E14.92536
G1 X144.754 Y86.668 E14.95538
G1 X145.225 Y87.015 E14.98079
G1 X145.613 Y87.403 E15.00459
G1 X145.945 Y87.849 E15.02874
G1 X146.318 Y88.6 E15.06514
G1 X146.491 Y89.16 E15.09058
G1 X146.575 Y89.717 E15.11504
G1 X146.587 Y90.01 E15.12777
G1 X146.587 Y129.98 E16.86279
G1 X146.544 Y130.557 E16.88791
G1 X146.418 Y131.115 E16.91272
G1 X146.221 Y131.631 E16.93673
G1 X145.948 Y132.144 E16.96192
G1 X145.61 Y132.6 E16.98659
G1 X145.207 Y133.002 E17.01127
G1 X144.753 Y133.335 E17.03572
G1 X144.101 Y133.663 E17.06744
G1 X143.461 Y133.867 E17.09658
G1 X142.908 Y133.95 E17.12085
G1 X142.61 Y133.962 E17.1338
G1 X102.655 Y133.962 E18.86817
G1 X102.054 Y133.916 E18.89435
G1 X101.354 Y133.741 E18.92565
G1 X100.732 Y133.474 E18.95504
G1 X100.102 Y133.055 E18.98787
G1 X81.639 Y118.109 E20.01905
G1 X81.393 Y117.985 E20.03097
G1 X81.249 Y117.951 E20.03738
G1 X80.684 Y117.904 E20.06202
G1 X79.956 Y117.784 E20.09405
G1 X79.331 Y117.622 E20.12207
G1 X78.825 Y117.452 E20.14525
G1 X78.274 Y117.221 E20.17119
G1 X77.787 Y116.973 E20.1949
G1 X77.184 Y116.606 E20.22552
G1 X76.748 Y116.292 E20.24888
G1 X76.396 Y116.002 E20.26868
G1 X75.962 Y115.593 E20.29455
G1 X75.566 Y115.162 E20.31995
G1 X75.202 Y114.701 E20.34547
G1 X74.709 Y113.94 E20.38479
G1 X74.437 Y113.419 E20.41032
G1 X74.205 Y112.882 E20.43572
G1 X74.011 Y112.32 E20.46155
G1 X73.859 Y111.748 E20.48723
G1 X73.709 Y110.836 E20.52733
G1 X73.669 Y110.248 E20.55292
G1 X73.673 Y109.653 E20.57876
G1 X73.721 Y109.06 E20.60459
G1 X73.813 Y108.471 E20.63044
G1 X73.947 Y107.9 E20.65593
G1 X74.11 Y107.373 E20.67985
G1 X74.326 Y106.823 E20.70552
G1 X74.61 Y106.236 E20.73382
G1 X74.884 Y105.764 E20.75751
G1 X75.216 Y105.278 E20.78306
G1 X75.592 Y104.806 E20.80927
G1 X75.991 Y104.376 E20.83473
G1 X76.468 Y103.935 E20.86291
G1 X77.002 Y103.523 E20.89222
G1 X77.276 Y103.878 F18000
G1 F3000
G1 X77.317 Y103.847 E20.89442
G1 X77.942 Y103.454 E20.92649
G1 X78.612 Y103.12 E20.959
G1 X79.306 Y102.856 E20.99121
G1 X79.903 Y102.688 E21.01813
G1 X80.576 Y102.562 E21.04786
G1 X81.292 Y102.495 E21.07906
G1 X81.499 Y102.45 E21.08829
G1 X81.607 Y102.41 E21.09326
G1 X81.931 Y102.232 E21.10932
G1 X100.373 Y87.302 E22.13931
G1 X100.839 Y86.983 E22.16381
G1 X101.406 Y86.719 E22.19095
G1 X102.005 Y86.551 E22.21799
G1 X102.691 Y86.486 E22.24789
G1 X142.582 Y86.487 E23.97951
G1 X143.144 Y86.531 E24.00396
G1 X143.608 Y86.637 E24.02461
G1 X143.951 Y86.762 E24.04045
G1 X144.508 Y87.046 E24.06759
G1 X144.939 Y87.363 E24.09086
G1 X145.266 Y87.69 E24.11091
G1 X145.554 Y88.074 E24.13177
G1 X145.895 Y88.757 E24.16491
G1 X146.054 Y89.271 E24.18822
G1 X146.127 Y89.753 E24.20939
G1 X146.139 Y90.017 E24.22086
G1 X146.138 Y129.968 E25.9551
G1 X146.1 Y130.481 E25.97741
G1 X145.99 Y130.975 E25.99939
G1 X145.808 Y131.452 E26.02157
G1 X145.562 Y131.912 E26.04417
G1 X145.262 Y132.313 E26.06593
G1 X144.906 Y132.666 E26.08768
G1 X144.508 Y132.956 E26.10908
G1 X143.921 Y133.25 E26.13758
G1 X143.348 Y133.43 E26.16364
G1 X142.872 Y133.502 E26.18453
G1 X142.598 Y133.514 E26.19645
G1 X102.678 Y133.514 E27.92933
G1 X102.115 Y133.469 E27.95383
G1 X101.509 Y133.317 E27.98096
G1 X100.936 Y133.071 E28.00801
G1 X100.363 Y132.689 E28.03791
G1 X81.93 Y117.768 E29.06735
G1 X81.6 Y117.587 E29.08369
G1 X81.49 Y117.548 E29.08875
G1 X81.279 Y117.504 E29.09814
G1 X80.734 Y117.458 E29.12187
G1 X80.055 Y117.345 E29.15175
G1 X79.463 Y117.193 E29.17826
G1 X78.988 Y117.034 E29.20004
G1 X78.467 Y116.816 E29.22454
G1 X78.01 Y116.584 E29.24678
G1 X77.437 Y116.235 E29.27591
G1 X77.025 Y115.939 E29.29792
G1 X76.689 Y115.662 E29.31682
G1 X76.277 Y115.274 E29.34137
G1 X75.911 Y114.875 E29.36489
G1 X75.571 Y114.444 E29.38872
G1 X75.094 Y113.709 E29.42677
G1 X74.84 Y113.222 E29.45061
G1 X74.622 Y112.715 E29.47456
G1 X74.442 Y112.194 E29.49851
G1 X74.3 Y111.66 E29.52248
G1 X74.155 Y110.778 E29.56128
G1 X74.118 Y110.229 E29.58516
G1 X74.121 Y109.667 E29.60954
G1 X74.167 Y109.108 E29.63391
G1 X74.255 Y108.553 E29.65831
G1 X74.379 Y108.022 E29.68197
G1 X74.535 Y107.517 E29.70491
G1 X74.739 Y106.998 E29.72913
G1 X75.009 Y106.442 E29.75592
G1 X75.267 Y106 E29.77816
G1 X75.58 Y105.54 E29.80231
G1 X75.936 Y105.095 E29.82706
G1 X76.312 Y104.69 E29.85104
G1 X76.762 Y104.274 E29.87764
G1 X77.245 Y103.903 E29.90408
G1 X77.518 Y104.259 F18000
G1 F3000
G1 X77.579 Y104.212 E29.90739
G1 X78.168 Y103.843 E29.93758
G1 X78.799 Y103.529 E29.96816
G1 X79.441 Y103.284 E29.99798
G1 X80.011 Y103.124 E30.02367
G1 X80.632 Y103.008 E30.05113
G1 X81.327 Y102.942 E30.08141
G1 X81.586 Y102.89 E30.09286
G1 X81.83 Y102.799 E30.1042
G1 X82.221 Y102.573 E30.1238
G1 X100.637 Y87.665 E31.15231
G1 X101.072 Y87.369 E31.17513
G1 X101.552 Y87.146 E31.19812
G1 X102.1 Y86.992 E31.22281
G1 X102.719 Y86.935 E31.24979
G1 X142.559 Y86.935 E32.97922
G1 X143.086 Y86.978 E33.00214
G1 X143.472 Y87.066 E33.01936
G1 X143.764 Y87.171 E33.03279
G1 X144.261 Y87.424 E33.05703
G1 X144.654 Y87.712 E33.07816
G1 X144.932 Y87.992 E33.09532
G1 X145.164 Y88.301 E33.11207
G1 X145.473 Y88.915 E33.14191
G1 X145.617 Y89.381 E33.16308
G1 X145.679 Y89.789 E33.181
G1 X145.69 Y90.023 E33.19119
G1 X145.689 Y129.956 E34.92461
G1 X145.655 Y130.405 E34.94416
G1 X145.561 Y130.836 E34.96331
G1 X145.395 Y131.274 E34.98362
G1 X145.176 Y131.678 E35.00359
G1 X144.916 Y132.025 E35.02242
G1 X144.607 Y132.33 E35.04125
G1 X144.264 Y132.577 E35.05958
G1 X143.742 Y132.836 E35.08489
G1 X143.236 Y132.993 E35.10788
G1 X142.836 Y133.054 E35.12544
G1 X142.585 Y133.065 E35.13634
G1 X102.701 Y133.065 E36.86766
G1 X102.177 Y133.022 E36.89049
G1 X101.663 Y132.893 E36.91348
G1 X101.141 Y132.668 E36.93817
G1 X100.624 Y132.324 E36.96515
G1 X82.221 Y117.426 E37.99293
G1 X81.822 Y117.198 E38.01286
G1 X81.573 Y117.107 E38.0244
G1 X81.309 Y117.056 E38.03605
G1 X80.784 Y117.011 E38.05893
G1 X80.153 Y116.907 E38.08669
G1 X79.595 Y116.764 E38.11169
G1 X79.15 Y116.615 E38.13205
G1 X78.66 Y116.41 E38.15513
G1 X78.233 Y116.194 E38.17589
G1 X77.689 Y115.863 E38.20353
G1 X77.303 Y115.586 E38.22417
G1 X76.983 Y115.322 E38.24218
G1 X76.594 Y114.955 E38.26539
G1 X76.25 Y114.58 E38.28749
G1 X75.94 Y114.188 E38.3092
G1 X75.479 Y113.477 E38.34596
G1 X75.244 Y113.025 E38.3681
G1 X75.039 Y112.548 E38.39061
G1 X74.872 Y112.067 E38.41269
G1 X74.741 Y111.572 E38.43494
G1 X74.6 Y110.72 E38.47243
G1 X74.566 Y110.21 E38.4946
G1 X74.57 Y109.682 E38.51752
G1 X74.614 Y109.156 E38.54044
G1 X74.696 Y108.634 E38.56339
G1 X74.814 Y108.135 E38.58564
G1 X74.961 Y107.661 E38.60719
G1 X75.153 Y107.173 E38.62994
G1 X75.407 Y106.649 E38.65523
G1 X75.649 Y106.236 E38.67602
G1 X75.944 Y105.803 E38.69876
G1 X76.279 Y105.384 E38.72205
G1 X76.633 Y105.004 E38.74456
G1 X77.057 Y104.614 E38.76958
G1 X77.487 Y104.283 E38.79313
G1 X77.76 Y104.639 F18000
G1 F3000
G1 X77.841 Y104.577 E38.79755
G1 X78.394 Y104.231 E38.82586
G1 X78.985 Y103.938 E38.85452
G1 X79.576 Y103.713 E38.88196
G1 X80.119 Y103.56 E38.90643
G1 X80.701 Y103.452 E38.93213
G1 X81.42 Y103.38 E38.96353
G1 X81.749 Y103.307 E38.97816
G1 X82.062 Y103.183 E38.99275
G1 X82.511 Y102.916 E39.01545
G1 X100.901 Y88.029 E40.04249
G1 X101.285 Y87.767 E40.06269
G1 X101.698 Y87.572 E40.08251
G1 X102.194 Y87.434 E40.10485
G1 X102.746 Y87.383 E40.1289
G1 X142.536 Y87.384 E41.85613
G1 X143.027 Y87.424 E41.87752
G1 X143.338 Y87.495 E41.89138
G1 X143.577 Y87.581 E41.90241
G1 X144.016 Y87.802 E41.92372
G1 X144.367 Y88.06 E41.94266
G1 X144.586 Y88.279 E41.95608
G1 X144.774 Y88.529 E41.96964
G1 X145.05 Y89.074 E41.99617
G1 X145.18 Y89.492 E42.01517
G1 X145.231 Y89.826 E42.02988
G1 X145.241 Y90.037 E42.03903
G1 X145.24 Y129.945 E43.77136
G1 X145.209 Y130.35 E43.78899
G1 X145.127 Y130.717 E43.80534
G1 X144.982 Y131.094 E43.82288
G1 X144.792 Y131.444 E43.84016
G1 X144.57 Y131.736 E43.85607
G1 X144.308 Y131.992 E43.87196
G1 X144.022 Y132.196 E43.88724
G1 X143.564 Y132.421 E43.90937
G1 X143.125 Y132.556 E43.9293
G1 X142.799 Y132.606 E43.94362
G1 X142.572 Y132.617 E43.95349
G1 X102.725 Y132.617 E45.68319
G1 X102.261 Y132.579 E45.70339
G1 X101.818 Y132.47 E45.72321
G1 X101.346 Y132.266 E45.74555
G1 X100.885 Y131.958 E45.7696
G1 X82.511 Y117.084 E46.79578
G1 X82.053 Y116.813 E46.81887
G1 X81.734 Y116.688 E46.83371
G1 X81.399 Y116.617 E46.8486
G1 X80.834 Y116.565 E46.87321
G1 X80.251 Y116.469 E46.89886
G1 X79.727 Y116.335 E46.92235
G1 X79.313 Y116.197 E46.9413
G1 X78.852 Y116.005 E46.96296
G1 X78.456 Y115.804 E46.98224
G1 X77.941 Y115.492 E47.00839
G1 X77.58 Y115.233 E47.02766
G1 X77.276 Y114.983 E47.04475
G1 X76.91 Y114.637 E47.06663
G1 X76.595 Y114.293 E47.08688
G1 X76.308 Y113.931 E47.1069
G1 X75.864 Y113.245 E47.14238
G1 X75.647 Y112.828 E47.16281
G1 X75.456 Y112.381 E47.18389
G1 X75.303 Y111.941 E47.20411
G1 X75.181 Y111.484 E47.22464
G1 X75.046 Y110.662 E47.26082
G1 X75.015 Y110.192 E47.28126
G1 X75.019 Y109.697 E47.30272
G1 X75.06 Y109.205 E47.32418
G1 X75.138 Y108.716 E47.34568
G1 X75.248 Y108.248 E47.36652
G1 X75.386 Y107.805 E47.38668
G1 X75.566 Y107.349 E47.40796
G1 X75.806 Y106.856 E47.43176
G1 X76.031 Y106.472 E47.45109
G1 X76.308 Y106.066 E47.47243
G1 X76.623 Y105.673 E47.49426
G1 X76.953 Y105.319 E47.51529
G1 X77.35 Y104.954 E47.53872
G1 X77.728 Y104.664 E47.5594
G1 X77.976 Y105.04 F18000
G1 F3000
G1 X78.566 Y104.651 E47.59004
G1 X79.257 Y104.31 E47.62353
G1 X79.979 Y104.062 E47.65664
G1 X80.673 Y103.911 E47.68749
G1 X81.401 Y103.842 E47.71924
G1 X82 Y103.864 E47.74523
G1 X82.089 Y103.834 E47.74933
G1 X101.231 Y88.339 E48.81836
G1 X101.664 Y88.077 E48.84036
G1 X101.921 Y87.968 E48.85244
G1 X102.674 Y87.832 E48.8857
G1 X142.589 Y87.832 E50.61834
G1 X143.021 Y87.885 E50.63724
G1 X143.422 Y88.01 E50.65546
G1 X143.9 Y88.278 E50.67924
G1 X144.186 Y88.526 E50.69567
G1 X144.436 Y88.847 E50.71333
G1 X144.604 Y89.166 E50.72896
G1 X144.701 Y89.466 E50.74265
G1 X144.793 Y90.045 E50.76812
G1 X144.793 Y129.964 E52.50095
G1 X144.74 Y130.396 E52.51985
G1 X144.615 Y130.797 E52.53807
G1 X144.347 Y131.275 E52.56186
G1 X144.099 Y131.561 E52.57829
G1 X143.778 Y131.811 E52.59595
G1 X143.459 Y131.979 E52.61157
G1 X143.159 Y132.076 E52.62527
G1 X142.58 Y132.168 E52.65073
G1 X102.663 Y132.168 E54.38348
G1 X102.1 Y132.085 E54.40818
G1 X101.684 Y131.932 E54.42743
G1 X101.231 Y131.661 E54.45036
G1 X82.097 Y116.171 E55.51898
G1 X82.003 Y116.142 E55.52325
G1 X81.69 Y116.163 E55.53685
G1 X81.138 Y116.145 E55.56083
G1 X80.53 Y116.067 E55.58745
G1 X79.881 Y115.911 E55.6164
G1 X79.197 Y115.664 E55.64799
G1 X78.511 Y115.318 E55.68132
G1 X77.874 Y114.889 E55.71466
G1 X77.189 Y114.278 E55.75451
G1 X76.823 Y113.864 E55.77849
G1 X76.526 Y113.466 E55.80006
G1 X75.93 Y112.354 E55.85483
G1 X75.71 Y111.734 E55.88336
G1 X75.572 Y111.169 E55.90864
G1 X75.49 Y110.583 E55.93431
G1 X75.462 Y109.968 E55.96102
G1 X75.498 Y109.332 E55.98868
G1 X75.609 Y108.661 E56.01822
G1 X75.751 Y108.129 E56.04212
G1 X75.949 Y107.593 E56.06693
G1 X76.197 Y107.077 E56.09178
G1 X76.513 Y106.554 E56.11828
G1 X76.84 Y106.113 E56.14213
G1 X77.223 Y105.684 E56.16706
G1 X77.921 Y105.076 E56.20729
G1 X77.943 Y105.062 E56.20839
G1 X78.189 Y105.436 F18000
G1 F3000
G1 X78.819 Y105.021 E56.24114
G1 X79.398 Y104.736 E56.26916
G1 X80.066 Y104.502 E56.29988
G1 X80.776 Y104.348 E56.33141
G1 X81.45 Y104.287 E56.36076
G1 X82.148 Y104.32 E56.39111
G1 X82.239 Y104.29 E56.39526
G1 X101.52 Y88.682 E57.4721
G1 X101.898 Y88.459 E57.49115
G1 X102.098 Y88.38 E57.50048
G1 X102.662 Y88.28 E57.52536
G1 X142.597 Y88.28 E59.25888
G1 X142.893 Y88.315 E59.27179
G1 X143.201 Y88.401 E59.28569
G1 X143.608 Y88.617 E59.30569
