; HEADER_BLOCK_START
; generated by AnycubicSlicerNext 1.3.4.0 on 2025-05-21 at 20:38:18
; total layer number: 140
; filament_density: 1.24
; filament_diameter: 1.75
; max_z_height: 28.04
; exclude_object: 0
; model_instances: 3
; HEADER_BLOCK_END

; THUMBNAIL_BLOCK_START
; THUMBNAIL_BLOCK_END

; external perimeters extrusion width = 0.42mm
; perimeters extrusion width = 0.45mm
; infill extrusion width = 0.45mm
; solid infill extrusion width = 0.42mm
; top infill extrusion width = 0.42mm
; support material extrusion width = 0.40mm
; first layer extrusion width = 0.50mm

; external perimeters extrusion width = 0.42mm
; perimeters extrusion width = 0.45mm
; infill extrusion width = 0.45mm
; solid infill extrusion width = 0.42mm
; top infill extrusion width = 0.42mm
; support material extrusion width = 0.40mm
; first layer extrusion width = 0.50mm

; external perimeters extrusion width = 0.42mm
; perimeters extrusion width = 0.45mm
; infill extrusion width = 0.45mm
; solid infill extrusion width = 0.42mm
; top infill extrusion width = 0.42mm
; support material extrusion width = 0.40mm
; first layer extrusion width = 0.50mm

; EXECUTABLE_BLOCK_START
M201 X2000 Y2000 Z800 E2000
M203 X300 Y300 Z8 E100
M204 P2000 R2000 T2000
M205 X10.00 Y10.00 Z2.00 E5.00 ; sets the jerk limits, mm/sec
;TYPE:Custom
G90 ; use absolute coordinates
M83 ; extruder relative mode
M104 S220 ; set extruder temp
M140 S60 ; set bed temp
M190 S60 ; wait for bed temp
M109 S220 ; wait for extruder temp
G28                                        ; move X/Y/Z to min endstops
G1 Z0.28                                   ; lift nozzle a bit 
G92 E0 
G1 Y3 F1800                                    ; zero the extruded length 
G1 X60  E25 F500                       ; Extrude 25mm of filament in a 5cm line. 
G92 E0                                     ; zero the extruded length again 
G1 E-2 F500                                ; Retract a little 
G1 X70 F4000                              ; Quickly wipe away from the filament line
M117
G90
G21
M83 ; use relative distances for extrusion
; filament start gcode
M106 S0
;LAYER_CHANGE
;Z:0.24
;HEIGHT:0.24
; BEFORE_LAYER_CHANGE 0 @ 0.24mm
G92 E0
G1 E-2.5 F6000
; AFTER_LAYER_CHANGE 0 @ 0.24mm
M204 P500
; printing object "SERVO_CAPS_A.stl" id:0 copy 0
M204 T500
G1 X122.925 Y112.799 F18000
G1 Z.24
G1 E2.5 F6000
;TYPE:Outer wall
;WIDTH:0.5
;MM3_PER_MM:0.107639
G1 F1500
G1 X123.155 Y112.799 E.01
G1 X123.482 Y111.826 E.04454
G1 X123.688 Y111.278 E.02546
G1 X124.237 Y110.013 E.05984
G1 X124.775 Y108.965 E.05114
G1 X125.482 Y107.784 E.05975
G1 X126.152 Y106.814 E.05118
G1 X126.753 Y106.038 E.04259
G1 X127.526 Y105.147 E.05119
G1 X128.494 Y104.167 E.05979
G1 X129.224 Y103.511 E.04261
G1 X129.987 Y102.892 E.04268
G1 X130.618 Y102.425 E.03405
G1 X131.434 Y101.877 E.04268
G1 X132.276 Y101.37 E.04265
G1 X133.141 Y100.906 E.04262
G1 X134.206 Y100.409 E.05099
G1 X135.117 Y100.043 E.04263
G1 X136.052 Y99.72 E.04294
G1 X136.803 Y99.498 E.03402
G1 X137.952 Y99.22 E.0513
G1 X138.722 Y99.074 E.034
G1 X139.886 Y98.913 E.05102
G1 X140.871 Y98.832 E.04291
G1 X141.655 Y98.802 E.03406
G1 X142.639 Y98.81 E.04271
G1 X143.422 Y98.851 E.03403
G1 X144.591 Y98.971 E.05102
G1 X145.567 Y99.125 E.04291
G1 X146.336 Y99.283 E.03406
G1 X147.289 Y99.523 E.04265
G1 X148.416 Y99.875 E.05125
G1 X149.336 Y100.218 E.04263
G1 X150.233 Y100.605 E.0424
G1 X151.115 Y101.038 E.04265
G1 X151.974 Y101.515 E.04268
G1 X152.648 Y101.929 E.03432
G1 X153.461 Y102.482 E.04271
G1 X154.089 Y102.952 E.03403
G1 X155 Y103.706 E.0513
G1 X155.577 Y104.235 E.034
G1 X156.407 Y105.075 E.05127
G1 X157.057 Y105.81 E.04259
G1 X157.79 Y106.736 E.05125
G1 X158.355 Y107.538 E.04262
G1 X158.881 Y108.368 E.04265
G1 X159.364 Y109.223 E.04263
G1 X159.887 Y110.281 E.0512
G1 X160.346 Y111.366 E.05116
G1 X160.846 Y112.799 E.06588
G1 X160.975 Y112.799 E.00558
G1 X160.975 Y113.271 E.02048
G1 X161.158 Y113.993 E.03234
G1 X161.321 Y114.762 E.03413
G1 X161.454 Y115.537 E.03413
G1 X161.556 Y116.315 E.03406
G1 X161.65 Y117.494 E.05133
G1 X161.671 Y118.079 E.02543
G1 X161.659 Y119.261 E.05129
G1 X161.595 Y120.24 E.04259
G1 X161.454 Y121.411 E.05122
G1 X161.243 Y122.571 E.05118
G1 X160.975 Y123.679 E.04945
G1 X160.975 Y124.149 E.02043
G1 X160.846 Y124.149 E.00558
G1 X160.346 Y125.582 E.06586
G1 X159.805 Y126.846 E.05971
G1 X159.176 Y128.07 E.05973
G1 X158.57 Y129.082 E.05118
G1 X158.017 Y129.899 E.04285
G1 X157.308 Y130.834 E.05095
G1 X156.538 Y131.73 E.05126
G1 X156.137 Y132.158 E.02546
G1 X155.435 Y132.848 E.04273
G1 X154.851 Y133.372 E.03404
G1 X153.939 Y134.112 E.05102
G1 X153.138 Y134.692 E.04291
G1 X152.483 Y135.123 E.03403
G1 X151.471 Y135.719 E.05102
G1 X150.593 Y136.173 E.04289
G1 X149.704 Y136.578 E.0424
G1 X148.791 Y136.94 E.04265
G1 X147.86 Y137.256 E.04265
G1 X146.909 Y137.527 E.04294
G1 X146.146 Y137.707 E.03405
G1 X145.179 Y137.89 E.04269
G1 X144.211 Y138.024 E.04243
G1 X143.424 Y138.097 E.03431
G1 X142.443 Y138.144 E.04264
G1 X141.268 Y138.135 E.051
G1 X140.281 Y138.074 E.04291
G1 X139.501 Y137.99 E.03406
G1 X138.53 Y137.841 E.04268
G1 X137.567 Y137.643 E.04265
G1 X136.616 Y137.398 E.04265
G1 X135.677 Y137.106 E.04266
G1 X134.76 Y136.769 E.0424
G1 X133.85 Y136.382 E.04294
G1 X133.143 Y136.043 E.03405
G1 X132.276 Y135.578 E.04269
G1 X131.433 Y135.071 E.04269
G1 X130.781 Y134.637 E.03403
G1 X129.831 Y133.934 E.05128
G1 X129.079 Y133.312 E.04239
G1 X128.493 Y132.781 E.03431
G1 X127.795 Y132.087 E.04273
G1 X127.394 Y131.657 E.0255
G1 X126.754 Y130.911 E.0427
G1 X126.149 Y130.13 E.04288
G1 X125.482 Y129.164 E.05093
G1 X124.775 Y127.983 E.05976
G1 X124.235 Y126.93 E.0514
G1 X123.688 Y125.671 E.05957
G1 X123.48 Y125.116 E.02572
G1 X123.155 Y124.149 E.04428
G1 X122.925 Y124.149 E.01
G1 X122.925 Y123.3 E.03685
G1 X122.66 Y122.089 E.05381
G1 X122.478 Y120.923 E.05126
G1 X122.414 Y120.341 E.02541
G1 X122.331 Y118.965 E.05983
G1 X122.337 Y117.786 E.05116
G1 X122.413 Y116.61 E.05118
G1 X122.56 Y115.44 E.05118
G1 X122.777 Y114.279 E.05126
G1 X122.925 Y113.65 E.02806
G1 X122.925 Y112.859 E.03433
G1 X123.373 Y113.248 F18000
;TYPE:Inner wall
G1 F1500
G1 X123.478 Y113.248 E.00453
G1 X123.904 Y111.977 E.05819
G1 X124.104 Y111.446 E.02462
G1 X124.643 Y110.205 E.05872
G1 X125.168 Y109.183 E.04988
G1 X125.86 Y108.027 E.05849
G1 X126.514 Y107.079 E.05002
G1 X127.1 Y106.323 E.04152
G1 X127.855 Y105.452 E.05002
G1 X128.803 Y104.492 E.05857
G1 X129.515 Y103.853 E.04154
G1 X130.262 Y103.247 E.04175
G1 X130.877 Y102.792 E.03318
G1 X131.675 Y102.255 E.04176
G1 X132.498 Y101.76 E.04168
G1 X133.342 Y101.307 E.0416
G1 X134.384 Y100.82 E.04993
G1 X135.274 Y100.463 E.04161
G1 X136.188 Y100.147 E.04201
G1 X136.92 Y99.931 E.0331
G1 X138.047 Y99.659 E.05033
G1 X138.794 Y99.517 E.03303
G1 X139.935 Y99.359 E.05
G1 X140.898 Y99.279 E.04194
G1 X141.662 Y99.251 E.03318
G1 X142.626 Y99.258 E.04184
G1 X143.387 Y99.298 E.03311
G1 X144.533 Y99.416 E.05
G1 X145.487 Y99.567 E.04194
G1 X146.236 Y99.72 E.03318
G1 X147.167 Y99.955 E.04168
G1 X148.271 Y100.299 E.05018
G1 X149.169 Y100.634 E.04161
G1 X150.045 Y101.012 E.04143
G1 X150.907 Y101.436 E.04168
G1 X151.748 Y101.902 E.04175
G1 X152.404 Y102.306 E.03344
G1 X153.201 Y102.848 E.04184
G1 X153.812 Y103.304 E.0331
G1 X154.705 Y104.044 E.05033
G1 X155.266 Y104.558 E.03303
G1 X156.079 Y105.382 E.05025
G1 X156.713 Y106.098 E.04152
G1 X157.43 Y107.005 E.05018
G1 X157.982 Y107.788 E.04159
G1 X158.496 Y108.599 E.04168
G1 X158.968 Y109.433 E.04161
G1 X159.479 Y110.467 E.05008
G1 X159.927 Y111.528 E.04996
G1 X160.526 Y113.244 E.0789
G1 X160.526 Y113.327 E.00361
G1 X160.721 Y114.095 E.0344
G1 X160.881 Y114.847 E.03337
G1 X161.011 Y115.604 E.03335
G1 X161.11 Y116.362 E.03318
G1 X161.202 Y117.519 E.0504
G1 X161.222 Y118.085 E.02456
G1 X161.211 Y119.244 E.05032
G1 X161.149 Y120.198 E.04152
G1 X161.01 Y121.344 E.0501
G1 X160.804 Y122.478 E.05003
G1 X160.526 Y123.625 E.05121
G1 X160.526 Y123.705 E.00346
G1 X159.928 Y125.419 E.07883
G1 X159.398 Y126.655 E.05836
G1 X158.784 Y127.852 E.05842
G1 X158.192 Y128.841 E.05001
G1 X157.653 Y129.638 E.04178
G1 X156.958 Y130.552 E.04984
G1 X156.205 Y131.431 E.05024
G1 X155.816 Y131.844 E.02463
G1 X155.128 Y132.521 E.0419
G1 X154.56 Y133.031 E.03311
G1 X153.666 Y133.757 E.05
G1 X152.883 Y134.323 E.04194
G1 X152.246 Y134.742 E.0331
G1 X151.254 Y135.327 E.05
G1 X150.397 Y135.77 E.04187
G1 X149.529 Y136.165 E.04142
G1 X148.636 Y136.519 E.04168
G1 X147.727 Y136.828 E.04168
G1 X146.796 Y137.093 E.04201
G1 X146.052 Y137.269 E.03317
G1 X145.107 Y137.448 E.04177
G1 X144.16 Y137.579 E.04151
G1 X143.393 Y137.65 E.03344
G1 X142.434 Y137.695 E.04167
G1 X141.284 Y137.687 E.04993
G1 X140.319 Y137.627 E.04194
G1 X139.56 Y137.545 E.03318
G1 X138.609 Y137.399 E.04175
G1 X137.668 Y137.206 E.04168
G1 X136.738 Y136.966 E.04168
G1 X135.821 Y136.681 E.04169
G1 X134.926 Y136.352 E.04143
G1 X134.035 Y135.973 E.04201
G1 X133.346 Y135.643 E.03317
G1 X132.498 Y135.188 E.04177
G1 X131.673 Y134.692 E.04176
G1 X131.038 Y134.27 E.0331
G1 X130.108 Y133.581 E.05026
G1 X129.373 Y132.973 E.04142
G1 X128.802 Y132.455 E.03344
G1 X128.117 Y131.775 E.04191
G1 X127.729 Y131.358 E.02472
G1 X127.102 Y130.627 E.04182
G1 X126.511 Y129.865 E.04185
G1 X125.86 Y128.921 E.04976
G1 X125.168 Y127.765 E.05849
G1 X124.64 Y126.738 E.05013
G1 X124.104 Y125.503 E.05845
G1 X123.902 Y124.966 E.02489
G1 X123.478 Y123.701 E.05793
G1 X123.373 Y123.701 E.00454
G1 X123.373 Y123.252 E.01949
G1 X123.101 Y122.007 E.05532
G1 X122.922 Y120.863 E.05023
G1 X122.861 Y120.303 E.02448
G1 X122.78 Y118.953 E.05871
G1 X122.785 Y117.802 E.04995
G1 X122.86 Y116.652 E.05001
G1 X123.004 Y115.509 E.05002
G1 X123.216 Y114.372 E.05023
G1 X123.373 Y113.702 E.02987
G1 X123.373 Y113.308 E.01711
G1 E-1.75 F6000
;WIPE_START
G1 F1500
G1 X123.478 Y113.248 E-.09033
G1 X123.758 Y112.414 E-.65967
;WIPE_END
G1 X129.17 Y128.431 F18000
G1 E2.5 F6000
;TYPE:Outer wall
G1 F1500
G1 X129.008 Y128.615 E.01066
G1 X128.868 Y128.825 E.01094
G1 X128.757 Y129.051 E.01094
G1 X128.676 Y129.289 E.01094
G1 X128.627 Y129.536 E.01094
G1 X128.61 Y129.788 E.01094
G1 X128.627 Y130.039 E.01094
G1 X128.676 Y130.286 E.01094
G1 X128.757 Y130.525 E.01094
G1 X128.869 Y130.752 E.01097
G1 X129.013 Y130.965 E.01119
G1 X129.174 Y131.15 E.01065
G1 X129.364 Y131.316 E.01094
G1 X129.573 Y131.456 E.01094
G1 X129.793 Y131.564 E.01064
G1 X130.037 Y131.648 E.01119
G1 X130.285 Y131.697 E.01097
G1 X130.536 Y131.714 E.01094
G1 X130.787 Y131.697 E.01094
G1 X131.035 Y131.648 E.01094
G1 X131.273 Y131.567 E.01094
G1 X131.499 Y131.456 E.01094
G1 X131.708 Y131.316 E.01094
G1 X131.893 Y131.154 E.01065
G1 X132.064 Y130.961 E.01119
G1 X132.204 Y130.751 E.01097
G1 X132.315 Y130.525 E.01094
G1 X132.396 Y130.286 E.01094
G1 X132.445 Y130.039 E.01094
G1 X132.462 Y129.788 E.01094
G1 X132.445 Y129.536 E.01094
G1 X132.396 Y129.289 E.01094
G1 X132.315 Y129.051 E.01094
G1 X132.204 Y128.825 E.01094
G1 X132.064 Y128.615 E.01094
G1 X131.898 Y128.426 E.01094
G1 X131.708 Y128.26 E.01094
G1 X131.499 Y128.12 E.01094
G1 X131.279 Y128.011 E.01064
G1 X131.035 Y127.928 E.01119
G1 X130.787 Y127.878 E.01097
G1 X130.536 Y127.862 E.01094
G1 X130.291 Y127.878 E.01064
G1 X130.038 Y127.927 E.01119
G1 X129.799 Y128.009 E.01097
G1 X129.573 Y128.12 E.01094
G1 X129.364 Y128.26 E.01094
G1 X129.215 Y128.391 E.0086
G1 X128.839 Y128.128 F18000
;TYPE:Inner wall
G1 F1500
G1 X128.652 Y128.342 E.01236
G1 X128.479 Y128.6 E.01349
G1 X128.341 Y128.879 E.01349
G1 X128.242 Y129.173 E.01349
G1 X128.181 Y129.478 E.01349
G1 X128.161 Y129.788 E.01349
G1 X128.181 Y130.098 E.01349
G1 X128.242 Y130.403 E.01349
G1 X128.341 Y130.697 E.01349
G1 X128.48 Y130.977 E.01356
G1 X128.657 Y131.24 E.01374
G1 X128.856 Y131.467 E.01316
G1 X129.09 Y131.672 E.01349
G1 X129.348 Y131.845 E.01349
G1 X129.62 Y131.979 E.01316
G1 X129.92 Y132.082 E.01374
G1 X130.226 Y132.143 E.01356
G1 X130.536 Y132.163 E.01349
G1 X130.846 Y132.143 E.01349
G1 X131.151 Y132.082 E.01349
G1 X131.445 Y131.982 E.01349
G1 X131.724 Y131.845 E.01349
G1 X131.982 Y131.672 E.01349
G1 X132.21 Y131.472 E.01316
G1 X132.42 Y131.235 E.01374
G1 X132.593 Y130.976 E.01356
G1 X132.731 Y130.697 E.01349
G1 X132.83 Y130.403 E.01349
G1 X132.891 Y130.098 E.01349
G1 X132.911 Y129.788 E.01349
G1 X132.891 Y129.478 E.01349
G1 X132.83 Y129.173 E.01349
G1 X132.731 Y128.879 E.01349
G1 X132.593 Y128.6 E.01349
G1 X132.421 Y128.342 E.01349
G1 X132.216 Y128.108 E.01349
G1 X131.982 Y127.903 E.01349
G1 X131.724 Y127.731 E.01349
G1 X131.452 Y127.597 E.01316
G1 X131.152 Y127.494 E.01374
G1 X130.846 Y127.433 E.01356
G1 X130.536 Y127.412 E.01349
G1 X130.234 Y127.432 E.01316
G1 X129.923 Y127.493 E.01374
G1 X129.627 Y127.593 E.01356
G1 X129.348 Y127.731 E.01349
G1 X129.09 Y127.903 E.01349
G1 X128.882 Y128.086 E.01202
G1 E-1.75 F6000
;WIPE_START
G1 F1500
G1 X128.652 Y128.342 E-.25827
G1 X128.479 Y128.6 E-.23304
G1 X128.341 Y128.879 E-.23303
G1 X128.33 Y128.911 E-.02566
;WIPE_END
G1 X153.934 Y128.025 F18000
G1 E2.5 F6000
;TYPE:Outer wall
G1 F1500
G1 X153.906 Y128.011 E.00133
G1 X153.663 Y127.928 E.01119
G1 X153.415 Y127.878 E.01097
G1 X153.163 Y127.862 E.01094
G1 X152.919 Y127.878 E.01064
G1 X152.666 Y127.927 E.01119
G1 X152.426 Y128.009 E.01097
G1 X152.201 Y128.12 E.01094
G1 X151.991 Y128.26 E.01094
G1 X151.802 Y128.426 E.01094
G1 X151.636 Y128.615 E.01094
G1 X151.496 Y128.825 E.01094
G1 X151.384 Y129.051 E.01094
G1 X151.303 Y129.29 E.01097
G1 X151.254 Y129.543 E.01119
G1 X151.238 Y129.788 E.01064
G1 X151.254 Y130.039 E.01094
G1 X151.303 Y130.286 E.01094
G1 X151.384 Y130.525 E.01094
G1 X151.496 Y130.751 E.01094
G1 X151.636 Y130.96 E.01094
G1 X151.802 Y131.15 E.01094
G1 X151.991 Y131.316 E.01094
G1 X152.201 Y131.456 E.01094
G1 X152.42 Y131.564 E.01064
G1 X152.664 Y131.648 E.01119
G1 X152.912 Y131.697 E.01097
G1 X153.163 Y131.714 E.01094
G1 X153.415 Y131.697 E.01094
G1 X153.662 Y131.648 E.01094
G1 X153.9 Y131.567 E.01094
G1 X154.126 Y131.456 E.01094
G1 X154.336 Y131.316 E.01094
G1 X154.52 Y131.154 E.01064
G1 X154.691 Y130.961 E.01119
G1 X154.831 Y130.751 E.01097
G1 X154.943 Y130.525 E.01094
G1 X155.024 Y130.286 E.01094
G1 X155.073 Y130.039 E.01094
G1 X155.089 Y129.788 E.01094
G1 X155.073 Y129.536 E.01094
G1 X155.024 Y129.289 E.01094
G1 X154.943 Y129.051 E.01094
G1 X154.831 Y128.825 E.01094
G1 X154.691 Y128.615 E.01094
G1 X154.525 Y128.426 E.01094
G1 X154.336 Y128.26 E.01094
G1 X154.126 Y128.12 E.01094
G1 X153.988 Y128.052 E.00672
G1 X154.055 Y127.588 F18000
;TYPE:Inner wall
G1 F1500
G1 X153.78 Y127.494 E.01264
G1 X153.474 Y127.433 E.01356
G1 X153.163 Y127.412 E.01349
G1 X152.861 Y127.432 E.01316
G1 X152.55 Y127.493 E.01374
G1 X152.254 Y127.593 E.01356
G1 X151.976 Y127.731 E.01349
G1 X151.717 Y127.903 E.01349
G1 X151.484 Y128.108 E.01349
G1 X151.279 Y128.342 E.01349
G1 X151.106 Y128.6 E.01349
G1 X150.969 Y128.879 E.01349
G1 X150.868 Y129.175 E.01356
G1 X150.808 Y129.485 E.01374
G1 X150.788 Y129.788 E.01316
G1 X150.808 Y130.098 E.01349
G1 X150.869 Y130.403 E.01349
G1 X150.969 Y130.697 E.01349
G1 X151.106 Y130.976 E.01349
G1 X151.279 Y131.234 E.01349
G1 X151.484 Y131.467 E.01349
G1 X151.717 Y131.672 E.01349
G1 X151.976 Y131.845 E.01349
G1 X152.248 Y131.979 E.01316
G1 X152.547 Y132.082 E.01374
G1 X152.853 Y132.143 E.01356
G1 X153.163 Y132.163 E.01349
G1 X153.474 Y132.143 E.01349
G1 X153.778 Y132.082 E.01349
G1 X154.072 Y131.982 E.01349
G1 X154.351 Y131.845 E.01349
G1 X154.609 Y131.672 E.01349
G1 X154.837 Y131.472 E.01316
G1 X155.047 Y131.235 E.01374
G1 X155.221 Y130.976 E.01356
G1 X155.358 Y130.697 E.01349
G1 X155.458 Y130.403 E.01349
G1 X155.519 Y130.098 E.01349
G1 X155.539 Y129.788 E.01349
G1 X155.519 Y129.478 E.01349
G1 X155.458 Y129.173 E.01349
G1 X155.358 Y128.879 E.01349
G1 X155.221 Y128.6 E.01349
G1 X155.048 Y128.342 E.01349
G1 X154.843 Y128.108 E.01349
G1 X154.609 Y127.903 E.01349
G1 X154.351 Y127.731 E.01349
G1 X154.11 Y127.612 E.01166
G1 E-1.75 F6000
;WIPE_START
G1 F1500
G1 X153.78 Y127.494 E-.26316
G1 X153.474 Y127.433 E-.23428
G1 X153.163 Y127.412 E-.23303
G1 X153.137 Y127.414 E-.01953
;WIPE_END
G1 X152.432 Y105.379 F18000
G1 E2.5 F6000
;TYPE:Outer wall
G1 F1500
G1 X152.426 Y105.381 E.00027
