; HEADER_BLOCK_START
; generated by AnycubicSlicerNext 1.3.3.1 on 2025-03-02 at 21:18:09
; total layer number: 35
; filament_density: 1.24
; filament_diameter: 1.75
; max_z_height: 7.04
; exclude_object: 0
; model_instances: 1
; HEADER_BLOCK_END

; THUMBNAIL_BLOCK_START
; THUMBNAIL_BLOCK_END

; external perimeters extrusion width = 0.42mm
; perimeters extrusion width = 0.45mm
; infill extrusion width = 0.45mm
; solid infill extrusion width = 0.42mm
; top infill extrusion width = 0.42mm
; support material extrusion width = 0.40mm
; first layer extrusion width = 0.50mm

; EXECUTABLE_BLOCK_START
M201 X2000 Y2000 Z800 E2000
M203 X300 Y300 Z8 E100
M204 P2000 R2000 T2000
M205 X10.00 Y10.00 Z2.00 E5.00 ; sets the jerk limits, mm/sec
;TYPE:Custom
G90 ; use absolute coordinates
M83 ; extruder relative mode
M104 S220 ; set extruder temp
M140 S60 ; set bed temp
M190 S60 ; wait for bed temp
M109 S220 ; wait for extruder temp
G28                                        ; move X/Y/Z to min endstops
G1 Z0.28                                   ; lift nozzle a bit 
G92 E0 
G1 Y3 F1800                                    ; zero the extruded length 
G1 X60  E25 F500                       ; Extrude 25mm of filament in a 5cm line. 
G92 E0                                     ; zero the extruded length again 
G1 E-2 F500                                ; Retract a little 
G1 X70 F4000                              ; Quickly wipe away from the filament line
M117
G90
G21
M83 ; use relative distances for extrusion
; filament start gcode
M106 S0
;LAYER_CHANGE
;Z:0.24
;HEIGHT:0.24
; BEFORE_LAYER_CHANGE 0 @ 0.24mm
G92 E0
G1 E-2.5 F6000
; AFTER_LAYER_CHANGE 0 @ 0.24mm
M204 P500
; printing object "Cyclo2Disk.stl" id:2542780686592 copy 0
M204 T500
G1 X92.097 Y87.442 F18000
G1 Z.24
G1 E2.5 F6000
;TYPE:Brim
;WIDTH:0.5
;MM3_PER_MM:0.107639
G1 F3000
G1 X92.816 Y86.807 E.04163
G1 X93.325 Y86.432 E.02746
G1 X93.859 Y86.094 E.02742
G1 X94.689 Y85.663 E.04061
G1 X95.257 Y85.428 E.02669
G1 X96.127 Y85.152 E.03961
G1 X96.973 Y84.974 E.03752
G1 X97.572 Y84.899 E.02621
G1 X97.706 Y84.832 E.00649
G1 X97.996 Y84.531 E.01818
G1 X98.412 Y84.146 E.02458
G1 X98.867 Y83.778 E.0254
G1 X99.359 Y83.431 E.02611
G1 X99.883 Y83.112 E.02665
G1 X100.435 Y82.826 E.02698
G1 X101.324 Y82.461 E.04172
G1 X101.928 Y82.273 E.02746
G1 X102.544 Y82.127 E.02748
G1 X103.165 Y82.025 E.02731
G1 X103.784 Y81.967 E.02699
G1 X104.395 Y81.952 E.02653
G1 X104.991 Y81.978 E.02589
G1 X105.85 Y82.086 E.03757
G1 X106.423 Y82.207 E.02544
G1 X106.568 Y82.189 E.00634
G1 X107.219 Y81.87 E.03146
G1 X107.755 Y81.656 E.02505
G1 X108.322 Y81.472 E.02588
G1 X108.913 Y81.322 E.02649
G1 X109.524 Y81.212 E.02695
G1 X110.147 Y81.144 E.02719
G1 X111.116 Y81.124 E.04206
G1 X111.726 Y81.165 E.02656
G1 X112.347 Y81.249 E.02719
G1 X112.961 Y81.376 E.0272
G1 X113.556 Y81.542 E.02683
G1 X114.127 Y81.745 E.02633
G1 X114.67 Y81.98 E.02567
G1 X115.179 Y82.242 E.02486
G1 X115.669 Y82.534 E.02474
G1 X115.811 Y82.565 E.00633
G1 X116.549 Y82.473 E.03225
G1 X117.126 Y82.446 E.02508
G1 X117.722 Y82.457 E.0259
G1 X118.33 Y82.509 E.0265
G1 X118.944 Y82.605 E.02696
G1 X119.557 Y82.744 E.0273
G1 X120.163 Y82.928 E.02748
G1 X120.754 Y83.152 E.02745
G1 X121.602 Y83.562 E.04088
G1 X122.138 Y83.882 E.02711
G1 X122.646 Y84.234 E.02681
G1 X123.12 Y84.612 E.02631
G1 X123.555 Y85.011 E.02565
G1 X123.951 Y85.424 E.02483
G1 X124.307 Y85.846 E.02396
G1 X124.432 Y85.921 E.00633
G1 X125.176 Y86.079 E.03304
G1 X125.729 Y86.241 E.02501
G1 X126.567 Y86.564 E.03896
G1 X127.117 Y86.831 E.02653
G1 X127.935 Y87.32 E.04138
G1 X128.446 Y87.69 E.02739
G1 X128.931 Y88.096 E.02746
G1 X129.597 Y88.759 E.04078
G1 X130.193 Y89.491 E.04098
G1 X130.689 Y90.247 E.03927
G1 X131.096 Y91.029 E.03827
G1 X131.402 Y91.786 E.03546
G1 X131.495 Y91.895 E.00618
G1 X132.162 Y92.295 E.03378
G1 X132.864 Y92.811 E.03783
G1 X133.546 Y93.428 E.0399
G1 X133.968 Y93.88 E.02683
G1 X134.546 Y94.618 E.04073
G1 X134.891 Y95.148 E.02743
G1 X135.199 Y95.701 E.02746
G1 X135.589 Y96.576 E.0416
G1 X135.79 Y97.159 E.02677
G1 X136.012 Y98.037 E.03932
G1 X136.142 Y98.908 E.03824
G1 X136.184 Y99.705 E.03463
G1 X136.238 Y99.84 E.00633
G1 X136.572 Y100.224 E.02208
G1 X136.918 Y100.677 E.02472
G1 X137.244 Y101.166 E.02553
G1 X137.544 Y101.69 E.0262
G1 X137.814 Y102.243 E.02672
G1 X138.048 Y102.823 E.02713
G1 X138.243 Y103.422 E.02738
G1 X138.396 Y104.038 E.02753
G1 X138.507 Y104.662 E.02752
G1 X138.573 Y105.29 E.02741
G1 X138.595 Y105.915 E.02716
G1 X138.574 Y106.532 E.02677
G1 X138.512 Y107.134 E.02625
G1 X138.413 Y107.714 E.02558
G1 X138.281 Y108.269 E.02475
G1 X138.136 Y108.744 E.02155
G1 X138.141 Y108.89 E.00633
G1 X138.434 Y109.651 E.03542
G1 X138.667 Y110.492 E.03789
G1 X138.823 Y111.398 E.03989
G1 X138.886 Y112.322 E.04019
G1 X138.851 Y113.282 E.0417
G1 X138.772 Y113.909 E.02744
G1 X138.651 Y114.528 E.02739
G1 X138.392 Y115.425 E.04053
G1 X138.172 Y115.997 E.02659
G1 X137.775 Y116.815 E.03946
G1 X137.482 Y117.309 E.02494
G1 X137.045 Y117.933 E.03309
G1 X137.004 Y118.073 E.00633
G1 X137.032 Y118.618 E.02368
G1 X137.025 Y119.189 E.02477
G1 X136.979 Y119.776 E.02557
G1 X136.892 Y120.374 E.02624
G1 X136.762 Y120.977 E.02675
G1 X136.589 Y121.575 E.02706
G1 X136.241 Y122.473 E.04179
G1 X135.962 Y123.041 E.02745
G1 X135.644 Y123.587 E.02746
G1 X135.291 Y124.106 E.02724
G1 X134.908 Y124.594 E.0269
G1 X134.5 Y125.045 E.02642
G1 X134.073 Y125.459 E.02582
G1 X133.633 Y125.831 E.025
G1 X133.031 Y126.268 E.03229
G1 X132.947 Y126.387 E.00633
G1 X132.791 Y126.929 E.02449
G1 X132.598 Y127.466 E.02478
G1 X132.362 Y128.007 E.02559
G1 X132.084 Y128.544 E.02627
G1 X131.764 Y129.071 E.02676
G1 X131.404 Y129.582 E.02716
G1 X131.005 Y130.072 E.0274
G1 X130.57 Y130.534 E.02753
G1 X130.105 Y130.965 E.02753
G1 X129.613 Y131.36 E.02738
G1 X129.1 Y131.717 E.02715
G1 X128.572 Y132.032 E.02671
G1 X128.033 Y132.306 E.02621
G1 X127.493 Y132.536 E.0255
G1 X126.957 Y132.725 E.02466
G1 X126.533 Y132.845 E.01913
G1 X126.411 Y132.932 E.00651
G1 X126.076 Y133.41 E.02532
G1 X125.717 Y133.855 E.0248
G1 X125.318 Y134.289 E.02563
G1 X124.879 Y134.706 E.02628
G1 X124.405 Y135.1 E.02677
G1 X123.896 Y135.466 E.02718
G1 X123.359 Y135.798 E.02741
G1 X122.8 Y136.092 E.02744
G1 X121.91 Y136.463 E.04185
G1 X121.314 Y136.653 E.02713
G1 X120.713 Y136.799 E.02688
G1 X120.114 Y136.903 E.0264
G1 X119.524 Y136.964 E.02572
G1 X118.782 Y136.983 E.03225
G1 X118.243 Y136.96 E.02341
G1 X118.101 Y137.002 E.00641
G1 X117.618 Y137.353 E.02594
G1 X116.87 Y137.805 E.03794
G1 X116.334 Y138.071 E.02598
G1 X115.768 Y138.305 E.02655
G1 X114.881 Y138.587 E.04043
G1 X114.266 Y138.724 E.02732
G1 X113.64 Y138.82 E.02753
G1 X113.009 Y138.871 E.02744
G1 X112.053 Y138.864 E.04153
G1 X111.437 Y138.806 E.02684
G1 X110.667 Y138.671 E.03394
G1 X110.039 Y138.511 E.02813
G1 X109.499 Y138.331 E.02471
G1 X109.071 Y138.159 E.02003
G1 X108.922 Y138.153 E.00646
G1 X108.333 Y138.332 E.02672
G1 X107.48 Y138.515 E.03788
G1 X106.585 Y138.615 E.03909
G1 X105.971 Y138.631 E.02665
G1 X105.017 Y138.573 E.04149
G1 X104.394 Y138.48 E.02733
G1 X103.477 Y138.261 E.04095
G1 X102.825 Y138.039 E.02988
G1 X102.084 Y137.72 E.03504
G1 X101.278 Y137.276 E.03994
G1 X100.563 Y136.781 E.03773
G1 X100.002 Y136.313 E.03171
G1 X99.867 Y136.261 E.00631
G1 X99.231 Y136.238 E.02759
G1 X98.662 Y136.178 E.02486
G1 X98.078 Y136.077 E.0257
G1 X97.489 Y135.934 E.02633
G1 X96.9 Y135.748 E.02682
G1 X96.319 Y135.519 E.02711
G1 X95.456 Y135.088 E.04188
G1 X95.146 Y134.902 E.01567
G1 X94.465 Y134.436 E.03584
G1 X93.975 Y134.038 E.02739
G1 X93.522 Y133.614 E.02694
G1 X93.106 Y133.168 E.02647
G1 X92.73 Y132.706 E.02585
G1 X92.397 Y132.236 E.02503
G1 X92.028 Y131.624 E.031
G1 X91.913 Y131.53 E.00647
G1 X91.046 Y131.179 E.04058
G1 X90.268 Y130.767 E.03821
G1 X89.499 Y130.253 E.04015
G1 X89.012 Y129.864 E.02706
G1 X88.743 Y129.622 E.01569
G1 X88.165 Y129.034 E.03579
G1 X87.757 Y128.545 E.02765
G1 X87.388 Y128.034 E.02739
G1 X86.902 Y127.218 E.04122
G1 X86.519 Y126.393 E.03948
G1 X86.227 Y125.551 E.03868
G1 X86.087 Y125.005 E.02448
G1 X86.008 Y124.604 E.01772
G1 X85.929 Y124.473 E.00663
G1 X85.628 Y124.228 E.01686
G1 X85.209 Y123.847 E.02461
G1 X84.802 Y123.425 E.02543
G1 X84.415 Y122.965 E.02609
G1 X83.946 Y122.309 E.03498
G1 X83.757 Y122.007 E.01549
G1 X83.451 Y121.451 E.02754
G1 X83.186 Y120.876 E.02749
G1 X82.961 Y120.282 E.02754
G1 X82.779 Y119.677 E.02746
G1 X82.641 Y119.064 E.02725
G1 X82.546 Y118.451 E.02692
G1 X82.494 Y117.845 E.02643
G1 X82.484 Y117.25 E.02581
G1 X82.512 Y116.675 E.02498
G1 X82.594 Y116.002 E.02943
G1 X82.563 Y115.86 E.00631
G1 X82.209 Y115.269 E.02992
G1 X81.926 Y114.7 E.02757
G1 X81.761 Y114.316 E.01815
G1 X81.535 Y113.688 E.02897
G1 X81.368 Y113.09 E.02695
G1 X81.242 Y112.475 E.02724
G1 X81.158 Y111.849 E.02745
G1 X81.119 Y111.217 E.02745
G1 X81.141 Y110.275 E.04092
G1 X81.21 Y109.653 E.02715
G1 X81.321 Y109.044 E.0269
G1 X81.47 Y108.454 E.02642
G1 X81.654 Y107.889 E.02579
G1 X81.868 Y107.355 E.02496
G1 X82.157 Y106.761 E.02869
G1 X82.176 Y106.619 E.0062
G1 X81.994 Y105.704 E.04051
G1 X81.912 Y104.817 E.03866
G1 X81.921 Y103.908 E.03943
G1 X82.028 Y102.965 E.0412
G1 X82.153 Y102.347 E.02736
G1 X82.322 Y101.736 E.02755
G1 X82.533 Y101.139 E.02749
G1 X82.784 Y100.561 E.02732
G1 X83.07 Y100.01 E.02694
G1 X83.556 Y99.242 E.03949
G1 X84.103 Y98.544 E.03848
G1 X84.747 Y97.877 E.04023
G1 X84.808 Y97.748 E.00619
G1 X84.888 Y97.083 E.02911
G1 X84.998 Y96.518 E.02499
G1 X85.15 Y95.943 E.02581
G1 X85.345 Y95.366 E.02643
G1 X85.582 Y94.793 E.02691
G1 X85.862 Y94.233 E.02718
G1 X86.355 Y93.429 E.04091
G1 X86.731 Y92.921 E.02745
G1 X87.141 Y92.44 E.02746
G1 X87.581 Y91.992 E.02722
G1 X88.044 Y91.582 E.02686
G1 X88.525 Y91.211 E.02638
G1 X89.018 Y90.881 E.02575
G1 X89.515 Y90.593 E.02492
G1 X90.075 Y90.319 E.02708
G1 X90.178 Y90.216 E.00634
G1 X90.478 Y89.598 E.02982
G1 X90.925 Y88.854 E.03768
G1 X91.472 Y88.121 E.03968
G1 X92.07 Y87.471 E.03835
G1 X92.4 Y87.775 F18000
G1 F3000
G1 X92.407 Y87.768 E.00042
G1 X93.094 Y87.16 E.03981
G1 X93.575 Y86.805 E.02597
G1 X94.088 Y86.48 E.02635
G1 X94.884 Y86.068 E.03893
G1 X95.417 Y85.848 E.02501
G1 X96.235 Y85.588 E.03727
G1 X97.041 Y85.417 E.03578
G1 X97.616 Y85.346 E.02514
G1 X97.896 Y85.238 E.01302
G1 X98.037 Y85.135 E.00757
G1 X98.313 Y84.848 E.01728
G1 X98.709 Y84.483 E.0234
G1 X99.141 Y84.133 E.02412
G1 X99.601 Y83.809 E.02441
G1 X100.099 Y83.506 E.02532
G1 X100.619 Y83.236 E.02541
G1 X101.482 Y82.881 E.04053
G1 X102.051 Y82.704 E.02587
G1 X102.637 Y82.566 E.02612
G1 X103.227 Y82.47 E.02595
G1 X103.815 Y82.415 E.02565
G1 X104.386 Y82.401 E.0248
G1 X104.948 Y82.425 E.02439
G1 X105.77 Y82.528 E.03596
G1 X106.32 Y82.643 E.02439
G1 X106.612 Y82.635 E.0127
G1 X106.775 Y82.587 E.00738
G1 X107.396 Y82.283 E.03003
G1 X107.903 Y82.079 E.0237
G1 X108.442 Y81.904 E.02457
G1 X109.004 Y81.762 E.02516
G1 X109.584 Y81.657 E.0256
G1 X110.17 Y81.593 E.0256
G1 X111.111 Y81.573 E.04087
G1 X111.686 Y81.612 E.025
G1 X112.276 Y81.692 E.02585
G1 X112.85 Y81.811 E.02544
G1 X113.416 Y81.969 E.02549
G1 X113.959 Y82.161 E.02501
G1 X114.474 Y82.384 E.02438
G1 X114.958 Y82.632 E.02359
G1 X115.429 Y82.914 E.02381
G1 X115.708 Y83.001 E.01269
G1 X115.878 Y83.008 E.00737
G1 X116.582 Y82.921 E.0308
G1 X117.128 Y82.894 E.02372
G1 X117.694 Y82.905 E.0246
G1 X118.272 Y82.954 E.02517
G1 X118.855 Y83.045 E.02561
G1 X119.438 Y83.177 E.02594
G1 X120.014 Y83.351 E.02612
G1 X120.571 Y83.563 E.02587
G1 X121.394 Y83.961 E.03969
G1 X121.9 Y84.262 E.02554
G1 X122.382 Y84.596 E.02547
G1 X122.824 Y84.95 E.0246
G1 X123.238 Y85.329 E.02436
G1 X123.614 Y85.721 E.02358
G1 X123.957 Y86.127 E.02304
G1 X124.086 Y86.237 E.00737
G1 X124.35 Y86.362 E.01269
G1 X125.062 Y86.513 E.03159
G1 X125.591 Y86.668 E.02392
G1 X126.383 Y86.973 E.03684
G1 X126.908 Y87.228 E.02536
G1 X127.683 Y87.692 E.03917
G1 X128.166 Y88.041 E.02591
G1 X128.632 Y88.431 E.02639
G1 X129.268 Y89.065 E.03897
G1 X129.826 Y89.751 E.03836
G1 X130.298 Y90.469 E.0373
G1 X130.685 Y91.212 E.03637
G1 X130.982 Y91.945 E.03433
G1 X131.068 Y92.086 E.0072
G1 X131.273 Y92.285 E.01239
G1 X131.918 Y92.672 E.03266
G1 X132.575 Y93.155 E.03537
G1 X133.227 Y93.744 E.03813
G1 X133.623 Y94.167 E.02515
G1 X134.177 Y94.875 E.03904
G1 X134.509 Y95.384 E.02636
G1 X134.799 Y95.907 E.02597
G1 X135.174 Y96.746 E.03989
G1 X135.362 Y97.293 E.02509
G1 X135.573 Y98.132 E.03756
G1 X135.694 Y98.947 E.03577
G1 X135.735 Y99.717 E.0335
G1 X135.772 Y99.883 E.00738
G1 X135.907 Y100.143 E.0127
G1 X136.226 Y100.511 E.02117
G1 X136.555 Y100.941 E.02349
G1 X136.864 Y101.406 E.02424
G1 X137.15 Y101.904 E.02489
G1 X137.405 Y102.43 E.02539
G1 X137.628 Y102.981 E.02579
G1 X137.813 Y103.551 E.02602
G1 X137.958 Y104.136 E.02617
G1 X138.061 Y104.72 E.02575
G1 X138.125 Y105.317 E.02606
G1 X138.146 Y105.911 E.02581
G1 X138.126 Y106.497 E.02544
G1 X138.068 Y107.068 E.02494
G1 X137.974 Y107.62 E.0243
G1 X137.849 Y108.147 E.02352
G1 X137.71 Y108.602 E.02064
G1 X137.692 Y108.894 E.0127
G1 X137.726 Y109.061 E.00738
G1 X138.009 Y109.798 E.03428
G1 X138.23 Y110.597 E.03599
G1 X138.378 Y111.458 E.03791
G1 X138.436 Y112.322 E.03756
G1 X138.404 Y113.24 E.03988
G1 X138.33 Y113.833 E.02596
G1 X138.213 Y114.428 E.02632
G1 X137.968 Y115.277 E.03835
G1 X137.758 Y115.824 E.02542
G1 X137.382 Y116.597 E.03732
G1 X137.102 Y117.07 E.02385
G1 X136.684 Y117.667 E.03164
G1 X136.577 Y117.938 E.01269
G1 X136.557 Y118.107 E.00737
G1 X136.583 Y118.631 E.02277
G1 X136.577 Y119.173 E.02353
G1 X136.533 Y119.731 E.02429
G1 X136.451 Y120.29 E.02453
G1 X136.328 Y120.862 E.02542
G1 X136.165 Y121.426 E.02548
G1 X135.827 Y122.298 E.04059
G1 X135.564 Y122.833 E.02586
G1 X135.266 Y123.344 E.02569
G1 X134.931 Y123.837 E.02589
G1 X134.562 Y124.308 E.02597
G1 X134.174 Y124.737 E.0251
G1 X133.768 Y125.129 E.02451
G1 X133.352 Y125.481 E.02365
G1 X132.777 Y125.898 E.03085
G1 X132.658 Y126.019 E.00737
G1 X132.513 Y126.274 E.01269
G1 X132.362 Y126.795 E.02357
G1 X132.179 Y127.305 E.02352
G1 X131.955 Y127.818 E.0243
G1 X131.691 Y128.329 E.02496
G1 X131.386 Y128.829 E.02542
G1 X131.043 Y129.315 E.02582
G1 X130.664 Y129.78 E.02605
G1 X130.258 Y130.212 E.02576
G1 X129.815 Y130.622 E.02616
G1 X129.348 Y130.997 E.02602
G1 X128.86 Y131.337 E.0258
G1 X128.359 Y131.637 E.02538
G1 X127.848 Y131.897 E.0249
G1 X127.334 Y132.116 E.02422
G1 X126.825 Y132.296 E.02344
G1 X126.422 Y132.411 E.01821
G1 X126.264 Y132.486 E.00759
G1 X126.16 Y132.56 E.00551
G1 X126.037 Y132.684 E.00759
G1 X125.714 Y133.143 E.02437
G1 X125.374 Y133.565 E.02352
G1 X124.995 Y133.978 E.02434
G1 X124.578 Y134.374 E.02496
G1 X124.126 Y134.748 E.02544
G1 X123.643 Y135.095 E.02583
G1 X123.141 Y135.405 E.02564
G1 X122.614 Y135.683 E.02585
G1 X121.75 Y136.044 E.04065
G1 X121.189 Y136.222 E.02554
G1 X120.617 Y136.361 E.02553
G1 X120.057 Y136.457 E.02468
G1 X119.5 Y136.515 E.02429
G1 X118.79 Y136.535 E.03084
G1 X118.274 Y136.512 E.02244
G1 X118.103 Y136.534 E.00747
G1 X117.829 Y136.646 E.01285
G1 X117.365 Y136.982 E.02487
G1 X116.649 Y137.414 E.03631
G1 X116.144 Y137.664 E.02446
G1 X115.62 Y137.881 E.02461
G1 X114.769 Y138.152 E.03875
G1 X114.188 Y138.282 E.02585
G1 X113.592 Y138.373 E.02617
G1 X112.987 Y138.422 E.02636
G1 X112.07 Y138.416 E.03982
G1 X111.492 Y138.361 E.02519
G1 X110.767 Y138.233 E.03196
G1 X110.161 Y138.079 E.02713
G1 X109.657 Y137.911 E.02305
G1 X109.248 Y137.747 E.01913
G1 X109.079 Y137.711 E.00753
G1 X108.78 Y137.727 E.01296
G1 X108.215 Y137.899 E.02565
G1 X107.401 Y138.072 E.03612
G1 X106.56 Y138.166 E.03676
G1 X105.985 Y138.182 E.02497
G1 X105.07 Y138.127 E.03978
G1 X104.486 Y138.04 E.02564
G1 X103.608 Y137.831 E.03919
G1 X102.991 Y137.622 E.02825
G1 X102.275 Y137.314 E.03383
G1 X101.52 Y136.897 E.03743
G1 X100.84 Y136.428 E.03589
G1 X100.299 Y135.976 E.0306
G1 X100.152 Y135.89 E.00735
G1 X99.872 Y135.812 E.01266
G1 X99.268 Y135.79 E.02623
G1 X98.719 Y135.733 E.02394
G1 X98.165 Y135.637 E.02441
G1 X97.614 Y135.503 E.02461
G1 X97.054 Y135.326 E.02548
G1 X96.507 Y135.111 E.02553
G1 X95.667 Y134.692 E.04075
G1 X95.385 Y134.522 E.01428
G1 X94.729 Y134.073 E.03452
G1 X94.267 Y133.696 E.02588
G1 X93.836 Y133.294 E.02559
G1 X93.441 Y132.87 E.02514
