; HEADER_BLOCK_START
; generated by AnycubicSlicerNext 1.3.3.1 on 2025-03-06 at 02:35:16
; total layer number: 112
; filament_density: 1.24
; filament_diameter: 1.75
; max_z_height: 22.44
; exclude_object: 0
; model_instances: 1
; HEADER_BLOCK_END

; THUMBNAIL_BLOCK_START
; THUMBNAIL_BLOCK_END

; external perimeters extrusion width = 0.42mm
; perimeters extrusion width = 0.45mm
; infill extrusion width = 0.45mm
; solid infill extrusion width = 0.42mm
; top infill extrusion width = 0.42mm
; support material extrusion width = 0.40mm
; first layer extrusion width = 0.50mm

; EXECUTABLE_BLOCK_START
M201 X2000 Y2000 Z800 E2000
M203 X300 Y300 Z8 E100
M204 P2000 R2000 T2000
M205 X10.00 Y10.00 Z2.00 E5.00 ; sets the jerk limits, mm/sec
;TYPE:Custom
G90 ; use absolute coordinates
M83 ; extruder relative mode
M104 S220 ; set extruder temp
M140 S60 ; set bed temp
M190 S60 ; wait for bed temp
M109 S220 ; wait for extruder temp
G28                                        ; move X/Y/Z to min endstops
G1 Z0.28                                   ; lift nozzle a bit 
G92 E0 
G1 Y3 F1800                                    ; zero the extruded length 
G1 X60  E25 F500                       ; Extrude 25mm of filament in a 5cm line. 
G92 E0                                     ; zero the extruded length again 
G1 E-2 F500                                ; Retract a little 
G1 X70 F4000                              ; Quickly wipe away from the filament line
M117
G90
G21
M83 ; use relative distances for extrusion
; filament start gcode
M106 S0
;LAYER_CHANGE
;Z:0.24
;HEIGHT:0.24
; BEFORE_LAYER_CHANGE 0 @ 0.24mm
G92 E0
G1 E-2.5 F6000
; AFTER_LAYER_CHANGE 0 @ 0.24mm
M204 P500
; printing object "Cyclo3Receiver.stl" id:2190067470336 copy 0
M204 T500
G1 X112.066 Y81.285 F18000
G1 Z.24
G1 E2.5 F6000
;TYPE:Support
;WIDTH:0.5
;MM3_PER_MM:0.107639
G1 F3000
G3 X115.221 Y82.773 I-.222 J4.561 E.15536
G3 X120.402 Y83.873 I1.858 J3.997 E.24662
G3 X123.731 Y85.293 I.09 J4.401 E.1619
G3 X127.408 Y87.372 I-.572 J5.304 E.18851
G3 X130.918 Y90.415 I-1.603 J5.395 E.20789
G3 X133.734 Y94.033 I-2.175 J4.598 E.20645
G3 X136.124 Y98.681 I-2.212 J4.076 E.24103
G3 X136.465 Y104.053 I-3.357 J2.91 E.25102
G3 X136.87 Y111.012 I-2.415 J3.632 E.35056
G3 X136.974 Y112.53 I-4.411 J1.065 E.06633
G3 X136.671 Y118.702 I-3.208 J2.936 E.29837
G3 X133.294 Y123.825 I-4.365 J.797 E.29405
G3 X130.36 Y126.395 I-4.44 J-2.108 E.17415
G3 X128.277 Y129.853 I-4.247 J-.203 E.18257
G3 X123.097 Y134.299 I-4.452 J.053 E.33766
G3 X116.125 Y137.847 I-5.21 J-1.614 E.37863
G3 X111.998 Y137.17 I-1.333 J-4.799 E.18737
G3 X106.362 Y138.193 I-3.516 J-3.336 E.26601
G3 X102.333 Y137.033 I-.995 J-4.121 E.19039
G3 X97.835 Y135.349 I-1.014 J-4.14 E.22144
G3 X93.446 Y132.233 I-.223 J-4.335 E.25202
G3 X88.971 Y126.629 I.126 J-4.69 E.35436
G3 X86.705 Y123.505 I1.903 J-3.764 E.17399
G3 X83.795 Y116.764 I.737 J-4.316 E.37796
G3 X84.037 Y113.975 I4.018 J-1.056 E.12395
G3 X83.852 Y108.441 I3.092 J-2.874 E.26218
G3 X84.549 Y103.121 I3.623 J-2.23 E.25198
G3 X85.315 Y99.266 I3.877 J-1.233 E.17806
G3 X86.962 Y93.434 I4.21 J-1.961 E.28663
G3 X89.065 Y91.137 I4.17 J1.709 E.13802
G3 X92.702 Y87.996 I4.599 J1.648 E.21808
G3 X98.623 Y85.575 I4.152 J1.703 E.30912
G3 X100.891 Y84.658 I3.698 J5.878 E.10678
G3 X106.547 Y81.905 I4.401 J1.856 E.29806
G3 X110.102 Y81.624 I2.11 J4.067 E.15897
G3 X111.999 Y81.282 I1.751 J4.281 E.0843
G1 X109.61 Y84.482 F18000
G1 F3000
G3 X109.543 Y84.483 I.408 J25.517 E6.9576
G1 E-1.75 F6000
;WIPE_START
G1 F3000
G1 X108.545 Y84.547 E-.75
;WIPE_END
G1 X137.906 Y109.309 F18000
G1 E2.5 F6000
G1 F3000
G1 X137.906 Y106.751 E.11104
G2 X137.408 Y105.597 I-3.967 J1.028 E.05479
G1 X137.408 Y109.817 E.1832
G3 X136.91 Y110.43 I-1.52 J-.725 E.03463
G1 X136.91 Y104.958 E.23755
G2 X136.411 Y104.52 I-1.35 J1.035 E.02897
G1 X136.411 Y118.388 E.60199
G2 X136.91 Y117.847 I-1.047 J-1.464 E.03217
G1 X136.91 Y113.063 E.20767
G3 X137.408 Y113.979 I-1.998 J1.681 E.04556
G1 X137.408 Y117.409 E.14892
G1 X136.411 Y103.747 F18000
G1 F3000
G1 X136.411 Y99.802 E.17125
G2 X135.913 Y99.044 I-1.825 J.657 E.03975
G1 X135.913 Y121.321 E.96698
G3 X135.415 Y122.079 I-2.009 J-.778 E.03968
G1 X135.415 Y115.108 E.30259
G3 X134.916 Y117.154 I-23.878 J-4.73 E.09146
G1 X134.916 Y122.594 E.23613
G1 X134.418 Y122.949 E.02655
G1 X134.418 Y118.708 E.1841
G3 X133.92 Y119.992 I-23.589 J-8.413 E.05981
G1 X133.92 Y123.196 E.1391
G3 X133.421 Y123.388 I-.695 J-1.062 E.02335
G1 X133.404 Y121.15 E.09715
G2 X132.923 Y123.663 I2.789 J1.837 E.11395
G3 X132.425 Y124.604 I-2.388 J-.661 E.0466
G1 X132.425 Y123.008 E.06929
G2 X131.852 Y125.215 I2.724 J1.885 E.10106
G1 X131.428 Y125.502 E.02222
G1 X131.428 Y124.592 E.03953
G2 X130.93 Y125.772 I1.098 J1.159 E.05722
G1 X130.431 Y125.971 E.02329
G1 X130.431 Y125.625 E.01498
G1 E-1.75 F6000
;WIPE_START
G1 F3000
G1 X130.431 Y125.971 E-.2589
G1 X130.93 Y125.772 E-.40232
G1 X130.93 Y125.654 E-.08878
;WIPE_END
G1 X135.415 Y106.033 F18000
G1 E2.5 F6000
G1 F3000
G1 X135.415 Y96.416 E.41747
G2 X134.916 Y95.532 I-9.596 J4.829 E.04405
G1 X134.916 Y102.846 E.31746
G2 X134.418 Y101.293 I-23.457 J6.67 E.07082
G1 X134.418 Y94.931 E.27615
G1 X133.92 Y94.517 E.02811
G1 X133.92 Y100.005 E.23823
G2 X133.421 Y98.887 I-29.4 J12.433 E.05314
G1 X133.41 Y94.358 E.19662
G2 X132.923 Y92.918 I-3.911 J.52 E.0664
G1 X132.923 Y97.892 E.21593
G2 X132.425 Y96.993 I-40.84 J22.052 E.04462
G1 X132.425 Y92.119 E.21159
G2 X131.926 Y91.572 I-1.641 J.996 E.03231
G1 X131.926 Y96.169 E.19955
G2 X131.428 Y95.41 I-18.439 J11.564 E.03942
G1 X131.428 Y91.158 E.1846
G1 X130.93 Y90.883 E.02471
G1 X130.93 Y94.703 E.16583
G2 X130.431 Y94.046 I-16.164 J11.737 E.03581
G1 X130.431 Y90.305 E.16239
G2 X129.933 Y89.47 I-2.375 J.852 E.04247
G1 X129.933 Y93.424 E.17166
G2 X129.435 Y92.843 I-58.441 J49.592 E.03324
G1 X129.435 Y88.901 E.1711
G1 X128.936 Y88.483 E.02825
G1 X128.936 Y92.296 E.16552
G2 X128.438 Y91.776 I-14.889 J13.784 E.03125
G1 X128.438 Y88.196 E.15542
G2 X127.94 Y87.966 I-.834 J1.154 E.02397
G1 X127.94 Y91.288 E.14417
G2 X127.441 Y90.822 I-10.914 J11.175 E.02961
G1 X127.441 Y87.806 E.1309
G2 X127.022 Y87.729 I-.418 J1.094 E.01863
G1 X126.943 Y87.587 E.00704
G1 X126.943 Y90.379 E.12118
G2 X126.445 Y89.96 I-13.021 J14.978 E.02827
G1 X126.445 Y86.96 E.13019
G2 X125.946 Y86.526 I-1.304 J.993 E.02889
G1 X125.946 Y89.562 E.1318
G2 X125.448 Y89.182 I-10.144 J12.759 E.02723
G1 X125.448 Y86.198 E.12951
G1 X124.95 Y85.954 E.02409
G1 X124.95 Y88.822 E.12451
G2 X124.452 Y88.478 I-9.658 J13.428 E.02631
G1 X124.452 Y85.812 E.11571
G2 X123.953 Y85.709 I-.501 J1.158 E.02225
G1 X123.953 Y88.153 E.10609
G2 X123.455 Y87.84 I-12.038 J18.66 E.02553
G1 X123.455 Y85.589 E.09774
G2 X122.957 Y85.117 I-1.391 J.968 E.03001
G1 X122.957 Y87.546 E.10547
G2 X122.458 Y87.265 I-11.571 J19.944 E.02483
G1 X122.458 Y84.773 E.10819
G2 X121.96 Y84.554 I-.783 J1.105 E.02379
G1 X121.96 Y86.999 E.10614
G2 X121.462 Y86.748 I-10.352 J19.952 E.02422
G1 X121.462 Y84.394 E.10222
G1 X120.963 Y84.292 E.02208
G1 X120.963 Y86.508 E.09623
G2 X120.465 Y86.284 I-6.41 J13.546 E.02373
G1 X120.465 Y84.278 E.08707
G3 X119.967 Y83.992 I-.119 J-.37 E.02807
G1 X119.967 Y86.068 E.09016
G1 X119.468 Y85.867 E.02334
G1 X119.468 Y83.556 E.10029
G2 X118.97 Y83.228 I-1.008 J.989 E.0261
G1 X118.939 Y85.665 E.10579
G2 X118.472 Y85.499 I-8.545 J23.252 E.02153
G1 X118.472 Y83.007 E.10816
G2 X117.973 Y82.866 I-.575 J1.082 E.02265
G1 X117.973 Y85.334 E.10713
G2 X117.475 Y85.178 I-4.164 J12.415 E.02267
G1 X117.475 Y82.763 E.10484
G1 X116.977 Y82.766 E.02163
G1 X116.977 Y85.032 E.09834
G2 X116.478 Y84.898 I-15.83 J57.804 E.0224
G1 X116.478 Y82.801 E.09101
G1 X115.98 Y82.913 E.02217
G1 X115.98 Y84.776 E.08089
G2 X115.482 Y84.662 I-3.411 J13.742 E.02219
G1 X115.482 Y83.097 E.06794
G1 X115.114 Y83.267 E.0176
G1 X114.983 Y83.115 E.00869
G1 X114.983 Y84.56 E.06269
G2 X114.485 Y84.468 I-2.887 J14.244 E.022
G1 X114.485 Y82.627 E.07987
G2 X113.987 Y82.261 I-1.139 J1.026 E.02704
G1 X113.987 Y84.384 E.09217
G2 X113.488 Y84.311 I-3.177 J20.058 E.02186
G1 X113.488 Y82.016 E.09962
G2 X112.99 Y81.843 I-.671 J1.123 E.02307
G1 X112.99 Y84.25 E.10451
G2 X112.492 Y84.196 I-1.765 J13.929 E.02176
G1 X112.492 Y81.714 E.10775
G2 X111.993 Y81.686 I-1.204 J17.007 E.02167
G1 X111.946 Y84.149 E.10693
G2 X111.495 Y84.119 I-1.423 J18.166 E.01963
G1 X111.495 Y81.689 E.1055
G1 X110.997 Y81.766 E.02189
G1 X110.997 Y84.095 E.10112
G2 X110.498 Y84.082 I-.624 J14.347 E.02164
G1 X110.498 Y81.907 E.09441
G1 X110 Y82.021 E.02219
G1 X110 Y84.075 E.08919
G2 X109.502 Y84.08 I-.016 J24.918 E.02163
G1 X109.502 Y81.888 E.09515
G2 X109.003 Y81.794 I-.47 J1.12 E.02218
G1 X109.003 Y84.095 E.09987
G2 X108.505 Y84.12 I.775 J20.148 E.02166
G1 X108.505 Y81.794 E.10096
G2 X108.007 Y81.839 I-.145 J1.189 E.02188
G1 X108.007 Y84.153 E.10045
G2 X107.508 Y84.196 I1.136 J15.983 E.02171
G1 X107.508 Y81.946 E.09769
G2 X107.01 Y82.14 I.207 J1.265 E.0234
G1 X107.01 Y84.25 E.09158
G2 X106.512 Y84.311 I2.224 J20.095 E.0218
G1 X106.512 Y82.313 E.08674
G1 X106.013 Y82.184 E.02235
G1 X106.013 Y84.384 E.0955
G2 X105.515 Y84.468 I3.156 J20.127 E.02194
G1 X105.515 Y82.113 E.10223
G1 X105.017 Y82.088 E.02166
G1 X105.017 Y84.56 E.1073
G2 X104.518 Y84.663 I2.725 J14.406 E.02209
G1 X104.518 Y82.151 E.10904
G2 X104.02 Y82.248 I-.013 J1.258 E.02219
G1 X104.02 Y84.775 E.10967
G2 X103.522 Y84.898 I4.714 J20.123 E.02228
G1 X103.522 Y82.433 E.107
G2 X103.023 Y82.694 I.384 J1.34 E.02458
G1 X103.023 Y85.034 E.10158
G2 X102.525 Y85.177 I3.745 J13.96 E.02251
G1 X102.525 Y83.031 E.09315
G1 X102.027 Y83.506 E.02988
G1 X102.027 Y85.333 E.07931
G2 X101.528 Y85.499 I5.313 J16.818 E.0228
G1 X101.528 Y84.208 E.05602
G2 X101.164 Y85.047 I1.853 J1.304 E.03996
G1 X101.03 Y85.054 E.00583
G1 X101.03 Y85.679 E.02711
G2 X100.532 Y85.867 I4.854 J13.59 E.02313
G1 X100.532 Y85.104 E.0331
G1 X100.033 Y85.243 E.02246
G1 X100.033 Y86.07 E.03586
G2 X99.535 Y86.281 I8.293 J20.193 E.02351
G1 X99.535 Y85.461 E.03562
G2 X99.037 Y86.508 I.104 J.691 E.05935
G2 X98.538 Y86.748 I9.424 J20.212 E.02401
G1 X98.538 Y85.981 E.03328
G2 X98.04 Y85.768 I-.742 J1.048 E.0237
G1 X98.04 Y86.999 E.05343
G2 X97.542 Y87.267 I7.977 J15.442 E.02456
G1 X97.542 Y85.656 E.06996
G2 X97.043 Y85.595 I-.389 J1.123 E.02196
G1 X97.043 Y87.546 E.08469
G2 X96.545 Y87.842 I7.539 J13.246 E.02517
G1 X96.545 Y85.59 E.09777
G2 X96.047 Y85.668 I-.069 J1.191 E.02206
G1 X96.047 Y88.151 E.1078
G2 X95.548 Y88.478 I9.968 J15.751 E.02587
G1 X95.548 Y85.781 E.11708
G1 X95.05 Y86.001 E.02365
G1 X95.05 Y88.822 E.12248
G2 X94.552 Y89.181 I9.909 J14.278 E.02666
G1 X94.552 Y86.294 E.12533
G2 X94.054 Y86.682 I.653 J1.352 E.02762
G1 X94.054 Y89.562 E.12501
G2 X93.555 Y89.959 I11.437 J14.863 E.02766
G1 X93.555 Y87.24 E.11803
G2 X93.057 Y88.212 I5.833 J3.604 E.04746
G1 X93.057 Y90.38 E.09413
G2 X92.559 Y90.821 I11.907 J13.984 E.02886
G1 X92.559 Y88.436 E.10351
G2 X92.06 Y88.544 I.002 J1.21 E.0223
G1 X92.06 Y91.288 E.11908
G2 X91.562 Y91.778 I10.788 J11.46 E.03035
G1 X91.562 Y88.76 E.13101
G2 X91.064 Y89.047 I.416 J1.298 E.02515
G1 X91.064 Y92.295 E.14099
G2 X90.565 Y92.846 I13.358 J12.594 E.03223
G1 X90.565 Y89.425 E.14847
G1 X90.067 Y89.974 E.03218
G1 X90.038 Y93.459 E.15127
G2 X89.569 Y94.044 I30.485 J24.924 E.03258
G1 X89.569 Y90.892 E.13684
G3 X89.07 Y91.592 I-.612 J.092 E.04125
G1 X89.07 Y94.703 E.13503
G2 X88.572 Y95.41 I17.022 J12.525 E.03755
G1 X88.572 Y91.939 E.1507
G2 X88.074 Y92.406 I.87 J1.428 E.02986
G1 X88.074 Y96.171 E.16344
G2 X87.575 Y96.996 I16.551 J10.562 E.04184
G1 X87.575 Y93.104 E.16894
G3 X87.077 Y93.927 I-8.673 J-4.685 E.0418
G1 X87.077 Y97.892 E.17212
G2 X86.579 Y98.886 I40.499 J20.928 E.04826
G1 X86.579 Y94.285 E.19972
G1 X86.08 Y94.831 E.03208
G1 X86.074 Y100.018 E.22514
G2 X85.582 Y101.292 I23.886 J9.968 E.05928
G1 X85.582 Y95.267 E.26151
G1 E-1.75 F6000
;WIPE_START
G1 F3000
G1 X85.582 Y96.267 E-.75
;WIPE_END
G1 X129.933 Y127.532 F18000
G1 E2.5 F6000
G1 F3000
G1 X129.933 Y126.576 E.04153
G2 X129.435 Y128.136 I1.067 J1.2 E.0746
G3 X128.936 Y128.805 I-1.768 J-.798 E.03649
G1 X128.936 Y127.704 E.04778
G2 X128.438 Y129.256 I.685 J1.076 E.07675
G1 X127.94 Y129.594 E.02614
G1 X127.94 Y128.712 E.03826
G3 X127.441 Y129.179 I-12.241 J-12.565 E.02965
G1 X127.441 Y131.718 E.1102
G3 X126.943 Y132.487 I-2.036 J-.773 E.04007
G1 X126.943 Y129.619 E.12448
G3 X126.445 Y130.04 I-11.03 J-12.546 E.02832
G1 X126.445 Y133.006 E.12872
G1 X125.946 Y133.371 E.02682
G1 X125.946 Y130.438 E.12733
G3 X125.448 Y130.818 I-10.144 J-12.759 E.02723
G1 X125.448 Y133.617 E.12149
G3 X124.95 Y133.808 I-.691 J-1.059 E.02334
G1 X124.95 Y131.178 E.11418
G3 X124.452 Y131.522 I-9.657 J-13.426 E.02631
G1 X124.452 Y133.913 E.10376
G3 X123.953 Y133.954 I-.345 J-1.133 E.02187
G1 X123.953 Y131.848 E.0914
G3 X123.455 Y132.157 I-8.363 J-12.931 E.02545
G1 X123.455 Y133.951 E.07787
G3 X122.957 Y133.854 I-.025 J-1.203 E.0222
G1 X122.957 Y132.454 E.06078
G3 X122.458 Y132.734 I-8.042 J-13.762 E.0248
G1 X122.458 Y134.884 E.09337
G3 X121.96 Y135.743 I-2.615 J-.944 E.04333
G1 X121.96 Y133.001 E.11905
G3 X121.462 Y133.252 I-8.681 J-16.614 E.02422
G1 X121.462 Y136.332 E.13371
G3 X120.963 Y136.781 I-1.487 J-1.148 E.02928
G1 X120.963 Y133.492 E.1428
G3 X120.465 Y133.718 I-7.543 J-15.947 E.02376
G1 X120.465 Y137.11 E.14725
G3 X119.967 Y137.357 I-.93 J-1.25 E.02427
G1 X119.967 Y133.93 E.14877
G3 X119.468 Y134.133 I-6.075 J-14.194 E.02336
G1 X119.468 Y137.563 E.14886
G1 X118.97 Y137.676 E.02219
G1 X118.97 Y134.322 E.14559
G1 X118.472 Y134.501 E.02298
G1 X118.472 Y137.758 E.14137
G1 X117.973 Y137.78 E.02165
G1 X117.96 Y134.673 E.1349
G3 X117.475 Y134.822 I-6.278 J-19.54 E.02201
G1 X117.475 Y137.75 E.12712
G1 X116.977 Y137.683 E.02183
G1 X116.977 Y134.968 E.11786
G3 X116.478 Y135.101 I-3.986 J-13.91 E.02239
G1 X116.478 Y137.537 E.10575
G2 X115.98 Y137.469 I-.287 J.244 E.0239
G1 X115.98 Y135.225 E.09742
G3 X115.482 Y135.337 I-3.989 J-16.687 E.02217
G1 X115.482 Y137.6 E.09823
G3 X114.983 Y137.686 I-.458 J-1.167 E.0221
G1 X114.983 Y135.44 E.09746
G3 X114.485 Y135.533 I-3.261 J-16.169 E.022
G1 X114.485 Y137.68 E.09318
G3 X113.987 Y137.624 I-.112 J-1.255 E.02191
G1 X113.987 Y135.615 E.08721
G1 X113.488 Y135.689 E.02187
G1 X113.488 Y137.517 E.07935
G3 X112.99 Y137.308 I.274 J-1.355 E.0236
G1 X112.942 Y135.757 E.06736
G3 X112.492 Y135.803 I-2.057 J-18.143 E.01965
G1 X112.492 Y137.027 E.05316
G1 X111.993 Y136.671 E.02658
G1 X111.993 Y135.847 E.03576
G3 X111.495 Y135.881 I-1.482 J-18.219 E.02168
G1 X111.495 Y137.137 E.05453
G3 X110.997 Y137.549 I-1.246 J-1.003 E.02824
G1 X110.997 Y135.905 E.07134
G1 X110.498 Y135.919 E.02164
G1 X110.498 Y137.86 E.08425
G3 X110 Y138.103 I-.841 J-1.087 E.02425
G1 X110 Y135.924 E.09461
G3 X109.502 Y135.919 I-.091 J-16.292 E.02163
G1 X109.502 Y138.233 E.10043
G3 X109.003 Y138.324 I-.471 J-1.163 E.02214
G1 X109.003 Y135.904 E.10506
G3 X108.505 Y135.881 I.648 J-20.096 E.02165
G1 X108.505 Y138.349 E.10713
G3 X108.007 Y138.307 I-.145 J-1.231 E.02186
G1 X108.007 Y135.848 E.10673
G3 X107.508 Y135.803 I1.559 J-20.107 E.02172
G1 X107.508 Y138.23 E.10536
G3 X107.01 Y138.046 I.197 J-1.301 E.02322
G1 X107.01 Y135.75 E.09967
G3 X106.512 Y135.689 I2.223 J-20.086 E.0218
G1 X106.512 Y137.811 E.09212
G1 X106.013 Y137.859 E.02173
G1 X106.013 Y135.616 E.09736
G3 X105.515 Y135.534 I3.911 J-25.15 E.02193
G1 X105.515 Y137.888 E.10221
G3 X105.017 Y137.888 I-.248 J-1.143 E.0218
G1 X105.017 Y135.439 E.10629
G3 X104.518 Y135.338 I2.593 J-14.019 E.02208
G1 X104.518 Y137.786 E.10626
G3 X104.02 Y137.64 I.085 J-1.215 E.02271
G1 X104.02 Y135.224 E.10485
G1 X103.522 Y135.102 E.02227
G1 X103.522 Y137.419 E.10058
G3 X103.023 Y137.084 I.518 J-1.31 E.02625
G1 X103.023 Y134.966 E.09195
G3 X102.525 Y134.823 I3.745 J-13.961 E.02251
G1 X102.525 Y136.641 E.07892
G1 X102.027 Y136.694 E.02175
G1 X102.027 Y134.667 E.08801
G3 X101.528 Y134.501 I6.423 J-20.166 E.02279
G1 X101.528 Y136.726 E.09658
G3 X101.03 Y136.73 I-.258 J-1.169 E.02179
G1 X101.03 Y134.323 E.10445
G3 X100.532 Y134.132 I7.458 J-20.152 E.02317
G1 X100.532 Y136.645 E.1091
G3 X100.033 Y136.51 I.067 J-1.229 E.02258
G1 X100.033 Y133.931 E.11191
