; HEADER_BLOCK_START
; generated by AnycubicSlicerNext 1.3.5.5 on 2025-07-26 at 00:39:19
; total layer number: 40
; filament_density: 1.24
; filament_diameter: 1.75
; max_z_height: 8.04
; exclude_object: 0
; model_instances: 1
; source_info: {"models":[{"file_source":0,"mo_file_id":-1,"name":"WristAdapter_BasePlate.stl_id_0_copy_0"}],"models_from":0,"plate_index":1,"slice_paras_process":1,"software_version":"AnycubicSlicerNext 1.3.5.5 20250625193040"}
; HEADER_BLOCK_END

; THUMBNAIL_BLOCK_START
; THUMBNAIL_BLOCK_END

; external perimeters extrusion width = 0.42mm
; perimeters extrusion width = 0.45mm
; infill extrusion width = 0.45mm
; solid infill extrusion width = 0.42mm
; top infill extrusion width = 0.42mm
; support material extrusion width = 0.40mm
; first layer extrusion width = 0.50mm

; EXECUTABLE_BLOCK_START
M201 X2000 Y2000 Z800 E2000 ; sets machine_max_acceleration_x, y, z, e (mm/sec^2)
M203 X300 Y300 Z8 E100 ; sets machine_max_speed_x, y, z, e (mm/sec)
M204 P2000 R2000 T2000 ; sets machine_max_acceleration(mm/sec^2) M204 P[print] R[retract] T[travel]
M205 X10.00 Y10.00 Z2.00 E5.00 ; sets the jerk limits, mm/sec
;TYPE:Custom
G90 ; use absolute coordinates
M83 ; extruder relative mode
M104 S220 ; set extruder temp
M140 S60 ; set bed temp
M190 S60 ; wait for bed temp
M109 S220 ; wait for extruder temp
G28                                        ; move X/Y/Z to min endstops
G1 Z0.28                                   ; lift nozzle a bit 
G92 E0 
G1 Y3 F1800                                    ; zero the extruded length 
G1 X60  E25 F500                       ; Extrude 25mm of filament in a 5cm line. 
G92 E0                                     ; zero the extruded length again 
G1 E-2 F500                                ; Retract a little 
G1 X70 F4000                              ; Quickly wipe away from the filament line
M117
G90
G21
M83 ; use relative distances for extrusion
; filament start gcode
M106 S0
;LAYER_CHANGE
;Z:0.24
;HEIGHT:0.24
; BEFORE_LAYER_CHANGE 0 @ 0.24mm
G92 E0
G1 E-2.5 F6000
; AFTER_LAYER_CHANGE 0 @ 0.24mm
M204 P500
; printing object "WristAdapter_BasePlate.stl" id:0 copy 0
G1 X91.147 Y90.798 F18000
G1 Z.24
G1 E2.5 F6000
;TYPE:Brim
;WIDTH:0.5
G1 F1200
G1 X92.032 Y89.967 E.05272
G1 X93.127 Y89.037 E.06233
G1 X94.074 Y88.308 E.05189
G1 X95.253 Y87.49 E.06229
G1 X96.27 Y86.856 E.05203
G1 X97.52 Y86.158 E.06215
G1 X98.595 Y85.626 E.05203
G1 X99.889 Y85.061 E.06131
G1 X101.024 Y84.631 E.05271
G1 X102.39 Y84.188 E.06231
G1 X103.661 Y83.847 E.05713
G1 X104.946 Y83.568 E.05708
G1 X106.244 Y83.353 E.0571
G1 X107.55 Y83.201 E.05707
G1 X108.981 Y83.109 E.06226
G1 X110.396 Y83.092 E.06145
G1 X111.61 Y83.138 E.05271
G1 X113.04 Y83.262 E.0623
G1 X114.438 Y83.458 E.06129
G1 X115.635 Y83.686 E.05288
G1 X116.915 Y83.993 E.05715
G1 X118.083 Y84.332 E.05277
G1 X119.308 Y84.751 E.0562
G1 X120.622 Y85.274 E.06142
G1 X121.727 Y85.779 E.05273
G1 X122.984 Y86.429 E.06146
G1 X124.035 Y87.039 E.05272
G1 X125.239 Y87.82 E.06232
G1 X126.305 Y88.592 E.05712
G1 X127.331 Y89.413 E.05704
G1 X128.387 Y90.351 E.0613
G1 X129.257 Y91.203 E.05288
G1 X130.153 Y92.167 E.05714
G1 X131 Y93.173 E.05705
G1 X131.727 Y94.122 E.05192
G1 X132.542 Y95.303 E.06228
G1 X133.282 Y96.505 E.06128
G1 X133.869 Y97.573 E.05288
G1 X134.488 Y98.842 E.06131
G1 X134.968 Y99.962 E.05289
G1 X135.429 Y101.195 E.05714
G1 X135.829 Y102.447 E.05704
G1 X136.189 Y103.812 E.0613
G1 X136.442 Y105.003 E.05287
G1 X136.668 Y106.398 E.06131
G1 X136.804 Y107.608 E.05288
G1 X136.889 Y108.922 E.05714
G1 X136.909 Y110.24 E.05721
G1 X136.858 Y111.67 E.06213
G1 X136.745 Y112.981 E.05713
G1 X136.582 Y114.189 E.05291
G1 X136.326 Y115.577 E.06126
G1 X135.991 Y116.973 E.0623
G1 X135.65 Y118.139 E.05275
G1 X135.187 Y119.476 E.06143
G1 X134.741 Y120.586 E.0519
G1 X134.236 Y121.695 E.05291
G1 X133.59 Y122.95 E.06126
G1 X132.866 Y124.189 E.0623
G1 X132.213 Y125.19 E.05186
G1 X131.372 Y126.353 E.06232
G1 X130.612 Y127.301 E.05275
G1 X129.673 Y128.361 E.06143
G1 X128.824 Y129.231 E.05277
G1 X127.875 Y130.116 E.05633
G1 X126.78 Y131.038 E.06214
G1 X125.827 Y131.764 E.05204
G1 X124.663 Y132.565 E.0613
G1 X123.63 Y133.203 E.05271
G1 X122.373 Y133.897 E.06232
G1 X121.3 Y134.423 E.0519
G1 X120.001 Y134.983 E.06142
G1 X118.863 Y135.409 E.05272
G1 X117.495 Y135.845 E.06231
G1 X116.223 Y136.181 E.05712
G1 X114.937 Y136.453 E.05705
G1 X113.638 Y136.663 E.05713
G1 X112.332 Y136.809 E.05705
G1 X111.018 Y136.891 E.05713
G1 X109.703 Y136.909 E.05709
G1 X108.509 Y136.869 E.05187
G1 X107.079 Y136.751 E.06227
G1 X105.68 Y136.561 E.06129
G1 X104.482 Y136.338 E.05288
G1 X103.108 Y136.013 E.0613
G1 X101.938 Y135.674 E.05287
G1 X100.602 Y135.216 E.06131
G1 X99.47 Y134.765 E.05288
G1 X98.272 Y134.22 E.05715
G1 X97.19 Y133.666 E.05274
G1 X95.967 Y132.961 E.0613
G1 X94.876 Y132.258 E.05633
G1 X93.887 Y131.553 E.05273
G1 X92.761 Y130.663 E.0623
G1 X91.701 Y129.731 E.06129
G1 X90.826 Y128.882 E.05288
G1 X89.862 Y127.85 E.06131
G1 X89.075 Y126.92 E.05289
G1 X88.344 Y125.974 E.05192
G1 X87.523 Y124.797 E.06228
G1 X86.827 Y123.681 E.05711
G1 X86.13 Y122.426 E.0623
G1 X85.552 Y121.246 E.05704
G1 X85.032 Y120.037 E.05712
G1 X84.533 Y118.694 E.06218
G1 X84.171 Y117.552 E.052
G1 X83.805 Y116.164 E.06231
G1 X83.536 Y114.878 E.05704
G1 X83.345 Y113.698 E.05191
G1 X83.186 Y112.272 E.06227
G1 X83.103 Y110.863 E.06129
G1 X83.092 Y109.644 E.05289
G1 X83.135 Y108.446 E.05205
G1 X83.255 Y107.019 E.06214
G1 X83.433 Y105.715 E.05714
G1 X83.653 Y104.52 E.05276
G1 X83.978 Y103.143 E.06142
G1 X84.344 Y101.88 E.05705
G1 X84.731 Y100.746 E.05205
G1 X85.259 Y99.415 E.06214
G1 X85.806 Y98.218 E.05712
G1 X86.41 Y97.051 E.05705
G1 X87.071 Y95.913 E.05715
G1 X87.731 Y94.891 E.05277
G1 X88.485 Y93.836 E.05633
G1 X89.375 Y92.714 E.06214
G1 X90.166 Y91.813 E.05203
G1 X91.119 Y90.826 E.05955
G1 X91.442 Y91.138 F18000
G1 F1200
G1 X91.464 Y91.115 E.0014
G1 X92.334 Y90.299 E.05177
G1 X93.411 Y89.384 E.06137
G1 X94.342 Y88.668 E.05094
G1 X95.503 Y87.863 E.06134
G1 X96.501 Y87.24 E.05108
G1 X97.732 Y86.554 E.0612
G1 X98.787 Y86.032 E.05108
G1 X100.061 Y85.475 E.06036
G1 X101.176 Y85.053 E.05175
G1 X102.52 Y84.617 E.06134
G1 X103.77 Y84.282 E.05615
G1 X105.034 Y84.009 E.05613
G1 X106.31 Y83.797 E.05615
G1 X107.593 Y83.648 E.0561
G1 X108.994 Y83.557 E.06094
G1 X110.394 Y83.541 E.06075
G1 X111.585 Y83.586 E.05176
G1 X112.986 Y83.707 E.06101
G1 X114.362 Y83.9 E.0603
G1 X115.537 Y84.124 E.05195
G1 X116.797 Y84.426 E.05624
G1 X117.951 Y84.761 E.05213
G1 X119.155 Y85.173 E.05526
G1 X120.449 Y85.688 E.06045
G1 X121.533 Y86.184 E.05177
G1 X122.772 Y86.824 E.06051
G1 X123.803 Y87.423 E.05176
G1 X124.988 Y88.192 E.06135
G1 X126.036 Y88.951 E.05614
G1 X127.039 Y89.754 E.05578
G1 X128.079 Y90.677 E.06033
G1 X128.934 Y91.514 E.05195
G1 X129.815 Y92.462 E.0562
G1 X130.652 Y93.456 E.0564
G1 X131.366 Y94.389 E.05099
G1 X132.168 Y95.551 E.0613
G1 X132.893 Y96.728 E.05999
G1 X133.469 Y97.776 E.05193
G1 X134.079 Y99.026 E.06035
G1 X134.55 Y100.126 E.05196
G1 X135.004 Y101.339 E.0562
G1 X135.397 Y102.569 E.05607
G1 X135.752 Y103.913 E.06033
G1 X136.001 Y105.083 E.05192
G1 X136.223 Y106.455 E.06036
G1 X136.357 Y107.645 E.05195
G1 X136.44 Y108.943 E.05649
G1 X136.46 Y110.239 E.05625
G1 X136.411 Y111.639 E.06084
G1 X136.299 Y112.929 E.05619
G1 X136.139 Y114.122 E.05226
G1 X135.888 Y115.481 E.05997
G1 X135.558 Y116.854 E.06132
G1 X135.224 Y118 E.0518
G1 X134.767 Y119.316 E.06048
G1 X134.329 Y120.406 E.051
G1 X133.831 Y121.502 E.05227
G1 X133.198 Y122.73 E.05997
G1 X132.486 Y123.95 E.06133
G1 X131.845 Y124.933 E.05091
G1 X131.017 Y126.078 E.06136
G1 X130.271 Y127.01 E.0518
G1 X129.347 Y128.053 E.06048
G1 X128.513 Y128.908 E.05184
G1 X127.575 Y129.782 E.05566
G1 X126.497 Y130.689 E.06116
G1 X125.561 Y131.403 E.05109
G1 X124.415 Y132.191 E.06035
G1 X123.401 Y132.817 E.05175
G1 X122.163 Y133.5 E.06137
G1 X121.109 Y134.017 E.05095
G1 X119.83 Y134.568 E.06047
G1 X118.713 Y134.986 E.05177
G1 X117.367 Y135.415 E.06134
G1 X116.116 Y135.745 E.05614
G1 X114.858 Y136.012 E.05582
G1 X113.581 Y136.218 E.05618
G1 X112.296 Y136.362 E.0561
G1 X110.998 Y136.443 E.05647
G1 X109.704 Y136.46 E.05616
G1 X108.531 Y136.421 E.05095
G1 X107.124 Y136.305 E.06129
G1 X105.754 Y136.119 E.06
G1 X104.578 Y135.9 E.05193
G1 X103.225 Y135.58 E.06035
G1 X102.076 Y135.247 E.05192
G1 X100.761 Y134.796 E.06036
G1 X99.649 Y134.353 E.05195
G1 X98.47 Y133.817 E.05624
G1 X97.402 Y133.27 E.05209
G1 X96.203 Y132.58 E.06005
G1 X95.125 Y131.885 E.05567
G1 X94.154 Y131.192 E.0518
G1 X93.045 Y130.316 E.06132
G1 X92.007 Y129.403 E.06
G1 X91.144 Y128.566 E.05221
G1 X90.2 Y127.555 E.06007
G1 X89.422 Y126.636 E.05225
G1 X88.704 Y125.706 E.05102
G1 X87.896 Y124.547 E.06132
G1 X87.212 Y123.45 E.05612
G1 X86.53 Y122.221 E.06101
G1 X85.961 Y121.061 E.05607
G1 X85.449 Y119.873 E.05614
G1 X84.958 Y118.552 E.06121
G1 X84.603 Y117.431 E.05105
G1 X84.243 Y116.064 E.06133
G1 X83.977 Y114.8 E.0561
G1 X83.789 Y113.634 E.05126
G1 X83.633 Y112.231 E.06129
G1 X83.552 Y110.851 E.06
G1 X83.541 Y109.653 E.05199
G1 X83.583 Y108.469 E.05141
G1 X83.701 Y107.072 E.06088
G1 X83.876 Y105.789 E.05619
G1 X84.093 Y104.609 E.05211
G1 X84.411 Y103.26 E.06015
G1 X84.771 Y102.018 E.05612
G1 X85.153 Y100.898 E.0514
G1 X85.673 Y99.588 E.06117
G1 X86.208 Y98.418 E.05586
G1 X86.802 Y97.27 E.0561
G1 X87.452 Y96.15 E.05622
G1 X88.104 Y95.141 E.05213
G1 X88.846 Y94.103 E.05539
G1 X89.722 Y92.999 E.06117
G1 X90.498 Y92.114 E.05109
G1 X91.414 Y91.167 E.0572
G1 X91.736 Y91.479 F18000
G1 F1200
G1 X91.781 Y91.432 E.00281
G1 X92.635 Y90.632 E.05081
G1 X93.696 Y89.731 E.06042
G1 X94.609 Y89.029 E.04999
G1 X95.752 Y88.236 E.06039
G1 X96.732 Y87.625 E.05013
G1 X97.944 Y86.949 E.06025
G1 X98.979 Y86.437 E.05014
G1 X100.234 Y85.89 E.05941
G1 X101.328 Y85.475 E.05079
G1 X102.651 Y85.047 E.06037
G1 X103.879 Y84.718 E.05517
G1 X105.121 Y84.449 E.05518
G1 X106.375 Y84.241 E.05519
G1 X107.637 Y84.095 E.05514
G1 X109.008 Y84.006 E.05963
G1 X110.391 Y83.99 E.06006
G1 X111.561 Y84.034 E.0508
G1 X112.932 Y84.153 E.05973
G1 X114.285 Y84.342 E.05932
G1 X115.44 Y84.562 E.05102
G1 X116.679 Y84.859 E.05533
G1 X117.818 Y85.19 E.05149
G1 X119.003 Y85.595 E.05432
G1 X120.275 Y86.102 E.05948
G1 X121.34 Y86.589 E.05082
G1 X122.559 Y87.219 E.05956
G1 X123.571 Y87.807 E.0508
G1 X124.737 Y88.564 E.06038
G1 X125.761 Y89.306 E.05488
G1 X126.747 Y90.095 E.05481
G1 X127.77 Y91.003 E.05937
G1 X128.61 Y91.825 E.05102
G1 X129.481 Y92.762 E.05555
G1 X130.304 Y93.739 E.05546
G1 X131.005 Y94.655 E.05007
G1 X131.791 Y95.793 E.06001
G1 X132.503 Y96.951 E.05901
G1 X133.069 Y97.98 E.05098
G1 X133.67 Y99.21 E.0594
G1 X134.133 Y100.29 E.05103
G1 X134.579 Y101.482 E.05527
G1 X134.965 Y102.691 E.0551
G1 X135.315 Y104.013 E.05936
G1 X135.559 Y105.162 E.05097
G1 X135.778 Y106.513 E.05941
G1 X135.909 Y107.681 E.05102
G1 X135.992 Y108.958 E.05555
G1 X136.012 Y110.238 E.05557
G1 X135.963 Y111.609 E.05955
G1 X135.853 Y112.877 E.05525
G1 X135.695 Y114.055 E.0516
G1 X135.449 Y115.384 E.05869
G1 X135.126 Y116.736 E.06034
G1 X134.797 Y117.86 E.05084
G1 X134.348 Y119.156 E.05953
G1 X133.918 Y120.227 E.0501
G1 X133.426 Y121.31 E.05163
G1 X132.806 Y122.511 E.05868
G1 X132.105 Y123.712 E.06035
G1 X131.477 Y124.676 E.04996
G1 X130.662 Y125.804 E.06041
G1 X129.929 Y126.718 E.05084
G1 X129.021 Y127.745 E.05953
G1 X128.202 Y128.584 E.05091
G1 X127.275 Y129.448 E.055
G1 X126.219 Y130.337 E.0599
G1 X125.295 Y131.041 E.05043
G1 X124.167 Y131.816 E.05941
G1 X123.172 Y132.431 E.0508
G1 X121.953 Y133.104 E.06041
G1 X120.919 Y133.61 E.05
G1 X119.659 Y134.153 E.05953
G1 X118.563 Y134.563 E.05081
G1 X117.238 Y134.985 E.06037
G1 X116.015 Y135.308 E.05488
G1 X114.773 Y135.571 E.05515
G1 X113.517 Y135.774 E.05523
G1 X112.254 Y135.915 E.05515
G1 X110.978 Y135.994 E.05551
G1 X109.706 Y136.011 E.05522
G1 X108.554 Y135.973 E.05003
G1 X107.169 Y135.858 E.06031
G1 X105.829 Y135.676 E.05871
G1 X104.674 Y135.462 E.05098
G1 X103.343 Y135.147 E.0594
G1 X102.215 Y134.82 E.05097
G1 X100.92 Y134.377 E.05941
G1 X99.828 Y133.942 E.05102
G1 X98.668 Y133.415 E.05532
G1 X97.613 Y132.874 E.05144
G1 X96.44 Y132.199 E.05879
G1 X95.374 Y131.512 E.055
G1 X94.421 Y130.831 E.05087
G1 X93.33 Y129.969 E.06034
G1 X92.314 Y129.076 E.05871
G1 X91.462 Y128.249 E.05154
G1 X90.537 Y127.259 E.05883
G1 X89.769 Y126.351 E.05161
G1 X89.063 Y125.438 E.05011
G1 X88.268 Y124.297 E.06035
G1 X87.597 Y123.219 E.05512
G1 X86.929 Y122.016 E.05972
G1 X86.37 Y120.877 E.0551
G1 X85.867 Y119.71 E.05516
G1 X85.384 Y118.409 E.06024
G1 X85.035 Y117.309 E.0501
G1 X84.68 Y115.964 E.06034
G1 X84.419 Y114.721 E.05516
G1 X84.233 Y113.57 E.05061
G1 X84.079 Y112.189 E.06031
G1 X84.001 Y110.839 E.05872
G1 X83.989 Y109.656 E.05135
G1 X84.031 Y108.493 E.05051
G1 X84.147 Y107.125 E.05961
G1 X84.318 Y105.863 E.05525
G1 X84.533 Y104.698 E.05145
G1 X84.844 Y103.377 E.05889
G1 X85.198 Y102.156 E.05518
G1 X85.575 Y101.05 E.05074
G1 X86.087 Y99.761 E.0602
G1 X86.613 Y98.611 E.05488
G1 X87.194 Y97.488 E.05486
G1 X87.833 Y96.387 E.05529
G1 X88.477 Y95.391 E.05149
G1 X89.206 Y94.37 E.05445
G1 X90.069 Y93.284 E.0602
G1 X90.83 Y92.416 E.05014
G1 X91.708 Y91.508 E.05485
G1 X92.031 Y91.819 F18000
G1 F1200
G1 X92.098 Y91.75 E.00421
G1 X92.936 Y90.964 E.04985
G1 X93.98 Y90.077 E.05946
G1 X94.876 Y89.389 E.04903
G1 X96.001 Y88.609 E.05943
G1 X96.963 Y88.01 E.04917
G1 X98.156 Y87.345 E.0593
G1 X99.171 Y86.842 E.04919
G1 X100.406 Y86.304 E.05847
G1 X101.48 Y85.897 E.04984
G1 X102.782 Y85.476 E.0594
G1 X103.987 Y85.153 E.05419
G1 X105.208 Y84.889 E.05423
G1 X106.441 Y84.685 E.05424
G1 X107.681 Y84.541 E.05417
G1 X109.029 Y84.454 E.05863
G1 X110.389 Y84.438 E.05905
G1 X111.536 Y84.482 E.04984
G1 X112.885 Y84.599 E.05875
G1 X114.209 Y84.784 E.05804
G1 X115.342 Y85 E.05009
G1 X116.561 Y85.292 E.05441
G1 X117.686 Y85.618 E.05085
G1 X118.85 Y86.016 E.05338
G1 X120.102 Y86.516 E.05851
G1 X121.147 Y86.994 E.04987
G1 X122.346 Y87.614 E.05861
G1 X123.338 Y88.191 E.04985
G1 X124.486 Y88.937 E.05941
G1 X125.487 Y89.661 E.05361
G1 X126.455 Y90.436 E.05384
G1 X127.462 Y91.329 E.0584
G1 X128.287 Y92.136 E.05009
G1 X129.148 Y93.062 E.05489
G1 X129.956 Y94.023 E.05452
G1 X130.644 Y94.922 E.04914
G1 X131.413 Y96.035 E.05873
G1 X132.114 Y97.174 E.05803
G1 X132.669 Y98.184 E.05003
G1 X133.26 Y99.393 E.05844
G1 X133.715 Y100.454 E.0501
G1 X134.154 Y101.626 E.05433
G1 X134.533 Y102.814 E.05412
G1 X134.878 Y104.114 E.0584
G1 X135.117 Y105.241 E.05002
G1 X135.333 Y106.571 E.05845
G1 X135.462 Y107.717 E.05009
G1 X135.544 Y108.972 E.0546
G1 X135.563 Y110.237 E.05488
G1 X135.515 Y111.578 E.05826
G1 X135.408 Y112.824 E.0543
G1 X135.251 Y113.987 E.05094
G1 X135.011 Y115.288 E.0574
G1 X134.693 Y116.617 E.05936
G1 X134.371 Y117.721 E.04988
G1 X133.929 Y118.996 E.05858
G1 X133.507 Y120.048 E.0492
G1 X133.021 Y121.117 E.05099
G1 X132.415 Y122.292 E.05739
G1 X131.725 Y123.473 E.05937
G1 X131.109 Y124.42 E.04901
G1 X130.307 Y125.529 E.05945
G1 X129.588 Y126.426 E.04988
G1 X128.694 Y127.437 E.05858
G1 X127.89 Y128.261 E.04998
G1 X126.975 Y129.115 E.05433
G1 X125.941 Y129.985 E.05865
G1 X125.029 Y130.68 E.04976
G1 X123.92 Y131.442 E.05846
G1 X122.943 Y132.046 E.04984
G1 X121.743 Y132.707 E.05946
G1 X120.728 Y133.204 E.04905
G1 X119.489 Y133.738 E.05858
G1 X118.413 Y134.14 E.04985
G1 X117.109 Y134.556 E.0594
G1 X115.908 Y134.872 E.0539
G1 X114.687 Y135.131 E.0542
G1 X113.453 Y135.33 E.05428
G1 X112.212 Y135.468 E.05419
G1 X110.957 Y135.546 E.05456
G1 X109.707 Y135.562 E.05428
G1 X108.577 Y135.524 E.0491
G1 X107.214 Y135.412 E.05934
G1 X105.903 Y135.234 E.05743
G1 X104.77 Y135.023 E.05003
