; HEADER_BLOCK_START
; generated by AnycubicSlicerNext 1.3.4.0 on 2025-05-23 at 16:47:54
; total layer number: 25
; filament_density: 1.24
; filament_diameter: 1.75
; max_z_height: 5.04
; exclude_object: 0
; model_instances: 1
; HEADER_BLOCK_END

; THUMBNAIL_BLOCK_START
; THUMBNAIL_BLOCK_END

; external perimeters extrusion width = 0.42mm
; perimeters extrusion width = 0.45mm
; infill extrusion width = 0.45mm
; solid infill extrusion width = 0.42mm
; top infill extrusion width = 0.42mm
; support material extrusion width = 0.40mm
; first layer extrusion width = 0.50mm

; EXECUTABLE_BLOCK_START
M201 X2000 Y2000 Z800 E2000
M203 X300 Y300 Z8 E100
M204 P2000 R2000 T2000
M205 X10.00 Y10.00 Z2.00 E5.00 ; sets the jerk limits, mm/sec
;TYPE:Custom
G90 ; use absolute coordinates
M83 ; extruder relative mode
M104 S220 ; set extruder temp
M140 S60 ; set bed temp
M190 S60 ; wait for bed temp
M109 S220 ; wait for extruder temp
G28                                        ; move X/Y/Z to min endstops
G1 Z0.28                                   ; lift nozzle a bit 
G92 E0 
G1 Y3 F1800                                    ; zero the extruded length 
G1 X60  E25 F500                       ; Extrude 25mm of filament in a 5cm line. 
G92 E0                                     ; zero the extruded length again 
G1 E-2 F500                                ; Retract a little 
G1 X70 F4000                              ; Quickly wipe away from the filament line
M117
G90
G21
M83 ; use relative distances for extrusion
; filament start gcode
M106 S0
;LAYER_CHANGE
;Z:0.24
;HEIGHT:0.24
; BEFORE_LAYER_CHANGE 0 @ 0.24mm
G92 E0
G1 E-2.5 F6000
; AFTER_LAYER_CHANGE 0 @ 0.24mm
M204 P500
; printing object "SERVO_CAPS_ADAPTER.stl" id:946337937564479250 copy 0
M204 T500
G1 X90.846 Y105.54 F18000
G1 Z.24
G1 E2.5 F6000
;TYPE:Outer wall
;WIDTH:0.5
;MM3_PER_MM:0.107639
G1 F1500
G1 X90.912 Y105.232 E.01369
G1 X91.173 Y104.286 E.0426
G1 X91.482 Y103.353 E.04265
G1 X91.837 Y102.437 E.04266
G1 X92.237 Y101.539 E.04266
G1 X92.682 Y100.663 E.04265
G1 X93.169 Y99.81 E.04264
G1 X93.699 Y98.983 E.04266
G1 X94.269 Y98.182 E.04265
G1 X94.879 Y97.412 E.04265
G1 X95.526 Y96.673 E.04266
G1 X96.211 Y95.966 E.04271
G1 X96.636 Y95.56 E.02552
G1 X97.227 Y95.035 E.03431
G1 X97.987 Y94.418 E.04247
G1 X98.78 Y93.838 E.04266
G1 X99.601 Y93.298 E.04269
G1 X100.279 Y92.894 E.03424
G1 X101.319 Y92.344 E.05107
G1 X102.211 Y91.933 E.04263
G1 X103.123 Y91.566 E.04267
G1 X103.863 Y91.307 E.03406
G1 X104.809 Y91.022 E.04289
G1 X105.759 Y90.788 E.04245
G1 X106.728 Y90.599 E.04286
G1 X107.7 Y90.46 E.04265
G1 X108.679 Y90.37 E.04265
G1 X109.656 Y90.328 E.04246
G1 X110.639 Y90.335 E.04266
G1 X111.62 Y90.392 E.04265
G1 X112.597 Y90.497 E.04265
G1 X113.568 Y90.651 E.04268
G1 X114.341 Y90.81 E.03426
G1 X115.293 Y91.051 E.04265
G1 X116.416 Y91.401 E.05104
G1 X117.336 Y91.744 E.04263
G1 X118.238 Y92.133 E.04265
G1 X119.121 Y92.567 E.04268
G1 X119.809 Y92.945 E.03408
G1 X120.481 Y93.349 E.03406
G1 X121.462 Y94.009 E.0513
G1 X122.089 Y94.478 E.034
G1 X122.999 Y95.231 E.05128
G1 X123.72 Y95.898 E.04262
G1 X124.407 Y96.601 E.04265
G1 X125.055 Y97.333 E.04244
G1 X125.668 Y98.1 E.04265
G1 X126.243 Y98.898 E.04265
G1 X126.78 Y99.727 E.04289
G1 X127.176 Y100.404 E.03405
G1 X127.634 Y101.273 E.04266
G1 X128.126 Y102.347 E.05128
G1 X128.416 Y103.075 E.03403
G1 X128.739 Y104.004 E.04268
G1 X129.015 Y104.947 E.04265
G1 X129.243 Y105.903 E.04266
G1 X129.423 Y106.865 E.04248
G1 X129.533 Y107.646 E.03423
G1 X129.639 Y108.818 E.0511
G1 X129.671 Y109.606 E.03423
G1 X129.666 Y110.59 E.04272
G1 X129.627 Y111.373 E.03403
G1 X129.51 Y112.544 E.0511
G1 X129.392 Y113.324 E.03421
G1 X129.159 Y114.477 E.05107
G1 X128.91 Y115.432 E.04286
G1 X128.678 Y116.182 E.03405
G1 X128.346 Y117.107 E.04265
G1 X127.889 Y118.191 E.05107
G1 X127.546 Y118.901 E.03423
G1 X127.08 Y119.766 E.04265
G1 X126.466 Y120.769 E.05104
G1 X125.908 Y121.577 E.04265
G1 X125.431 Y122.206 E.03426
G1 X124.802 Y122.962 E.04269
G1 X124.136 Y123.685 E.04266
G1 X123.435 Y124.374 E.04268
G1 X122.847 Y124.901 E.03426
G1 X122.087 Y125.524 E.04265
G1 X121.138 Y126.219 E.05107
G1 X120.484 Y126.649 E.034
G1 X119.466 Y127.248 E.05128
G1 X118.593 Y127.699 E.04263
G1 X117.699 Y128.106 E.04265
G1 X116.785 Y128.468 E.04265
G1 X115.854 Y128.784 E.04268
G1 X115.101 Y129.002 E.03405
G1 X114.14 Y129.234 E.04289
G1 X113.18 Y129.416 E.04245
G1 X112.206 Y129.551 E.04265
G1 X111.227 Y129.637 E.04269
G1 X110.439 Y129.67 E.03423
G1 X109.262 Y129.661 E.05107
G1 X108.282 Y129.6 E.04265
G1 X107.502 Y129.516 E.03405
G1 X106.53 Y129.367 E.04267
G1 X105.568 Y129.169 E.04263
G1 X104.425 Y128.869 E.05128
G1 X103.674 Y128.63 E.03423
G1 X102.755 Y128.293 E.04248
G1 X101.851 Y127.908 E.04266
G1 X100.966 Y127.479 E.04268
G1 X100.273 Y127.102 E.03426
G1 X99.435 Y126.598 E.04244
G1 X98.458 Y125.934 E.05128
G1 X97.829 Y125.458 E.03423
G1 X97.072 Y124.831 E.04268
G1 X96.347 Y124.167 E.04265
G1 X95.66 Y123.471 E.04248
G1 X95.134 Y122.888 E.03406
G1 X94.509 Y122.13 E.04265
G1 X93.812 Y121.183 E.05104
G1 X93.274 Y120.361 E.04262
G1 X92.778 Y119.513 E.04268
G1 X92.41 Y118.815 E.03426
G1 X91.992 Y117.925 E.04265
G1 X91.549 Y116.83 E.05128
G1 X91.291 Y116.09 E.03403
G1 X91.01 Y115.148 E.04268
G1 X90.777 Y114.193 E.04265
G1 X90.592 Y113.228 E.04265
G1 X90.455 Y112.255 E.04265
G1 X90.366 Y111.277 E.04266
G1 X90.327 Y110.295 E.04266
G1 X90.337 Y109.311 E.04268
G1 X90.38 Y108.528 E.03405
G1 X90.478 Y107.55 E.04268
G1 X90.625 Y106.579 E.0426
G1 X90.833 Y105.599 E.04352
G1 X91.285 Y105.634 F18000
;TYPE:Inner wall
G1 F1500
G1 X91.347 Y105.338 E.0131
G1 X91.602 Y104.416 E.04153
G1 X91.904 Y103.505 E.04168
G1 X92.251 Y102.609 E.04168
G1 X92.642 Y101.732 E.04169
G1 X93.076 Y100.876 E.04167
G1 X93.553 Y100.043 E.04167
G1 X94.071 Y99.234 E.04169
G1 X94.628 Y98.452 E.04168
G1 X95.224 Y97.699 E.04167
G1 X95.856 Y96.977 E.04169
G1 X96.527 Y96.284 E.04183
G1 X96.94 Y95.89 E.02479
G1 X97.517 Y95.377 E.03353
G1 X98.261 Y94.774 E.04155
G1 X99.036 Y94.207 E.04169
G1 X99.839 Y93.678 E.04176
G1 X100.499 Y93.285 E.03331
G1 X101.518 Y92.746 E.05005
G1 X102.388 Y92.345 E.04161
G1 X103.281 Y91.986 E.04175
G1 X104.002 Y91.733 E.03318
G1 X104.928 Y91.455 E.04196
G1 X105.855 Y91.226 E.04147
G1 X106.802 Y91.041 E.04188
G1 X107.753 Y90.906 E.04168
G1 X108.709 Y90.817 E.04168
G1 X109.664 Y90.777 E.04149
G1 X110.624 Y90.784 E.04169
G1 X111.583 Y90.839 E.04168
G1 X112.537 Y90.942 E.04168
G1 X113.487 Y91.093 E.04176
G1 X114.241 Y91.247 E.03338
G1 X115.172 Y91.482 E.04168
G1 X116.271 Y91.825 E.04997
G1 X117.169 Y92.16 E.04161
G1 X118.05 Y92.54 E.04168
G1 X118.914 Y92.965 E.04176
G1 X119.585 Y93.333 E.03326
G1 X120.24 Y93.728 E.03319
G1 X121.203 Y94.375 E.05033
G1 X121.812 Y94.83 E.03303
G1 X122.704 Y95.569 E.05026
G1 X123.407 Y96.22 E.0416
G1 X124.078 Y96.906 E.04168
G1 X124.711 Y97.622 E.04148
G1 X125.311 Y98.372 E.04168
G1 X125.873 Y99.151 E.04168
G1 X126.398 Y99.962 E.04196
G1 X126.784 Y100.622 E.03317
G1 X127.231 Y101.471 E.04169
G1 X127.713 Y102.524 E.05025
G1 X127.996 Y103.232 E.0331
G1 X128.312 Y104.141 E.04175
G1 X128.581 Y105.062 E.04168
G1 X128.805 Y105.996 E.04169
G1 X128.981 Y106.937 E.04156
G1 X129.088 Y107.697 E.03331
G1 X129.192 Y108.847 E.05012
G1 X129.222 Y109.614 E.03331
G1 X129.218 Y110.578 E.04184
G1 X129.179 Y111.34 E.03311
G1 X129.064 Y112.489 E.05013
G1 X128.95 Y113.246 E.03324
G1 X128.722 Y114.376 E.05005
G1 X128.478 Y115.31 E.04189
G1 X128.253 Y116.04 E.03317
G1 X127.928 Y116.944 E.04168
G1 X127.48 Y118.006 E.05005
G1 X127.147 Y118.697 E.03331
G1 X126.691 Y119.542 E.04168
G1 X126.09 Y120.524 E.04997
G1 X125.545 Y121.314 E.04168
G1 X125.08 Y121.927 E.03338
G1 X124.464 Y122.666 E.04176
G1 X123.814 Y123.373 E.04169
G1 X123.128 Y124.047 E.04176
G1 X122.555 Y124.561 E.03338
G1 X121.813 Y125.169 E.04168
G1 X120.882 Y125.85 E.05005
G1 X120.246 Y126.268 E.03303
G1 X119.249 Y126.855 E.05025
G1 X118.397 Y127.296 E.04161
G1 X117.523 Y127.693 E.04168
G1 X116.631 Y128.047 E.04168
G1 X115.72 Y128.356 E.04176
G1 X114.986 Y128.569 E.03317
G1 X114.046 Y128.796 E.04196
G1 X113.107 Y128.974 E.04148
G1 X112.156 Y129.105 E.04168
G1 X111.198 Y129.189 E.04177
G1 X110.431 Y129.221 E.03331
G1 X109.278 Y129.213 E.05005
G1 X108.32 Y129.153 E.04168
G1 X107.56 Y129.071 E.03318
G1 X106.609 Y128.925 E.04175
G1 X105.67 Y128.732 E.04161
G1 X104.55 Y128.438 E.05025
G1 X103.819 Y128.206 E.03331
G1 X102.92 Y127.875 E.04156
G1 X102.037 Y127.5 E.04169
G1 X101.171 Y127.08 E.04175
G1 X100.495 Y126.713 E.03338
G1 X99.677 Y126.22 E.04147
G1 X98.719 Y125.569 E.05026
G1 X98.107 Y125.107 E.03331
G1 X97.366 Y124.493 E.04175
G1 X96.659 Y123.844 E.04168
G1 X95.986 Y123.163 E.04156
G1 X95.474 Y122.595 E.03319
G1 X94.863 Y121.854 E.04168
G1 X94.181 Y120.927 E.04998
G1 X93.656 Y120.125 E.0416
G1 X93.17 Y119.295 E.04175
G1 X92.811 Y118.615 E.03338
G1 X92.403 Y117.746 E.04168
G1 X91.969 Y116.672 E.05026
G1 X91.718 Y115.952 E.0331
G1 X91.443 Y115.03 E.04175
G1 X91.215 Y114.098 E.04168
G1 X91.034 Y113.155 E.04168
G1 X90.9 Y112.204 E.04168
G1 X90.814 Y111.248 E.04169
G1 X90.776 Y110.288 E.04169
G1 X90.785 Y109.326 E.04176
G1 X90.827 Y108.563 E.03318
G1 X90.923 Y107.606 E.04176
G1 X91.066 Y106.66 E.04153
G1 X91.272 Y105.692 E.04294
G1 E-1.75 F6000
;WIPE_START
G1 F1500
G1 X91.347 Y105.338 E-.27137
G1 X91.517 Y104.723 E-.47863
;WIPE_END
G1 X100.544 Y99.191 F18000
G1 E2.5 F6000
;TYPE:Outer wall
G1 F1500
G1 X100.546 Y99.185 E.00028
G1 X100.596 Y98.938 E.01094
G1 X100.612 Y98.686 E.01094
G1 X100.596 Y98.435 E.01094
G1 X100.546 Y98.188 E.01093
G1 X100.465 Y97.949 E.01094
G1 X100.354 Y97.723 E.01094
G1 X100.217 Y97.518 E.0107
G1 X100.048 Y97.324 E.01117
G1 X99.854 Y97.155 E.01117
G1 X99.649 Y97.018 E.0107
G1 X99.423 Y96.907 E.01094
G1 X99.185 Y96.826 E.01094
G1 X98.937 Y96.777 E.01096
G1 X98.681 Y96.761 E.01114
G1 X98.435 Y96.777 E.0107
G1 X98.188 Y96.826 E.01094
G1 X97.949 Y96.907 E.01096
G1 X97.719 Y97.021 E.01114
G1 X97.514 Y97.158 E.0107
G1 X97.324 Y97.324 E.01094
G1 X97.158 Y97.514 E.01094
G1 X97.018 Y97.723 E.01094
G1 X96.907 Y97.949 E.01094
G1 X96.826 Y98.188 E.01094
G1 X96.777 Y98.435 E.01094
G1 X96.76 Y98.686 E.01094
G1 X96.777 Y98.938 E.01094
G1 X96.826 Y99.185 E.01094
G1 X96.907 Y99.423 E.01093
G1 X97.018 Y99.649 E.01094
G1 X97.155 Y99.854 E.0107
G1 X97.324 Y100.048 E.01117
G1 X97.518 Y100.217 E.01117
G1 X97.723 Y100.354 E.0107
G1 X97.949 Y100.466 E.01094
G1 X98.188 Y100.547 E.01094
G1 X98.435 Y100.596 E.01094
G1 X98.686 Y100.612 E.01094
G1 X98.938 Y100.596 E.01094
G1 X99.185 Y100.547 E.01094
G1 X99.424 Y100.465 E.01096
G1 X99.654 Y100.351 E.01114
G1 X99.859 Y100.214 E.0107
G1 X100.048 Y100.048 E.01094
G1 X100.214 Y99.859 E.01094
G1 X100.351 Y99.654 E.0107
G1 X100.465 Y99.424 E.01114
G1 X100.525 Y99.248 E.00808
G1 X100.972 Y99.326 F18000
;TYPE:Inner wall
G1 F1500
G1 X100.981 Y99.301 E.00113
G1 X101.041 Y98.996 E.01349
G1 X101.062 Y98.686 E.01349
G1 X101.041 Y98.376 E.01349
G1 X100.981 Y98.072 E.01349
G1 X100.881 Y97.777 E.01349
G1 X100.743 Y97.499 E.01349
G1 X100.574 Y97.245 E.01323
G1 X100.366 Y97.007 E.01375
G1 X100.127 Y96.798 E.01375
G1 X99.874 Y96.629 E.01322
G1 X99.595 Y96.492 E.01349
G1 X99.301 Y96.392 E.01349
G1 X98.995 Y96.331 E.01355
G1 X98.68 Y96.311 E.01369
G1 X98.376 Y96.331 E.01322
G1 X98.071 Y96.392 E.01349
G1 X97.776 Y96.492 E.01355
G1 X97.493 Y96.633 E.01369
G1 X97.24 Y96.802 E.01322
G1 X97.007 Y97.007 E.01349
G1 X96.802 Y97.24 E.01349
G1 X96.629 Y97.499 E.01349
G1 X96.492 Y97.777 E.01349
G1 X96.392 Y98.072 E.01349
G1 X96.331 Y98.376 E.01349
G1 X96.311 Y98.686 E.01349
G1 X96.331 Y98.996 E.01349
G1 X96.392 Y99.301 E.01349
G1 X96.492 Y99.595 E.01349
G1 X96.629 Y99.874 E.01349
G1 X96.798 Y100.127 E.01322
G1 X97.006 Y100.366 E.01375
G1 X97.245 Y100.574 E.01375
G1 X97.498 Y100.743 E.01322
G1 X97.777 Y100.881 E.01349
G1 X98.071 Y100.981 E.01349
G1 X98.376 Y101.041 E.01349
G1 X98.686 Y101.062 E.01349
G1 X98.996 Y101.041 E.01349
G1 X99.301 Y100.981 E.01349
G1 X99.596 Y100.88 E.01355
G1 X99.879 Y100.74 E.01369
G1 X100.132 Y100.571 E.01322
G1 X100.366 Y100.366 E.01349
G1 X100.571 Y100.132 E.01349
G1 X100.74 Y99.879 E.01322
G1 X100.88 Y99.597 E.01369
G1 X100.953 Y99.383 E.00981
G1 E-1.75 F6000
;WIPE_START
G1 F1500
G1 X100.981 Y99.301 E-.06456
G1 X101.041 Y98.996 E-.23303
G1 X101.062 Y98.686 E-.23304
G1 X101.042 Y98.394 E-.21937
;WIPE_END
G1 X120.564 Y100.459 F18000
G1 E2.5 F6000
;TYPE:Outer wall
G1 F1500
G1 X120.577 Y100.466 E.00062
G1 X120.815 Y100.547 E.01094
G1 X121.062 Y100.596 E.01094
G1 X121.314 Y100.612 E.01094
G1 X121.565 Y100.596 E.01094
G1 X121.812 Y100.547 E.01094
G1 X122.051 Y100.465 E.01096
G1 X122.281 Y100.351 E.01114
G1 X122.486 Y100.214 E.0107
G1 X122.675 Y100.048 E.01094
G1 X122.842 Y99.859 E.01094
G1 X122.978 Y99.654 E.0107
G1 X123.093 Y99.424 E.01114
G1 X123.174 Y99.185 E.01096
G1 X123.223 Y98.938 E.01094
G1 X123.239 Y98.686 E.01094
G1 X123.223 Y98.435 E.01094
G1 X123.174 Y98.188 E.01094
G1 X123.093 Y97.949 E.01093
G1 X122.981 Y97.723 E.01094
G1 X122.844 Y97.518 E.0107
G1 X122.675 Y97.324 E.01117
G1 X122.482 Y97.155 E.01117
G1 X122.277 Y97.018 E.0107
G1 X122.051 Y96.907 E.01094
G1 X121.812 Y96.826 E.01094
G1 X121.564 Y96.777 E.01096
G1 X121.308 Y96.761 E.01114
G1 X121.062 Y96.777 E.0107
G1 X120.815 Y96.826 E.01094
G1 X120.576 Y96.907 E.01096
G1 X120.346 Y97.021 E.01114
G1 X120.141 Y97.158 E.0107
G1 X119.952 Y97.324 E.01094
G1 X119.786 Y97.514 E.01094
G1 X119.646 Y97.723 E.01094
G1 X119.534 Y97.949 E.01094
G1 X119.453 Y98.188 E.01094
G1 X119.404 Y98.435 E.01094
G1 X119.388 Y98.686 E.01094
G1 X119.404 Y98.938 E.01094
G1 X119.453 Y99.185 E.01094
G1 X119.534 Y99.423 E.01093
G1 X119.646 Y99.649 E.01094
G1 X119.783 Y99.854 E.0107
G1 X119.951 Y100.048 E.01114
G1 X120.141 Y100.214 E.01096
G1 X120.351 Y100.354 E.01094
G1 X120.51 Y100.433 E.00771
G1 X120.381 Y100.869 F18000
;TYPE:Inner wall
G1 F1500
G1 X120.405 Y100.881 E.00113
G1 X120.699 Y100.981 E.01349
G1 X121.004 Y101.041 E.01349
G1 X121.314 Y101.062 E.01349
G1 X121.624 Y101.041 E.01349
G1 X121.928 Y100.981 E.01349
G1 X122.224 Y100.88 E.01355
G1 X122.506 Y100.74 E.01369
G1 X122.76 Y100.571 E.01322
G1 X122.993 Y100.366 E.01349
G1 X123.198 Y100.132 E.01349
G1 X123.367 Y99.879 E.01322
G1 X123.508 Y99.597 E.01369
G1 X123.608 Y99.301 E.01355
G1 X123.669 Y98.996 E.01349
G1 X123.689 Y98.686 E.01349
G1 X123.669 Y98.376 E.01349
G1 X123.608 Y98.071 E.01349
G1 X123.508 Y97.777 E.01349
G1 X123.371 Y97.499 E.01349
G1 X123.201 Y97.245 E.01323
G1 X122.993 Y97.007 E.01375
G1 X122.755 Y96.798 E.01375
G1 X122.501 Y96.629 E.01322
G1 X122.223 Y96.492 E.01349
G1 X121.928 Y96.392 E.01349
G1 X121.622 Y96.331 E.01355
G1 X121.308 Y96.311 E.01369
G1 X121.004 Y96.331 E.01322
G1 X120.699 Y96.392 E.01349
G1 X120.403 Y96.492 E.01355
G1 X120.121 Y96.633 E.01369
G1 X119.868 Y96.802 E.01322
G1 X119.634 Y97.007 E.01349
G1 X119.429 Y97.24 E.01349
G1 X119.256 Y97.499 E.01349
G1 X119.119 Y97.777 E.01349
G1 X119.019 Y98.071 E.01349
G1 X118.959 Y98.376 E.01349
G1 X118.938 Y98.686 E.01349
G1 X118.959 Y98.996 E.01349
G1 X119.019 Y99.301 E.01349
G1 X119.119 Y99.595 E.01349
G1 X119.256 Y99.874 E.01349
G1 X119.426 Y100.127 E.01323
G1 X119.633 Y100.365 E.01369
G1 X119.868 Y100.571 E.01355
G1 X120.126 Y100.743 E.01349
G1 X120.327 Y100.843 E.00975
G1 E-1.75 F6000
;WIPE_START
G1 F1500
G1 X120.405 Y100.881 E-.06455
G1 X120.699 Y100.981 E-.23304
G1 X121.004 Y101.041 E-.23303
G1 X121.295 Y101.06 E-.21937
;WIPE_END
G1 X119.646 Y120.352 F18000
G1 E2.5 F6000
;TYPE:Outer wall
G1 F1500
G1 X119.534 Y120.576 E.01086
G1 X119.453 Y120.815 E.01096
G1 X119.404 Y121.062 E.01094
