; HEADER_BLOCK_START
; generated by AnycubicSlicerNext 1.3.5.3 on 2025-06-09 at 16:04:49
; total layer number: 100
; filament_density: 1.24
; filament_diameter: 1.75
; max_z_height: 20.04
; exclude_object: 0
; model_instances: 1
; source_info: {"models":[{"file_source":0,"mo_file_id":-1,"name":"SERVO_CAP_HOLD1.stl_id_0_copy_0"}],"models_from":0,"plate_index":1,"slice_paras_process":1,"software_version":"AnycubicSlicerNext 1.3.5.3 20250605160757"}
; HEADER_BLOCK_END

; THUMBNAIL_BLOCK_START
; THUMBNAIL_BLOCK_END

; external perimeters extrusion width = 0.42mm
; perimeters extrusion width = 0.45mm
; infill extrusion width = 0.45mm
; solid infill extrusion width = 0.42mm
; top infill extrusion width = 0.42mm
; support material extrusion width = 0.40mm
; first layer extrusion width = 0.50mm

; EXECUTABLE_BLOCK_START
M201 X2000 Y2000 Z800 E2000 ; sets machine_max_acceleration_x, y, z, e (mm/sec^2)
M203 X300 Y300 Z8 E100 ; sets machine_max_speed_x, y, z, e (mm/sec)
M204 P2000 R2000 T2000 ; sets machine_max_acceleration(mm/sec^2) M204 P[print] R[retract] T[travel]
M205 X10.00 Y10.00 Z2.00 E5.00 ; sets the jerk limits, mm/sec
;TYPE:Custom
G90 ; use absolute coordinates
M83 ; extruder relative mode
M104 S220 ; set extruder temp
M140 S60 ; set bed temp
M190 S60 ; wait for bed temp
M109 S220 ; wait for extruder temp
G28                                        ; move X/Y/Z to min endstops
G1 Z0.28                                   ; lift nozzle a bit 
G92 E0 
G1 Y3 F1800                                    ; zero the extruded length 
G1 X60  E25 F500                       ; Extrude 25mm of filament in a 5cm line. 
G92 E0                                     ; zero the extruded length again 
G1 E-2 F500                                ; Retract a little 
G1 X70 F4000                              ; Quickly wipe away from the filament line
M117
G90
G21
M83 ; use relative distances for extrusion
; filament start gcode
M106 S0
;LAYER_CHANGE
;Z:0.24
;HEIGHT:0.24
; BEFORE_LAYER_CHANGE 0 @ 0.24mm
G92 E0
G1 E-2.5 F6000
; AFTER_LAYER_CHANGE 0 @ 0.24mm
M204 P500
; printing object "SERVO_CAP_HOLD1.stl" id:0 copy 0
G1 X108.935 Y90.359 F18000
G1 Z.24
G1 E2.5 F6000
;TYPE:Outer wall
;WIDTH:0.5
G1 F1500
G1 X109.263 Y90.339 E.01424
G1 X110.349 Y90.33 E.04717
G1 X111.03 Y90.352 E.02959
G1 X112.011 Y90.428 E.04268
G1 X112.985 Y90.553 E.04266
G1 X113.953 Y90.726 E.04266
G1 X114.91 Y90.948 E.04266
G1 X115.855 Y91.217 E.04265
G1 X116.786 Y91.532 E.04265
G1 X117.699 Y91.894 E.04264
G1 X118.593 Y92.301 E.04265
G1 X119.466 Y92.752 E.04265
G1 X120.316 Y93.247 E.04269
G1 X120.982 Y93.676 E.03441
G1 X121.778 Y94.24 E.04234
G1 X122.55 Y94.848 E.04266
G1 X123.291 Y95.493 E.04264
G1 X123.999 Y96.175 E.04265
G1 X124.672 Y96.891 E.04266
G1 X125.308 Y97.64 E.04266
G1 X125.906 Y98.419 E.04264
G1 X126.464 Y99.228 E.04264
G1 X126.982 Y100.064 E.04269
G1 X127.364 Y100.749 E.03407
G1 X127.805 Y101.628 E.04268
G1 X128.201 Y102.527 E.04264
G1 X128.551 Y103.445 E.04265
G1 X128.855 Y104.38 E.04266
G1 X129.112 Y105.328 E.04266
G1 X129.321 Y106.288 E.04264
G1 X129.483 Y107.257 E.04265
G1 X129.595 Y108.233 E.04265
G1 X129.659 Y109.214 E.04266
G1 X129.674 Y110.197 E.04265
G1 X129.639 Y111.178 E.04264
G1 X129.556 Y112.157 E.04265
G1 X129.424 Y113.131 E.04265
G1 X129.243 Y114.097 E.04266
G1 X129.015 Y115.053 E.04266
G1 X128.739 Y115.996 E.04265
G1 X128.416 Y116.924 E.04265
G1 X128.048 Y117.835 E.04265
G1 X127.634 Y118.726 E.04264
G1 X127.176 Y119.596 E.04268
G1 X126.78 Y120.273 E.03406
G1 X126.246 Y121.099 E.04268
G1 X125.671 Y121.896 E.04265
G1 X125.058 Y122.663 E.04265
G1 X124.407 Y123.399 E.04266
G1 X123.72 Y124.102 E.04266
G1 X122.999 Y124.769 E.04265
G1 X122.245 Y125.4 E.04265
G1 X121.46 Y125.992 E.04268
G1 X120.807 Y126.441 E.0344
G1 X119.979 Y126.956 E.04233
G1 X119.12 Y127.434 E.04266
G1 X118.238 Y127.867 E.04266
G1 X117.336 Y128.256 E.04265
G1 X116.415 Y128.6 E.04265
G1 X115.479 Y128.897 E.04265
G1 X114.528 Y129.147 E.04266
G1 X113.567 Y129.349 E.04266
G1 X112.596 Y129.503 E.04268
G1 X111.808 Y129.592 E.0344
G1 X110.835 Y129.657 E.04234
G1 X109.852 Y129.674 E.04265
G1 X108.87 Y129.642 E.04265
G1 X107.891 Y129.562 E.04265
G1 X106.917 Y129.432 E.04265
G1 X105.951 Y129.254 E.04266
G1 X104.995 Y129.028 E.04265
G1 X104.051 Y128.754 E.04264
G1 X103.121 Y128.433 E.04269
G1 X102.392 Y128.144 E.03406
G1 X101.495 Y127.742 E.04268
G1 X100.62 Y127.295 E.04266
G1 X99.768 Y126.805 E.04266
G1 X98.942 Y126.273 E.04265
G1 X98.143 Y125.701 E.04264
G1 X97.374 Y125.089 E.04266
G1 X96.636 Y124.44 E.04266
G1 X95.937 Y123.76 E.04233
G1 X95.394 Y123.183 E.03441
G1 X94.754 Y122.436 E.04269
G1 X94.152 Y121.66 E.04264
G1 X93.59 Y120.854 E.04264
G1 X93.068 Y120.021 E.04266
G1 X92.589 Y119.163 E.04266
G1 X92.153 Y118.283 E.04266
G1 X91.762 Y117.381 E.04264
G1 X91.416 Y116.462 E.04265
G1 X91.117 Y115.526 E.04266
G1 X90.865 Y114.576 E.04265
G1 X90.66 Y113.615 E.04265
G1 X90.503 Y112.644 E.04269
G1 X90.414 Y111.865 E.03406
G1 X90.345 Y110.884 E.04268
G1 X90.325 Y109.902 E.04264
G1 X90.355 Y108.92 E.04266
G1 X90.433 Y107.94 E.04266
G1 X90.56 Y106.966 E.04266
G1 X90.736 Y105.999 E.04265
G1 X90.96 Y105.042 E.04265
G1 X91.231 Y104.097 E.04269
G1 X91.482 Y103.354 E.03406
G1 X91.837 Y102.437 E.04268
G1 X92.237 Y101.539 E.04265
G1 X92.681 Y100.663 E.04265
G1 X93.169 Y99.81 E.04265
G1 X93.699 Y98.983 E.04266
G1 X94.269 Y98.182 E.04266
G1 X94.879 Y97.412 E.04265
G1 X95.526 Y96.673 E.04265
G1 X96.21 Y95.967 E.04265
G1 X96.927 Y95.296 E.04265
G1 X97.678 Y94.661 E.04265
G1 X98.46 Y94.065 E.04269
G1 X99.111 Y93.613 E.0344
G1 X99.936 Y93.094 E.04234
G1 X100.793 Y92.612 E.04266
G1 X101.672 Y92.174 E.04264
G1 X102.573 Y91.781 E.04265
G1 X103.492 Y91.433 E.04266
G1 X104.427 Y91.131 E.04266
G1 X105.376 Y90.876 E.04265
G1 X106.337 Y90.669 E.04265
G1 X107.306 Y90.51 E.04265
G1 X108.282 Y90.4 E.04265
G1 X108.875 Y90.363 E.02578
G1 X108.963 Y90.807 F18000
;TYPE:Inner wall
G1 F1500
G1 X109.278 Y90.787 E.01371
G1 X110.344 Y90.779 E.04625
G1 X111.006 Y90.8 E.02876
G1 X111.965 Y90.874 E.04175
G1 X112.917 Y90.996 E.04168
G1 X113.863 Y91.166 E.04169
G1 X114.798 Y91.382 E.04168
G1 X115.722 Y91.645 E.04168
G1 X116.631 Y91.953 E.04168
G1 X117.523 Y92.307 E.04167
G1 X118.397 Y92.705 E.04168
G1 X119.25 Y93.145 E.04168
G1 X120.082 Y93.629 E.04176
G1 X120.731 Y94.047 E.03353
G1 X121.509 Y94.599 E.04142
G1 X122.264 Y95.193 E.04168
G1 X122.988 Y95.824 E.04167
G1 X123.679 Y96.49 E.04168
G1 X124.337 Y97.19 E.04169
G1 X124.959 Y97.922 E.04169
G1 X125.543 Y98.684 E.04167
G1 X126.088 Y99.473 E.04167
G1 X126.595 Y100.292 E.04177
G1 X126.968 Y100.959 E.03319
G1 X127.399 Y101.819 E.04176
G1 X127.786 Y102.698 E.04167
G1 X128.128 Y103.595 E.04167
G1 X128.425 Y104.508 E.04169
G1 X128.676 Y105.435 E.04169
G1 X128.881 Y106.373 E.04167
G1 X129.038 Y107.32 E.04167
G1 X129.148 Y108.274 E.04168
G1 X129.211 Y109.232 E.04169
G1 X129.225 Y110.192 E.04168
G1 X129.192 Y111.152 E.04167
G1 X129.11 Y112.108 E.04167
G1 X128.981 Y113.06 E.04168
G1 X128.805 Y114.004 E.04169
G1 X128.581 Y114.938 E.04169
G1 X128.312 Y115.859 E.04168
G1 X127.996 Y116.766 E.04168
G1 X127.636 Y117.656 E.04168
G1 X127.232 Y118.527 E.04167
G1 X126.784 Y119.378 E.04176
G1 X126.398 Y120.038 E.03318
G1 X125.875 Y120.845 E.04175
G1 X125.314 Y121.625 E.04168
G1 X124.714 Y122.375 E.04168
G1 X124.078 Y123.094 E.04169
G1 X123.407 Y123.781 E.04169
G1 X122.702 Y124.433 E.04168
G1 X121.966 Y125.049 E.04167
G1 X121.198 Y125.628 E.04175
G1 X120.561 Y126.066 E.03353
G1 X119.752 Y126.57 E.04141
G1 X118.912 Y127.036 E.04169
G1 X118.05 Y127.46 E.04169
G1 X117.168 Y127.84 E.04168
G1 X116.269 Y128.176 E.04168
G1 X115.354 Y128.466 E.04167
G1 X114.425 Y128.71 E.04169
G1 X113.485 Y128.908 E.04168
G1 X112.535 Y129.058 E.04175
G1 X111.768 Y129.145 E.03352
G1 X110.816 Y129.209 E.04142
G1 X109.856 Y129.226 E.04168
G1 X108.896 Y129.195 E.04168
G1 X107.939 Y129.116 E.04168
G1 X106.987 Y128.989 E.04168
G1 X106.043 Y128.815 E.04169
G1 X105.109 Y128.594 E.04167
G1 X104.187 Y128.326 E.04167
G1 X103.277 Y128.013 E.04177
G1 X102.566 Y127.731 E.03319
G1 X101.689 Y127.337 E.04175
G1 X100.834 Y126.901 E.04169
G1 X100.001 Y126.422 E.04168
G1 X99.194 Y125.902 E.04168
G1 X98.414 Y125.343 E.04167
G1 X97.662 Y124.745 E.04169
G1 X96.941 Y124.111 E.04169
G1 X96.257 Y123.446 E.04141
G1 X95.728 Y122.883 E.03353
G1 X95.102 Y122.153 E.04176
G1 X94.513 Y121.394 E.04167
G1 X93.964 Y120.607 E.04167
G1 X93.454 Y119.793 E.04168
G1 X92.986 Y118.955 E.04168
G1 X92.56 Y118.094 E.04169
G1 X92.178 Y117.213 E.04167
G1 X91.84 Y116.314 E.04168
G1 X91.547 Y115.4 E.04169
G1 X91.301 Y114.472 E.04167
G1 X91.101 Y113.533 E.04168
G1 X90.948 Y112.583 E.04177
G1 X90.86 Y111.824 E.03318
G1 X90.793 Y110.864 E.04176
G1 X90.774 Y109.904 E.04167
G1 X90.803 Y108.944 E.04168
G1 X90.879 Y107.987 E.04169
G1 X91.004 Y107.035 E.04168
G1 X91.175 Y106.09 E.04167
G1 X91.394 Y105.156 E.04168
G1 X91.66 Y104.231 E.04176
G1 X91.903 Y103.506 E.03319
G1 X92.251 Y102.609 E.04176
G1 X92.642 Y101.732 E.04168
G1 X93.076 Y100.876 E.04167
G1 X93.553 Y100.043 E.04168
G1 X94.071 Y99.234 E.04168
G1 X94.628 Y98.452 E.04169
G1 X95.224 Y97.699 E.04168
G1 X95.856 Y96.977 E.04168
G1 X96.524 Y96.287 E.04168
G1 X97.226 Y95.631 E.04167
G1 X97.959 Y95.011 E.04168
G1 X98.724 Y94.428 E.04176
G1 X99.358 Y93.987 E.03353
G1 X100.166 Y93.479 E.04142
G1 X101.003 Y93.009 E.04169
G1 X101.862 Y92.581 E.04167
G1 X102.742 Y92.196 E.04168
G1 X103.64 Y91.856 E.04169
G1 X104.554 Y91.561 E.04168
G1 X105.481 Y91.312 E.04168
G1 X106.42 Y91.11 E.04168
G1 X107.368 Y90.955 E.04168
G1 X108.322 Y90.847 E.04167
G1 X108.903 Y90.811 E.0253
G1 E-1.75 F6000
;WIPE_START
G1 F1500
G1 X109.278 Y90.787 E-.28189
G1 X109.902 Y90.782 E-.46811
;WIPE_END
G1 X100.005 Y119.914 F18000
G1 E2.5 F6000
;TYPE:Outer wall
G1 F1500
G1 X99.859 Y119.786 E.00846
G1 X99.649 Y119.646 E.01094
G1 X99.423 Y119.534 E.01094
G1 X99.185 Y119.453 E.01094
G1 X98.937 Y119.404 E.01098
G1 X98.677 Y119.388 E.01127
G1 X98.435 Y119.404 E.01055
G1 X98.188 Y119.453 E.01094
G1 X97.949 Y119.534 E.01094
G1 X97.723 Y119.646 E.01093
G1 X97.514 Y119.786 E.01094
G1 X97.324 Y119.952 E.01094
G1 X97.158 Y120.141 E.01094
G1 X97.018 Y120.351 E.01094
G1 X96.907 Y120.577 E.01094
G1 X96.826 Y120.815 E.01094
G1 X96.778 Y121.054 E.01055
G1 X96.76 Y121.313 E.01127
G1 X96.777 Y121.565 E.01098
G1 X96.826 Y121.812 E.01094
G1 X96.907 Y122.051 E.01094
G1 X97.018 Y122.277 E.01094
G1 X97.158 Y122.486 E.01094
G1 X97.324 Y122.676 E.01094
G1 X97.514 Y122.842 E.01094
G1 X97.723 Y122.982 E.01094
G1 X97.949 Y123.093 E.01094
G1 X98.188 Y123.174 E.01094
G1 X98.435 Y123.223 E.01094
G1 X98.686 Y123.24 E.01094
G1 X98.938 Y123.223 E.01094
G1 X99.185 Y123.174 E.01094
G1 X99.423 Y123.093 E.01094
G1 X99.649 Y122.982 E.01094
G1 X99.859 Y122.842 E.01094
G1 X100.048 Y122.676 E.01094
G1 X100.214 Y122.486 E.01094
G1 X100.354 Y122.277 E.01094
G1 X100.465 Y122.051 E.01094
G1 X100.546 Y121.812 E.01094
G1 X100.594 Y121.574 E.01055
G1 X100.612 Y121.315 E.01127
G1 X100.596 Y121.062 E.01098
G1 X100.546 Y120.815 E.01094
G1 X100.465 Y120.577 E.01094
G1 X100.354 Y120.351 E.01094
G1 X100.214 Y120.141 E.01094
G1 X100.05 Y119.954 E.0108
G1 X100.346 Y119.617 F18000
;TYPE:Inner wall
G1 F1500
G1 X100.132 Y119.429 E.01235
G1 X99.874 Y119.257 E.01349
G1 X99.595 Y119.119 E.01349
G1 X99.301 Y119.019 E.01349
G1 X98.994 Y118.958 E.01358
G1 X98.676 Y118.939 E.01383
G1 X98.376 Y118.959 E.01305
G1 X98.071 Y119.019 E.01349
G1 X97.777 Y119.119 E.01349
G1 X97.498 Y119.257 E.01349
G1 X97.24 Y119.429 E.01349
G1 X97.007 Y119.634 E.01349
G1 X96.802 Y119.868 E.01349
G1 X96.629 Y120.126 E.01349
G1 X96.492 Y120.405 E.01349
G1 X96.392 Y120.699 E.01349
G1 X96.333 Y120.994 E.01305
G1 X96.311 Y121.312 E.01383
G1 X96.331 Y121.624 E.01358
G1 X96.392 Y121.929 E.01349
G1 X96.492 Y122.223 E.01349
G1 X96.629 Y122.501 E.01349
G1 X96.802 Y122.76 E.01349
G1 X97.007 Y122.993 E.01349
G1 X97.24 Y123.198 E.01349
G1 X97.498 Y123.371 E.01349
G1 X97.777 Y123.508 E.01349
G1 X98.071 Y123.608 E.01349
G1 X98.376 Y123.669 E.01349
G1 X98.686 Y123.689 E.01349
G1 X98.996 Y123.669 E.01349
G1 X99.301 Y123.608 E.01349
G1 X99.595 Y123.508 E.01349
G1 X99.874 Y123.371 E.01349
G1 X100.132 Y123.198 E.01349
G1 X100.366 Y122.993 E.01349
G1 X100.571 Y122.76 E.01349
G1 X100.743 Y122.501 E.01349
G1 X100.881 Y122.223 E.01349
G1 X100.981 Y121.928 E.01349
G1 X101.039 Y121.634 E.01305
G1 X101.062 Y121.316 E.01383
G1 X101.041 Y121.004 E.01358
G1 X100.981 Y120.699 E.01349
G1 X100.881 Y120.405 E.01349
G1 X100.743 Y120.126 E.01349
G1 X100.571 Y119.868 E.01349
G1 X100.388 Y119.66 E.01202
G1 E-1.75 F6000
;WIPE_START
G1 F1500
G1 X100.132 Y119.429 E-.25821
G1 X99.874 Y119.257 E-.23304
G1 X99.595 Y119.119 E-.23304
G1 X99.563 Y119.108 E-.02571
;WIPE_END
G1 X123.172 Y121.818 F18000
G1 E2.5 F6000
;TYPE:Outer wall
G1 F1500
G1 X123.174 Y121.812 E.00026
G1 X123.221 Y121.574 E.01055
G1 X123.24 Y121.315 E.01127
G1 X123.223 Y121.062 E.01098
G1 X123.174 Y120.815 E.01094
G1 X123.093 Y120.577 E.01094
G1 X122.981 Y120.351 E.01094
G1 X122.842 Y120.141 E.01094
G1 X122.675 Y119.952 E.01094
G1 X122.486 Y119.786 E.01094
G1 X122.277 Y119.646 E.01094
G1 X122.051 Y119.534 E.01094
G1 X121.812 Y119.453 E.01094
G1 X121.564 Y119.404 E.01098
G1 X121.305 Y119.388 E.01127
G1 X121.062 Y119.404 E.01055
G1 X120.815 Y119.453 E.01094
G1 X120.577 Y119.534 E.01094
G1 X120.351 Y119.646 E.01093
G1 X120.141 Y119.786 E.01094
G1 X119.952 Y119.952 E.01094
G1 X119.786 Y120.141 E.01094
G1 X119.646 Y120.351 E.01094
G1 X119.534 Y120.577 E.01093
G1 X119.453 Y120.815 E.01094
G1 X119.406 Y121.054 E.01055
G1 X119.388 Y121.313 E.01127
G1 X119.404 Y121.565 E.01098
G1 X119.453 Y121.812 E.01094
G1 X119.534 Y122.051 E.01094
G1 X119.646 Y122.277 E.01094
G1 X119.786 Y122.486 E.01094
G1 X119.952 Y122.676 E.01094
G1 X120.141 Y122.842 E.01094
G1 X120.351 Y122.982 E.01094
G1 X120.577 Y123.093 E.01094
G1 X120.815 Y123.174 E.01094
G1 X121.062 Y123.223 E.01094
G1 X121.314 Y123.24 E.01094
G1 X121.565 Y123.223 E.01094
G1 X121.812 Y123.174 E.01094
G1 X122.051 Y123.093 E.01094
G1 X122.277 Y122.982 E.01094
G1 X122.486 Y122.842 E.01094
G1 X122.675 Y122.676 E.01094
G1 X122.842 Y122.486 E.01094
G1 X122.981 Y122.277 E.01094
G1 X123.093 Y122.051 E.01093
G1 X123.153 Y121.875 E.00807
G1 X123.6 Y121.953 F18000
;TYPE:Inner wall
G1 F1500
G1 X123.608 Y121.928 E.00113
G1 X123.667 Y121.634 E.01305
G1 X123.689 Y121.316 E.01383
G1 X123.669 Y121.004 E.01358
G1 X123.608 Y120.699 E.01349
G1 X123.508 Y120.405 E.01349
G1 X123.371 Y120.126 E.01349
G1 X123.198 Y119.868 E.01349
G1 X122.993 Y119.634 E.01349
G1 X122.76 Y119.429 E.01349
G1 X122.501 Y119.257 E.01349
G1 X122.223 Y119.119 E.01349
G1 X121.928 Y119.019 E.01349
G1 X121.621 Y118.958 E.01358
G1 X121.304 Y118.939 E.01383
G1 X121.004 Y118.959 E.01305
G1 X120.699 Y119.019 E.01349
G1 X120.405 Y119.119 E.01349
G1 X120.126 Y119.257 E.01349
G1 X119.868 Y119.429 E.01349
G1 X119.634 Y119.634 E.01349
G1 X119.429 Y119.868 E.01349
G1 X119.256 Y120.126 E.01349
G1 X119.119 Y120.405 E.01349
G1 X119.019 Y120.699 E.01349
G1 X118.96 Y120.994 E.01305
G1 X118.938 Y121.312 E.01383
G1 X118.959 Y121.624 E.01358
G1 X119.019 Y121.929 E.01349
G1 X119.119 Y122.223 E.01349
G1 X119.256 Y122.501 E.01349
G1 X119.429 Y122.76 E.01349
G1 X119.634 Y122.993 E.01349
G1 X119.868 Y123.198 E.01349
G1 X120.126 Y123.371 E.01349
G1 X120.405 Y123.508 E.01349
G1 X120.699 Y123.608 E.01349
G1 X121.004 Y123.669 E.01349
G1 X121.314 Y123.689 E.01349
G1 X121.624 Y123.669 E.01349
G1 X121.928 Y123.608 E.01349
G1 X122.223 Y123.508 E.01349
G1 X122.501 Y123.371 E.01349
G1 X122.76 Y123.198 E.01349
G1 X122.993 Y122.993 E.01349
