; HEADER_BLOCK_START
; generated by AnycubicSlicerNext 1.3.3.1 on 2025-04-18 at 17:55:53
; total layer number: 50
; filament_density: 1.24
; filament_diameter: 1.75
; max_z_height: 10.04
; exclude_object: 0
; model_instances: 4
; HEADER_BLOCK_END

; THUMBNAIL_BLOCK_START
; THUMBNAIL_BLOCK_END

; external perimeters extrusion width = 0.42mm
; perimeters extrusion width = 0.45mm
; infill extrusion width = 0.45mm
; solid infill extrusion width = 0.42mm
; top infill extrusion width = 0.42mm
; first layer extrusion width = 0.50mm

; external perimeters extrusion width = 0.42mm
; perimeters extrusion width = 0.45mm
; infill extrusion width = 0.45mm
; solid infill extrusion width = 0.42mm
; top infill extrusion width = 0.42mm
; first layer extrusion width = 0.50mm

; external perimeters extrusion width = 0.42mm
; perimeters extrusion width = 0.45mm
; infill extrusion width = 0.45mm
; solid infill extrusion width = 0.42mm
; top infill extrusion width = 0.42mm
; first layer extrusion width = 0.50mm

; external perimeters extrusion width = 0.42mm
; perimeters extrusion width = 0.45mm
; infill extrusion width = 0.45mm
; solid infill extrusion width = 0.42mm
; top infill extrusion width = 0.42mm
; first layer extrusion width = 0.50mm

; EXECUTABLE_BLOCK_START
M201 X2000 Y2000 Z800 E2000
M203 X300 Y300 Z8 E100
M204 P2000 R2000 T2000
M205 X10.00 Y10.00 Z2.00 E5.00 ; sets the jerk limits, mm/sec
;TYPE:Custom
G90 ; use absolute coordinates
M83 ; extruder relative mode
M104 S220 ; set extruder temp
M140 S60 ; set bed temp
M190 S60 ; wait for bed temp
M109 S220 ; wait for extruder temp
G28                                        ; move X/Y/Z to min endstops
G1 Z0.28                                   ; lift nozzle a bit 
G92 E0 
G1 Y3 F1800                                    ; zero the extruded length 
G1 X60  E25 F500                       ; Extrude 25mm of filament in a 5cm line. 
G92 E0                                     ; zero the extruded length again 
G1 E-2 F500                                ; Retract a little 
G1 X70 F4000                              ; Quickly wipe away from the filament line
M117
G90
G21
M83 ; use relative distances for extrusion
; filament start gcode
M106 S0
;LAYER_CHANGE
;Z:0.24
;HEIGHT:0.24
; BEFORE_LAYER_CHANGE 0 @ 0.24mm
G92 E0
G1 E-2.5 F6000
; AFTER_LAYER_CHANGE 0 @ 0.24mm
M204 P500
; printing object "spacers.stl" id:0 copy 0
M204 T500
G1 X76.124 Y153.606 F18000
G1 Z.24
G1 E2.5 F6000
;TYPE:Brim
;WIDTH:0.5
;MM3_PER_MM:0.107639
G1 F1500
G1 X76.943 Y153.202 E.03964
G1 X77.55 Y153.015 E.02755
G1 X78.179 Y152.92 E.02762
G1 X80.531 Y152.907 E.10209
G1 X81.172 Y152.955 E.02793
G1 X81.35 Y152.996 E.0079
G1 X81.45 Y152.996 E.00433
G1 X81.623 Y152.956 E.00773
G1 X82.27 Y152.907 E.02815
G1 X83.28 Y152.907 E.04385
G1 X83.439 Y152.841 E.00746
G1 X83.616 Y152.664 E.01088
G1 X84.125 Y152.287 E.0275
G1 X84.844 Y151.924 E.03495
G1 X85.551 Y151.697 E.03225
G1 X86.183 Y151.601 E.02772
G1 X141.492 Y151.589 E2.40089
G1 X142.134 Y151.637 E.02796
G1 X142.755 Y151.779 E.02763
G1 X143.31 Y151.991 E.0258
G1 X143.875 Y152.29 E.02774
G1 X144.386 Y152.667 E.02759
G1 X144.836 Y153.116 E.02759
G1 X145.213 Y153.625 E.0275
G1 X145.576 Y154.344 E.03495
G1 X145.803 Y155.051 E.03225
G1 X145.899 Y155.683 E.02772
G1 X145.911 Y156.004 E.01398
G1 X145.911 Y165.992 E.43354
G1 X145.863 Y166.634 E.02796
G1 X145.721 Y167.256 E.02768
G1 X145.556 Y167.702 E.02066
G1 X145.21 Y168.376 E.03288
G1 X144.833 Y168.886 E.02754
G1 X144.384 Y169.336 E.02759
G1 X143.875 Y169.713 E.0275
G1 X143.156 Y170.076 E.03495
G1 X142.449 Y170.303 E.03225
G1 X141.817 Y170.399 E.02772
G1 X86.508 Y170.411 E2.40089
G1 X85.866 Y170.363 E.02796
G1 X85.244 Y170.221 E.02768
G1 X84.798 Y170.056 E.02066
G1 X84.124 Y169.71 E.03288
G1 X83.614 Y169.333 E.02754
G1 X83.164 Y168.884 E.02759
G1 X82.788 Y168.376 E.02745
G1 X82.385 Y167.557 E.03964
G1 X82.197 Y166.95 E.02755
G1 X82.102 Y166.321 E.02761
G1 X82.089 Y163.287 E.13173
G1 X82.04 Y163.147 E.00641
G1 X81.882 Y163.064 E.00777
G1 X81.628 Y163.045 E.01107
G1 X81.45 Y163.004 E.0079
G1 X81.35 Y163.004 E.00433
G1 X81.177 Y163.044 E.00773
G1 X80.53 Y163.093 E.02815
G1 X78.508 Y163.093 E.08776
G1 X77.866 Y163.045 E.02796
G1 X77.244 Y162.903 E.02768
G1 X76.798 Y162.738 E.02066
G1 X76.124 Y162.392 E.03288
G1 X75.614 Y162.015 E.02754
G1 X75.164 Y161.566 E.02759
G1 X74.788 Y161.058 E.02745
G1 X74.385 Y160.239 E.03964
G1 X74.197 Y159.632 E.02755
G1 X74.102 Y159.003 E.02763
G1 X74.089 Y157.325 E.07283
G1 X74.137 Y156.684 E.02792
G1 X74.279 Y156.062 E.02768
G1 X74.444 Y155.616 E.02066
G1 X74.79 Y154.942 E.03288
G1 X75.167 Y154.431 E.02754
G1 X75.616 Y153.982 E.02759
G1 X76.092 Y153.629 E.02571
G1 X76.359 Y153.993 F18000
G1 F1500
G1 X76.369 Y153.985 E.00058
G1 X77.12 Y153.617 E.03628
G1 X77.66 Y153.452 E.02453
G1 X78.204 Y153.37 E.02389
G1 X80.51 Y153.356 E.10008
G1 X81.445 Y153.443 E.04077
G1 X81.701 Y153.4 E.01126
G1 X82.282 Y153.356 E.0253
G1 X83.267 Y153.356 E.04276
G1 X83.464 Y153.316 E.00873
G1 X83.598 Y153.261 E.00631
G1 X83.766 Y153.149 E.00873
G1 X83.918 Y152.998 E.00928
G1 X84.352 Y152.677 E.02347
G1 X85.005 Y152.345 E.03178
G1 X85.643 Y152.138 E.02914
G1 X86.206 Y152.051 E.02472
G1 X141.48 Y152.038 E2.39935
G1 X142.077 Y152.084 E.02599
G1 X142.615 Y152.207 E.02394
G1 X143.116 Y152.398 E.02331
G1 X143.644 Y152.677 E.02589
G1 X144.1 Y153.015 E.02468
G1 X144.488 Y153.403 E.02381
G1 X144.835 Y153.872 E.02532
G1 X145.163 Y154.524 E.03172
G1 X145.367 Y155.164 E.02915
G1 X145.45 Y155.717 E.02427
G1 X145.462 Y156.015 E.01295
G1 X145.462 Y165.97 E.43211
G1 X145.419 Y166.557 E.02556
G1 X145.292 Y167.119 E.025
G1 X145.141 Y167.528 E.01894
G1 X144.821 Y168.147 E.03026
G1 X144.485 Y168.6 E.02448
G1 X144.082 Y169.002 E.02468
G1 X143.628 Y169.335 E.02445
G1 X142.995 Y169.655 E.0308
G1 X142.357 Y169.862 E.02914
G1 X141.794 Y169.949 E.02472
G1 X86.53 Y169.962 E2.39891
G1 X85.923 Y169.916 E.02642
G1 X85.381 Y169.792 E.02413
G1 X84.987 Y169.647 E.01825
G1 X84.353 Y169.321 E.03095
G1 X83.9 Y168.985 E.02448
G1 X83.512 Y168.597 E.02381
G1 X83.167 Y168.131 E.02519
G1 X82.807 Y167.4 E.03536
G1 X82.634 Y166.84 E.02544
G1 X82.55 Y166.277 E.02472
G1 X82.538 Y163.296 E.12939
G1 X82.468 Y163.011 E.01274
G1 X82.363 Y162.84 E.00872
G1 X82.239 Y162.745 E.00675
G1 X82.103 Y162.674 E.00668
G1 X81.898 Y162.615 E.00927
G1 X81.448 Y162.557 E.01971
G1 X80.508 Y162.644 E.04095
G1 X78.52 Y162.644 E.0863
G1 X77.923 Y162.598 E.02599
G1 X77.381 Y162.474 E.02413
G1 X76.972 Y162.323 E.01894
G1 X76.371 Y162.014 E.02932
G1 X75.915 Y161.68 E.02454
G1 X75.512 Y161.28 E.02468
G1 X75.18 Y160.833 E.02414
G1 X74.799 Y160.062 E.03732
G1 X74.634 Y159.522 E.02453
G1 X74.552 Y158.977 E.02392
G1 X74.538 Y157.335 E.07129
G1 X74.584 Y156.741 E.02586
G1 X74.713 Y156.182 E.02489
G1 X74.859 Y155.79 E.01818
G1 X75.168 Y155.189 E.02932
G1 X75.502 Y154.733 E.02454
G1 X75.918 Y154.316 E.02554
G1 X76.326 Y154.016 E.022
G1 X76.593 Y154.38 F18000
G1 F1500
G1 X76.613 Y154.365 E.00111
G1 X77.295 Y154.033 E.03293
G1 X77.75 Y153.893 E.02066
G1 X78.23 Y153.819 E.02105
G1 X80.484 Y153.804 E.09784
G1 X81.391 Y153.888 E.03955
G1 X82.302 Y153.804 E.03974
G1 X83.364 Y153.793 E.0461
G1 X83.643 Y153.727 E.01244
G1 X83.856 Y153.628 E.01021
G1 X84.006 Y153.527 E.00784
G1 X84.218 Y153.334 E.01242
G1 X84.58 Y153.066 E.01956
G1 X85.167 Y152.765 E.02863
G1 X85.737 Y152.579 E.02603
G1 X86.231 Y152.502 E.02169
G1 X141.468 Y152.487 E2.39777
G1 X142.019 Y152.531 E.024
G1 X142.475 Y152.635 E.02032
G1 X142.923 Y152.804 E.02079
G1 X143.412 Y153.063 E.02401
G1 X143.799 Y153.35 E.0209
G1 X144.141 Y153.689 E.0209
G1 X144.457 Y154.118 E.02312
G1 X144.75 Y154.704 E.02847
G1 X144.93 Y155.277 E.02606
G1 X145.002 Y155.753 E.02088
G1 X145.014 Y156.027 E.01192
G1 X145.014 Y165.948 E.43066
G1 X144.975 Y166.481 E.02318
G1 X144.863 Y166.982 E.0223
G1 X144.726 Y167.354 E.01719
G1 X144.432 Y167.918 E.0276
G1 X144.137 Y168.313 E.02141
G1 X143.781 Y168.666 E.02175
G1 X143.383 Y168.957 E.02141
G1 X142.833 Y169.234 E.02673
G1 X142.263 Y169.421 E.02605
G1 X141.769 Y169.498 E.02169
G1 X86.552 Y169.514 E2.39689
G1 X85.981 Y169.469 E.02489
G1 X85.517 Y169.363 E.02064
G1 X85.16 Y169.232 E.01652
G1 X84.6 Y168.944 E.02733
G1 X84.201 Y168.65 E.0215
G1 X83.86 Y168.311 E.02089
G1 X83.559 Y167.906 E.02189
G1 X83.23 Y167.243 E.03213
G1 X83.076 Y166.75 E.02243
G1 X82.999 Y166.233 E.02269
G1 X82.986 Y163.302 E.12722
G1 X82.971 Y163.181 E.0053
G1 X82.906 Y162.914 E.01194
G1 X82.845 Y162.769 E.00681
G1 X82.753 Y162.617 E.00772
G1 X82.626 Y162.477 E.0082
G1 X82.443 Y162.346 E.00977
G1 X82.218 Y162.24 E.0108
G1 X81.946 Y162.169 E.01219
G1 X81.519 Y162.114 E.01873
G1 X80.481 Y162.196 E.04518
G1 X78.532 Y162.195 E.08459
G1 X77.981 Y162.151 E.02401
G1 X77.518 Y162.046 E.02062
G1 X77.146 Y161.908 E.01723
G1 X76.617 Y161.636 E.0258
G1 X76.215 Y161.344 E.02156
G1 X75.859 Y160.992 E.02176
G1 X75.571 Y160.608 E.02082
G1 X75.215 Y159.886 E.03496
G1 X75.076 Y159.432 E.02062
G1 X75.001 Y158.951 E.02112
G1 X74.987 Y157.345 E.06973
G1 X75.028 Y156.819 E.02289
G1 X75.146 Y156.303 E.02297
G1 X75.274 Y155.964 E.01572
G1 X75.546 Y155.435 E.02584
G1 X75.838 Y155.034 E.02153
G1 X76.204 Y154.665 E.02256
G1 X76.56 Y154.404 E.0192
G1 X76.826 Y154.767 F18000
G1 F1500
G1 X76.857 Y154.745 E.00164
G1 X77.47 Y154.448 E.02959
G1 X77.86 Y154.33 E.01769
G1 X78.276 Y154.268 E.01822
G1 X80.458 Y154.253 E.09473
G1 X81.444 Y154.334 E.04294
G1 X82.32 Y154.253 E.0382
G1 X83.475 Y154.228 E.05014
G1 X83.735 Y154.166 E.01162
G1 X84.04 Y154.036 E.01438
G1 X84.25 Y153.904 E.01077
G1 X84.509 Y153.677 E.01494
G1 X84.808 Y153.455 E.01618
G1 X85.331 Y153.186 E.02551
G1 X85.832 Y153.02 E.02293
G1 X86.256 Y152.952 E.01862
G1 X141.455 Y152.936 E2.39615
G1 X141.96 Y152.978 E.022
G1 X142.354 Y153.069 E.01755
G1 X142.73 Y153.211 E.01745
G1 X143.18 Y153.45 E.02211
G1 X143.498 Y153.685 E.01717
G1 X143.793 Y153.976 E.01796
G1 X144.078 Y154.363 E.02088
G1 X144.336 Y154.883 E.0252
G1 X144.493 Y155.389 E.02299
G1 X144.554 Y155.789 E.01756
G1 X144.565 Y156.04 E.0109
G1 X144.565 Y165.927 E.42919
G1 X144.528 Y166.425 E.02169
G1 X144.434 Y166.847 E.01875
G1 X144.318 Y167.164 E.01467
G1 X144.056 Y167.669 E.0247
G1 X143.804 Y168.01 E.01841
G1 X143.497 Y168.316 E.01882
G1 X143.138 Y168.578 E.01926
G1 X142.671 Y168.814 E.02274
G1 X142.168 Y168.98 E.02299
G1 X141.744 Y169.048 E.01862
G1 X86.575 Y169.065 E2.39482
G1 X86.039 Y169.022 E.02335
G1 X85.653 Y168.934 E.01717
G1 X85.333 Y168.817 E.0148
G1 X84.847 Y168.566 E.02375
G1 X84.502 Y168.314 E.01855
G1 X84.207 Y168.024 E.01797
G1 X83.95 Y167.681 E.0186
G1 X83.652 Y167.085 E.02891
G1 X83.513 Y166.639 E.02029
G1 X83.447 Y166.189 E.01974
G1 X83.435 Y163.307 E.12511
G1 X83.417 Y163.132 E.00764
G1 X83.343 Y162.814 E.01416
G1 X83.262 Y162.603 E.00981
G1 X83.14 Y162.391 E.0106
G1 X82.966 Y162.184 E.01175
G1 X82.709 Y161.986 E.01407
G1 X82.417 Y161.839 E.0142
G1 X82.067 Y161.737 E.01583
G1 X81.588 Y161.671 E.02098
G1 X80.458 Y161.747 E.04917
G1 X78.545 Y161.746 E.08304
G1 X78.04 Y161.704 E.02201
G1 X77.655 Y161.617 E.01714
G1 X77.334 Y161.499 E.01481
G1 X76.862 Y161.258 E.02302
G1 X76.514 Y161.007 E.0186
G1 X76.205 Y160.704 E.01883
G1 X75.962 Y160.383 E.01746
G1 X75.63 Y159.71 E.03259
G1 X75.512 Y159.322 E.01759
G1 X75.451 Y158.924 E.01746
G1 X75.437 Y157.354 E.06816
G1 X75.475 Y156.877 E.02079
G1 X75.58 Y156.424 E.02018
G1 X75.688 Y156.139 E.01323
G1 X75.924 Y155.68 E.02243
G1 X76.174 Y155.333 E.01853
G1 X76.49 Y155.013 E.01951
G1 X76.794 Y154.791 E.01636
G1 X77.057 Y155.156 F18000
G1 F1500
G1 X77.099 Y155.126 E.00225
G1 X77.644 Y154.864 E.02623
G1 X77.969 Y154.767 E.01471
G1 X78.32 Y154.716 E.01542
G1 X80.435 Y154.702 E.0918
G1 X81.496 Y154.779 E.04617
G1 X82.349 Y154.701 E.03718
G1 X83.59 Y154.661 E.05389
G1 X83.919 Y154.575 E.01477
G1 X84.287 Y154.411 E.01751
G1 X84.552 Y154.235 E.01381
G1 X84.786 Y154.03 E.0135
G1 X85.038 Y153.844 E.01359
G1 X85.495 Y153.605 E.0224
G1 X85.929 Y153.461 E.01984
G1 X86.281 Y153.402 E.0155
G1 X141.442 Y153.385 E2.39448
G1 X141.901 Y153.424 E.01996
G1 X142.233 Y153.502 E.01481
G1 X142.537 Y153.617 E.01414
G1 X142.948 Y153.836 E.02021
G1 X143.212 Y154.033 E.01432
G1 X143.445 Y154.263 E.01418
G1 X143.699 Y154.608 E.0186
G1 X143.921 Y155.061 E.0219
G1 X144.056 Y155.5 E.01993
G1 X144.106 Y155.826 E.01431
G1 X144.117 Y156.053 E.00987
G1 X144.117 Y165.905 E.42766
G1 X144.081 Y166.369 E.02019
G1 X144.004 Y166.712 E.01526
G1 X143.909 Y166.975 E.01215
G1 X143.679 Y167.422 E.02181
G1 X143.469 Y167.708 E.01542
G1 X143.212 Y167.967 E.01583
G1 X142.894 Y168.199 E.0171
G1 X142.507 Y168.394 E.0188
G1 X142.071 Y168.539 E.01996
G1 X141.719 Y168.598 E.0155
G1 X86.599 Y168.617 E2.39269
G1 X86.117 Y168.578 E.02098
G1 X85.789 Y168.505 E.01457
G1 X85.506 Y168.401 E.01308
G1 X85.092 Y168.188 E.02022
G1 X84.801 Y167.977 E.01561
G1 X84.553 Y167.735 E.01505
G1 X84.34 Y167.454 E.01529
G1 X84.074 Y166.926 E.02565
G1 X83.954 Y166.549 E.01718
G1 X83.895 Y166.146 E.01768
G1 X83.883 Y163.312 E.12302
G1 X83.852 Y163.022 E.01264
G1 X83.759 Y162.647 E.0168
G1 X83.647 Y162.373 E.01283
G1 X83.478 Y162.097 E.01408
G1 X83.232 Y161.823 E.01597
G1 X82.902 Y161.581 E.01775
G1 X82.533 Y161.405 E.01777
G1 X82.12 Y161.291 E.0186
G1 X81.663 Y161.228 E.02002
G1 X80.438 Y161.299 E.05324
G1 X78.569 Y161.298 E.08113
G1 X78.099 Y161.258 E.02049
G1 X77.79 Y161.188 E.01374
G1 X77.522 Y161.091 E.0124
G1 X77.106 Y160.879 E.02026
G1 X76.812 Y160.669 E.01565
G1 X76.55 Y160.414 E.01591
G1 X76.353 Y160.156 E.01406
G1 X76.045 Y159.534 E.03016
G1 X75.949 Y159.213 E.01452
G1 X75.901 Y158.897 E.01386
G1 X75.886 Y157.364 E.06656
G1 X75.922 Y156.936 E.01864
G1 X76.013 Y156.547 E.01738
G1 X76.102 Y156.315 E.01076
G1 X76.303 Y155.924 E.0191
G1 X76.512 Y155.632 E.01556
G1 X76.792 Y155.348 E.01735
G1 X77.025 Y155.18 E.01246
G1 X77.274 Y155.564 F18000
G1 F1500
G1 X77.489 Y155.424 E.01113
G1 X77.753 Y155.304 E.01259
G1 X78.547 Y155.15 E.03512
G1 X80.501 Y155.15 E.0848
G1 X80.948 Y155.206 E.01955
G1 X81.353 Y155.334 E.01843
G1 X81.436 Y155.333 E.00364
G1 X81.776 Y155.218 E.01556
G1 X82.15 Y155.159 E.01643
G1 X84.44 Y155.151 E.09941
G1 X84.555 Y155.085 E.00576
G1 X84.746 Y154.763 E.01628
G1 X85.005 Y154.458 E.01734
G1 X85.203 Y154.291 E.01123
G1 X85.466 Y154.122 E.0136
G1 X85.858 Y153.954 E.0185
G1 X86.547 Y153.832 E.0304
G1 X141.465 Y153.832 E2.38391
G1 X141.804 Y153.867 E.01477
G1 X142.46 Y154.086 E.03003
G1 X142.572 Y154.143 E.00546
G1 X142.883 Y154.359 E.01645
G1 X143.09 Y154.555 E.01237
G1 X143.213 Y154.71 E.00858
G1 X143.482 Y155.174 E.02326
G1 X143.576 Y155.458 E.01298
G1 X143.647 Y155.827 E.01633
G1 X143.668 Y165.965 E.44006
G1 X143.633 Y166.304 E.01479
G1 X143.414 Y166.96 E.03003
G1 X143.357 Y167.072 E.00546
G1 X143.141 Y167.383 E.01645
G1 X142.945 Y167.59 E.01237
G1 X142.79 Y167.713 E.00858
G1 X142.326 Y167.982 E.02325
G1 X142.035 Y168.076 E.01332
G1 X141.455 Y168.168 E.02547
G1 X86.535 Y168.168 E2.38402
G1 X86.196 Y168.133 E.01477
G1 X85.54 Y167.914 E.03003
G1 X85.428 Y167.857 E.00546
G1 X85.117 Y167.641 E.01645
G1 X84.91 Y167.445 E.01237
G1 X84.786 Y167.288 E.00865
G1 X84.568 Y166.932 E.01814
G1 X84.429 Y166.57 E.01683
G1 X84.36 Y166.248 E.0143
G1 X84.332 Y165.968 E.0122
G1 X84.332 Y160.98 E.21653
G1 X84.284 Y160.877 E.00492
G1 X84.198 Y160.846 E.004
G1 X82.19 Y160.838 E.08716
G1 X81.801 Y160.782 E.01704
G1 X81.443 Y160.668 E.01632
G1 X81.359 Y160.669 E.00364
G1 X81.029 Y160.781 E.01514
G1 X80.579 Y160.846 E.01975
G1 X78.536 Y160.85 E.08868
G1 X78.104 Y160.797 E.01889
G1 X77.702 Y160.671 E.01827
G1 X77.322 Y160.469 E.01868
G1 X76.971 Y160.187 E.01954
G1 X76.786 Y159.97 E.0124
G1 X76.518 Y159.509 E.02315
G1 X76.423 Y159.216 E.01336
G1 X76.34 Y158.735 E.02117
G1 X76.332 Y157.352 E.06005
G1 X76.368 Y157.007 E.01507
G1 X76.469 Y156.622 E.01725
G1 X76.771 Y156.052 E.028
G1 X76.962 Y155.818 E.01309
G1 X77.18 Y155.625 E.01267
G1 X77.241 Y155.585 E.00314
G1 X77.477 Y155.96 F18000
G1 F1500
G1 X77.733 Y155.8 E.01311
G1 X77.935 Y155.714 E.00952
G1 X78.536 Y155.598 E.02655
G1 X80.509 Y155.598 E.08568
G1 X80.896 Y155.652 E.01695
G1 X81.114 Y155.718 E.00988
G1 X81.323 Y155.822 E.01013
