; HEADER_BLOCK_START
; generated by AnycubicSlicerNext 1.3.3.1 on 2025-03-23 at 22:00:39
; total layer number: 65
; filament_density: 1.24
; filament_diameter: 1.75
; max_z_height: 13.04
; exclude_object: 0
; model_instances: 1
; HEADER_BLOCK_END

; THUMBNAIL_BLOCK_START
; THUMBNAIL_BLOCK_END

; external perimeters extrusion width = 0.42mm
; perimeters extrusion width = 0.45mm
; infill extrusion width = 0.45mm
; solid infill extrusion width = 0.42mm
; top infill extrusion width = 0.42mm
; support material extrusion width = 0.40mm
; first layer extrusion width = 0.50mm

; EXECUTABLE_BLOCK_START
M201 X2000 Y2000 Z800 E2000
M203 X300 Y300 Z8 E100
M204 P2000 R2000 T2000
M205 X10.00 Y10.00 Z2.00 E5.00 ; sets the jerk limits, mm/sec
;TYPE:Custom
G90 ; use absolute coordinates
M83 ; extruder relative mode
M104 S220 ; set extruder temp
M140 S60 ; set bed temp
M190 S60 ; wait for bed temp
M109 S220 ; wait for extruder temp
G28                                        ; move X/Y/Z to min endstops
G1 Z0.28                                   ; lift nozzle a bit 
G92 E0 
G1 Y3 F1800                                    ; zero the extruded length 
G1 X60  E25 F500                       ; Extrude 25mm of filament in a 5cm line. 
G92 E0                                     ; zero the extruded length again 
G1 E-2 F500                                ; Retract a little 
G1 X70 F4000                              ; Quickly wipe away from the filament line
M117
G90
G21
M83 ; use relative distances for extrusion
; filament start gcode
M106 S0
;LAYER_CHANGE
;Z:0.24
;HEIGHT:0.24
; BEFORE_LAYER_CHANGE 0 @ 0.24mm
G92 E0
G1 E-2.5 F6000
; AFTER_LAYER_CHANGE 0 @ 0.24mm
M204 P500
; printing object "Cyclo7PinDeck.stl" id:2325985774848 copy 0
M204 T500
G1 X91.33 Y96.585 F18000
G1 Z.24
G1 E2.5 F6000
;TYPE:Support
;WIDTH:0.5
;MM3_PER_MM:0.107639
G1 F1500
G3 X91.263 Y96.583 I-.137 J2.496 E.67886
G1 X93.057 Y100.333 F18000
G1 F1500
G1 X93.057 Y98.247 E.09055
G2 X92.559 Y97.541 I-1.937 J.838 E.03778
G1 X92.559 Y100.614 E.13341
G3 X92.06 Y100.956 I-1.45 J-1.58 E.02632
G1 X92.06 Y97.198 E.16312
G2 X91.562 Y97.026 I-.955 J1.955 E.02295
G1 X91.562 Y101.128 E.17807
G3 X91.064 Y101.171 I-.491 J-2.779 E.02174
G1 X91.064 Y96.984 E.18178
G2 X90.565 Y97.061 I.073 J2.113 E.02194
G1 X90.565 Y101.093 E.17504
G3 X90.067 Y100.88 I.561 J-1.994 E.02361
G1 X90.067 Y97.274 E.1565
G2 X89.569 Y97.684 I1.096 J1.841 E.02811
G1 X89.569 Y100.471 E.12097
G3 X89.07 Y98.067 I2.189 J-1.707 E.11038
G1 E-1.75 F6000
;WIPE_START
G1 F1500
G1 X89.078 Y99.067 E-.75
;WIPE_END
G1 X91.332 Y118.388 F18000
G1 E2.5 F6000
G1 F1500
G3 X91.264 Y118.384 I-.165 J2.494 E.67886
G1 X93.057 Y122.093 F18000
G1 F1500
G1 X93.057 Y120.11 E.08607
G2 X92.559 Y119.366 I-1.96 J.775 E.03916
G1 X92.559 Y122.388 E.13119
G3 X92.06 Y122.744 I-1.723 J-1.885 E.02665
G1 X92.06 Y119.011 E.16203
G2 X91.562 Y118.832 I-1.007 J2.01 E.02305
G1 X91.562 Y122.923 E.17759
G3 X91.064 Y122.972 I-.456 J-2.088 E.02179
G1 X91.064 Y118.783 E.18182
G2 X90.565 Y118.854 I.047 J2.115 E.0219
G1 X90.565 Y122.901 E.17569
G3 X90.067 Y122.696 I.572 J-2.093 E.02346
G1 X90.067 Y119.059 E.15787
G2 X89.569 Y119.456 I1.064 J1.848 E.02775
G1 X89.569 Y122.298 E.1234
G3 X89.07 Y121.365 I1.541 J-1.422 E.04645
G1 X89.07 Y119.816 E.06722
G1 E-1.75 F6000
;WIPE_START
G1 F1500
G1 X89.07 Y120.816 E-.75
;WIPE_END
G1 X110.224 Y129.313 F18000
G1 E2.5 F6000
G1 F1500
G3 X110.157 Y129.308 I-.202 J2.491 E.67881
G1 X111.993 Y132.894 F18000
G1 F1500
G1 X111.993 Y131.242 E.07173
G2 X111.495 Y130.359 I-2.032 J.566 E.04441
G1 X111.495 Y133.24 E.12506
G3 X110.997 Y133.628 I-1.752 J-1.737 E.02749
G1 X110.997 Y129.971 E.15874
G2 X110.498 Y129.772 I-1.036 J1.865 E.02337
G1 X110.498 Y133.829 E.1761
G3 X110 Y133.895 I-.62 J-2.75 E.02185
G1 X110 Y129.706 E.18185
G2 X109.502 Y129.758 I.039 J2.759 E.02178
G1 X109.502 Y133.841 E.17722
G3 X109.003 Y133.657 I.478 J-2.059 E.02312
G1 X109.003 Y129.943 E.16119
G2 X108.505 Y130.307 I1.197 J2.164 E.02685
G1 X108.505 Y133.294 E.12966
G3 X108.007 Y132.52 I1.594 J-1.574 E.04024
G1 X108.007 Y130.613 E.08278
G1 E-1.75 F6000
;WIPE_START
G1 F1500
G1 X108.007 Y131.613 E-.75
;WIPE_END
G1 X128.98 Y118.426 F18000
G1 E2.5 F6000
G1 F1500
G3 X128.913 Y118.425 I-.055 J2.499 E.67885
G1 X130.93 Y121.933 F18000
G1 F1500
G2 X130.431 Y119.53 I-2.684 J-.696 E.11034
G1 X130.431 Y122.316 E.12092
G3 X129.933 Y122.726 I-1.59 J-1.426 E.02811
G1 X129.933 Y119.12 E.15652
G2 X129.435 Y118.907 I-1.058 J1.786 E.02359
G1 X129.435 Y122.939 E.17502
G3 X128.936 Y123.016 I-.572 J-2.036 E.02194
G1 X128.936 Y118.829 E.18177
G2 X128.438 Y118.872 I-.014 J2.753 E.02174
G1 X128.428 Y122.972 E.17799
G3 X127.94 Y122.802 I.682 J-2.736 E.02248
G1 X127.94 Y119.044 E.16312
G2 X127.441 Y119.386 I.974 J1.955 E.02631
G1 X127.441 Y122.459 E.13341
G3 X126.943 Y121.753 I1.438 J-1.544 E.03778
G1 X126.943 Y119.667 E.09055
G1 E-1.75 F6000
;WIPE_START
G1 F1500
G1 X126.943 Y120.667 E-.75
;WIPE_END
G1 X129.034 Y96.627 F18000
G1 E2.5 F6000
G1 F1500
G3 X128.967 Y96.626 I-.082 J2.498 E.67886
G1 X130.93 Y100.184 F18000
G1 F1500
G2 X130.831 Y98.326 I-2.969 J-.774 E.08207
G2 X130.431 Y97.702 I-2.18 J.956 E.03229
G1 X130.431 Y100.544 E.1234
G3 X129.933 Y100.941 I-1.562 J-1.452 E.02775
G1 X129.933 Y97.303 E.15792
G2 X129.435 Y97.099 I-1.277 J2.409 E.02338
G1 X129.435 Y101.146 E.17567
G3 X128.936 Y101.217 I-.545 J-2.044 E.0219
G1 X128.936 Y97.029 E.18181
G2 X128.438 Y97.077 I-.046 J2.111 E.02178
G1 X128.432 Y101.167 E.17754
G3 X127.94 Y100.989 I.709 J-2.718 E.02275
G1 X127.938 Y97.257 E.162
G2 X127.441 Y97.612 I.987 J1.905 E.02659
G1 X127.441 Y100.634 E.13119
G3 X126.943 Y99.89 I1.462 J-1.518 E.03916
G1 X126.943 Y97.907 E.08607
G1 E-1.75 F6000
;WIPE_START
G1 F1500
G1 X126.943 Y98.907 E-.75
;WIPE_END
G1 X110.195 Y85.706 F18000
G1 E2.5 F6000
G1 F1500
G3 X110.128 Y85.704 I-.11 J2.497 E.67886
G1 X111.993 Y89.387 F18000
G1 F1500
G1 X111.993 Y87.48 E.08278
G2 X111.495 Y86.706 I-2.099 J.805 E.04024
G1 X111.495 Y89.693 E.12966
G3 X110.997 Y90.057 I-1.696 J-1.8 E.02685
G1 X110.997 Y86.343 E.16119
G2 X110.498 Y86.159 I-.976 J1.875 E.02312
G1 X110.498 Y90.242 E.17722
G3 X110 Y90.295 I-.55 J-2.81 E.02178
G1 X110 Y86.105 E.18187
G2 X109.502 Y86.171 I.122 J2.817 E.02185
G1 X109.502 Y90.228 E.1761
G3 X109.003 Y90.029 I.538 J-2.066 E.02336
G1 X109.003 Y86.372 E.15874
G2 X108.505 Y86.76 I1.254 J2.125 E.02749
G1 X108.505 Y89.641 E.12506
G3 X108.007 Y88.758 I1.534 J-1.448 E.04442
G1 X108.007 Y87.106 E.07173
G1 E-1.75 F6000
;WIPE_START
G1 F1500
G1 X108.007 Y88.106 E-.75
;WIPE_END
G1 X107.407 Y78.102 F18000
G1 E2.5 F6000
;TYPE:Brim
G1 F1500
G1 X108.693 Y78.016 E.05594
G1 X110.157 Y77.99 E.06358
G1 X111.767 Y78.038 E.06992
G1 X113.4 Y78.171 E.07111
G1 X114.928 Y78.371 E.06692
G1 X116.524 Y78.661 E.0704
G1 X118.087 Y79.028 E.06969
G1 X119.509 Y79.434 E.06418
G1 X121.037 Y79.952 E.07006
G1 X122.471 Y80.519 E.06691
G1 X123.819 Y81.126 E.06418
G1 X125.271 Y81.867 E.0708
G1 X126.608 Y82.635 E.06688
G1 X127.972 Y83.511 E.07041
G1 X129.291 Y84.455 E.0704
G1 X130.56 Y85.465 E.0704
G1 X131.764 Y86.527 E.06969
G1 X132.762 Y87.494 E.06031
G1 X133.873 Y88.676 E.07042
G1 X134.933 Y89.925 E.07113
G1 X135.908 Y91.2 E.06968
G1 X136.744 Y92.41 E.06382
G1 X137.601 Y93.787 E.07041
G1 X138.349 Y95.135 E.06691
G1 X139.009 Y96.467 E.06453
G1 X139.627 Y97.88 E.06694
G1 X140.15 Y99.245 E.06345
G1 X140.658 Y100.794 E.07076
G1 X141.066 Y102.28 E.06691
G1 X141.417 Y103.864 E.07041
G1 X141.685 Y105.446 E.06966
G1 X141.861 Y106.907 E.06386
G1 X141.977 Y108.541 E.07111
G1 X142.01 Y110.082 E.06693
G1 X141.974 Y111.535 E.0631
G1 X141.855 Y113.153 E.07041
G1 X141.654 Y114.762 E.0704
G1 X141.369 Y116.376 E.07111
G1 X141.028 Y117.871 E.06657
G1 X140.636 Y119.279 E.06345
G1 X140.121 Y120.834 E.07112
G1 X139.54 Y122.332 E.06973
G1 X138.912 Y123.738 E.06685
G1 X138.251 Y125.052 E.06386
G1 X137.443 Y126.478 E.07112
G1 X136.618 Y127.78 E.06692
G1 X135.774 Y128.983 E.0638
G1 X134.789 Y130.253 E.06974
G1 X133.732 Y131.482 E.07037
G1 X132.602 Y132.668 E.07112
G1 X131.609 Y133.616 E.05961
G1 X130.385 Y134.681 E.07041
G1 X129.108 Y135.682 E.0704
G1 X127.77 Y136.625 E.07111
G1 X126.412 Y137.483 E.06972
G1 X124.999 Y138.279 E.07038
G1 X123.621 Y138.968 E.06686
G1 X122.128 Y139.624 E.07081
G1 X120.747 Y140.152 E.06416
G1 X119.221 Y140.654 E.06974
G1 X117.641 Y141.085 E.07108
G1 X116.136 Y141.417 E.06692
G1 X114.553 Y141.685 E.06969
G1 X113.093 Y141.861 E.06382
G1 X111.459 Y141.977 E.07111
G1 X109.918 Y142.01 E.06692
G1 X108.296 Y141.965 E.07042
G1 X106.839 Y141.854 E.06346
G1 X105.238 Y141.654 E.07004
G1 X103.624 Y141.369 E.07115
G1 X102.121 Y141.026 E.06689
G1 X100.713 Y140.634 E.06346
G1 X99.181 Y140.127 E.07005
G1 X97.654 Y139.534 E.07111
G1 X96.246 Y138.905 E.06693
G1 X94.948 Y138.251 E.0631
G1 X93.521 Y137.443 E.07115
G1 X92.166 Y136.583 E.06969
G1 X90.843 Y135.646 E.07038
G1 X89.631 Y134.694 E.0669
G1 X88.394 Y133.619 E.07115
G1 X87.338 Y132.608 E.06345
G1 X86.228 Y131.437 E.07005
G1 X85.162 Y130.192 E.07115
G1 X84.219 Y128.974 E.06688
G1 X83.291 Y127.643 E.07041
G1 X82.399 Y126.213 E.07318
G1 X81.651 Y124.865 E.0669
G1 X80.994 Y123.54 E.06419
G1 X80.379 Y122.135 E.06656
G1 X79.85 Y120.755 E.06418
G1 X79.342 Y119.206 E.07076
G1 X78.934 Y117.72 E.06691
G1 X78.583 Y116.136 E.07041
G1 X78.315 Y114.554 E.06966
G1 X78.139 Y113.093 E.06386
G1 X78.023 Y111.459 E.07111
G1 X77.99 Y109.918 E.06693
G1 X78.026 Y108.464 E.06311
G1 X78.145 Y106.847 E.07041
G1 X78.346 Y105.237 E.0704
G1 X78.631 Y103.624 E.07112
G1 X78.972 Y102.129 E.06656
G1 X79.364 Y100.721 E.06346
G1 X79.873 Y99.181 E.07042
G1 X80.46 Y97.669 E.0704
G1 X81.088 Y96.262 E.06687
G1 X81.749 Y94.948 E.06386
G1 X82.556 Y93.522 E.07112
G1 X83.417 Y92.166 E.06972
G1 X84.354 Y90.843 E.07037
G1 X85.368 Y89.556 E.07111
G1 X86.381 Y88.394 E.06692
G1 X87.506 Y87.226 E.07039
G1 X88.736 Y86.073 E.07319
G1 X89.912 Y85.078 E.06686
G1 X91.091 Y84.171 E.06457
G1 X92.411 Y83.255 E.06974
G1 X93.717 Y82.44 E.06684
G1 X95.001 Y81.721 E.06386
G1 X96.467 Y80.991 E.07112
G1 X97.939 Y80.348 E.06972
G1 X99.472 Y79.771 E.07108
G1 X100.939 Y79.299 E.06693
G1 X102.358 Y78.915 E.0638
G1 X103.927 Y78.571 E.06974
G1 X105.527 Y78.304 E.07038
G1 X107.057 Y78.125 E.06689
G1 X107.367 Y78.105 E.01347
G1 X107.397 Y78.552 F18000
G1 F1500
G1 X108.708 Y78.465 E.05706
G1 X110.158 Y78.439 E.06292
G1 X111.746 Y78.487 E.06897
G1 X113.349 Y78.617 E.06984
G1 X114.862 Y78.815 E.06624
G1 X116.429 Y79.1 E.06914
G1 X117.971 Y79.461 E.06874
G1 X119.372 Y79.862 E.06324
G1 X120.88 Y80.373 E.0691
G1 X122.293 Y80.931 E.06598
G1 X123.628 Y81.532 E.06353
G1 X125.061 Y82.263 E.06984
G1 X126.377 Y83.02 E.06592
G1 X127.718 Y83.88 E.06914
G1 X129.018 Y84.811 E.06941
G1 X130.269 Y85.807 E.06942
G1 X131.457 Y86.854 E.06876
G1 X132.441 Y87.806 E.0594
G1 X133.536 Y88.972 E.06945
G1 X134.582 Y90.204 E.07014
G1 X135.544 Y91.462 E.06873
G1 X136.367 Y92.653 E.06288
G1 X137.213 Y94.012 E.06946
G1 X137.951 Y95.34 E.06597
G1 X138.604 Y96.659 E.06389
G1 X139.213 Y98.053 E.06603
G1 X139.728 Y99.398 E.06253
G1 X140.229 Y100.926 E.06981
G1 X140.631 Y102.392 E.06595
G1 X140.977 Y103.953 E.06944
G1 X141.24 Y105.507 E.06841
G1 X141.414 Y106.953 E.0632
G1 X141.529 Y108.558 E.06987
G1 X141.562 Y110.085 E.06627
G1 X141.525 Y111.517 E.06218
G1 X141.408 Y113.112 E.06946
G1 X141.21 Y114.699 E.06941
G1 X140.93 Y116.283 E.06984
G1 X140.594 Y117.758 E.06564
G1 X140.206 Y119.152 E.0628
G1 X139.7 Y120.68 E.06987
G1 X139.127 Y122.156 E.06876
G1 X138.508 Y123.543 E.06592
G1 X137.854 Y124.844 E.06321
G1 X137.06 Y126.244 E.06988
G1 X136.243 Y127.534 E.06626
G1 X135.411 Y128.719 E.06288
G1 X134.44 Y129.971 E.06879
G1 X133.397 Y131.183 E.06938
G1 X132.282 Y132.353 E.07016
G1 X131.304 Y133.287 E.0587
G1 X130.096 Y134.337 E.06947
G1 X128.838 Y135.324 E.06942
G1 X127.518 Y136.254 E.07011
G1 X126.179 Y137.1 E.06874
G1 X124.791 Y137.881 E.06912
G1 X123.428 Y138.563 E.06618
G1 X121.96 Y139.208 E.06957
G1 X120.594 Y139.731 E.0635
G1 X119.089 Y140.225 E.06879
G1 X117.537 Y140.648 E.06981
G1 X116.053 Y140.976 E.06596
G1 X114.492 Y141.24 E.06875
G1 X113.047 Y141.414 E.06316
G1 X111.442 Y141.529 E.06987
G1 X109.916 Y141.562 E.06624
G1 X108.323 Y141.517 E.06918
G1 X106.88 Y141.407 E.0628
G1 X105.301 Y141.21 E.06909
G1 X103.716 Y140.93 E.06988
G1 X102.234 Y140.592 E.06596
G1 X100.84 Y140.203 E.06281
G1 X99.329 Y139.703 E.06909
G1 X97.83 Y139.121 E.06984
G1 X96.441 Y138.501 E.066
G1 X95.156 Y137.854 E.06245
G1 X93.755 Y137.06 E.0699
G1 X92.413 Y136.208 E.069
G1 X91.114 Y135.288 E.06911
G1 X89.92 Y134.35 E.06593
G1 X88.699 Y133.29 E.0702
G1 X87.654 Y132.289 E.06279
G1 X86.559 Y131.134 E.06909
G1 X85.512 Y129.911 E.06988
G1 X84.578 Y128.705 E.0662
G1 X83.667 Y127.399 E.06912
G1 X82.787 Y125.988 E.07219
G1 X82.049 Y124.66 E.06596
G1 X81.399 Y123.348 E.06355
G1 X80.795 Y121.968 E.06537
G1 X80.272 Y120.602 E.06353
G1 X79.771 Y119.074 E.06981
G1 X79.369 Y117.608 E.06595
G1 X79.024 Y116.053 E.06915
G1 X78.76 Y114.493 E.0687
G1 X78.586 Y113.047 E.0632
G1 X78.471 Y111.442 E.06987
G1 X78.438 Y109.915 E.06627
G1 X78.475 Y108.483 E.06218
G1 X78.592 Y106.888 E.06946
G1 X78.79 Y105.301 E.06941
G1 X79.07 Y103.716 E.06984
G1 X79.406 Y102.242 E.06563
G1 X79.794 Y100.848 E.06281
G1 X80.297 Y99.329 E.06946
G1 X80.875 Y97.838 E.06942
G1 X81.492 Y96.457 E.06565
G1 X82.147 Y95.156 E.06321
G1 X82.939 Y93.756 E.06986
G1 X83.792 Y92.413 E.06903
G1 X84.716 Y91.109 E.06939
G1 X85.712 Y89.845 E.06984
G1 X86.714 Y88.695 E.06625
G1 X87.818 Y87.548 E.06911
G1 X89.032 Y86.41 E.0722
G1 X90.191 Y85.429 E.06592
G1 X91.358 Y84.532 E.06392
G1 X92.655 Y83.632 E.06851
G1 X93.943 Y82.828 E.06591
G1 X95.213 Y82.116 E.06321
G1 X96.654 Y81.399 E.06986
G1 X98.105 Y80.765 E.06873
G1 X99.616 Y80.195 E.07011
G1 X101.064 Y79.73 E.06599
G1 X102.468 Y79.35 E.06315
G1 X104.016 Y79.011 E.06879
G1 X105.586 Y78.748 E.06912
G1 X107.095 Y78.572 E.06592
G1 X107.357 Y78.555 E.0114
G1 X107.387 Y79.002 F18000
G1 F1500
G1 X108.724 Y78.913 E.05818
G1 X110.158 Y78.887 E.06226
G1 X111.724 Y78.935 E.06801
G1 X113.299 Y79.062 E.06857
G1 X114.796 Y79.259 E.06557
G1 X116.335 Y79.539 E.06787
G1 X117.855 Y79.895 E.06778
G1 X119.235 Y80.289 E.0623
G1 X120.722 Y80.793 E.06815
G1 X122.116 Y81.343 E.06504
G1 X123.436 Y81.938 E.06287
G1 X124.85 Y82.66 E.06889
G1 X126.147 Y83.405 E.06496
G1 X127.463 Y84.25 E.06788
G1 X128.745 Y85.167 E.06842
G1 X129.979 Y86.149 E.06843
G1 X131.151 Y87.182 E.06782
G1 X132.119 Y88.119 E.05848
G1 X133.199 Y89.268 E.06849
G1 X134.23 Y90.483 E.06915
G1 X135.179 Y91.723 E.06778
G1 X135.99 Y92.897 E.06194
G1 X136.824 Y94.237 E.0685
G1 X137.552 Y95.546 E.06503
G1 X138.198 Y96.852 E.06324
G1 X138.799 Y98.226 E.06511
G1 X139.306 Y99.552 E.06161
G1 X139.801 Y101.059 E.06886
G1 X140.196 Y102.503 E.06498
G1 X140.537 Y104.043 E.06847
G1 X140.796 Y105.568 E.06717
G1 X140.968 Y106.999 E.06254
G1 X141.08 Y108.576 E.06863
G1 X141.113 Y110.087 E.06561
G1 X141.077 Y111.498 E.06126
G1 X140.961 Y113.072 E.0685
G1 X140.767 Y114.629 E.06812
G1 X140.491 Y116.191 E.06887
G1 X140.159 Y117.645 E.06471
G1 X139.776 Y119.024 E.06215
G1 X139.279 Y120.525 E.06862
G1 X138.711 Y121.987 E.06808
G1 X138.104 Y123.348 E.0647
G1 X137.456 Y124.635 E.06255
G1 X136.677 Y126.011 E.06864
G1 X135.868 Y127.287 E.0656
G1 X135.048 Y128.455 E.06195
G1 X134.09 Y129.69 E.06784
G1 X133.062 Y130.884 E.06839
G1 X131.962 Y132.038 E.06919
G1 X131 Y132.957 E.05779
G1 X129.808 Y133.993 E.06853
G1 X128.567 Y134.966 E.06843
G1 X127.266 Y135.883 E.06912
G1 X125.946 Y136.716 E.06776
G1 X124.584 Y137.483 E.06785
G1 X123.234 Y138.158 E.06551
G1 X121.793 Y138.792 E.06833
G1 X120.441 Y139.309 E.06284
G1 X118.956 Y139.796 E.06783
G1 X117.433 Y140.212 E.06854
G1 X115.971 Y140.535 E.065
G1 X114.431 Y140.796 E.06781
G1 X113.001 Y140.968 E.0625
G1 X111.424 Y141.08 E.06863
G1 X109.914 Y141.113 E.06556
G1 X108.349 Y141.069 E.06795
G1 X106.922 Y140.96 E.06214
G1 X105.365 Y140.766 E.06813
G1 X103.808 Y140.491 E.06861
G1 X102.348 Y140.157 E.06503
G1 X100.968 Y139.773 E.06216
G1 X99.478 Y139.28 E.06814
G1 X98.005 Y138.708 E.06857
G1 X96.637 Y138.097 E.06507
G1 X95.365 Y137.456 E.0618
G1 X93.989 Y136.677 E.06865
