; HEADER_BLOCK_START
; generated by AnycubicSlicerNext 1.3.3.1 on 2025-03-29 at 16:11:12
; total layer number: 20
; filament_density: 1.24
; filament_diameter: 1.75
; max_z_height: 4.04
; exclude_object: 0
; model_instances: 2
; HEADER_BLOCK_END

; THUMBNAIL_BLOCK_START
; THUMBNAIL_BLOCK_END

; external perimeters extrusion width = 0.42mm
; perimeters extrusion width = 0.45mm
; infill extrusion width = 0.45mm
; solid infill extrusion width = 0.42mm
; top infill extrusion width = 0.42mm
; support material extrusion width = 0.40mm
; first layer extrusion width = 0.50mm

; external perimeters extrusion width = 0.42mm
; perimeters extrusion width = 0.45mm
; infill extrusion width = 0.45mm
; solid infill extrusion width = 0.42mm
; top infill extrusion width = 0.42mm
; support material extrusion width = 0.40mm
; first layer extrusion width = 0.50mm

; EXECUTABLE_BLOCK_START
M201 X2000 Y2000 Z800 E2000
M203 X300 Y300 Z8 E100
M204 P2000 R2000 T2000
M205 X10.00 Y10.00 Z2.00 E5.00 ; sets the jerk limits, mm/sec
;TYPE:Custom
G90 ; use absolute coordinates
M83 ; extruder relative mode
M104 S220 ; set extruder temp
M140 S60 ; set bed temp
M190 S60 ; wait for bed temp
M109 S220 ; wait for extruder temp
G28                                        ; move X/Y/Z to min endstops
G1 Z0.28                                   ; lift nozzle a bit 
G92 E0 
G1 Y3 F1800                                    ; zero the extruded length 
G1 X60  E25 F500                       ; Extrude 25mm of filament in a 5cm line. 
G92 E0                                     ; zero the extruded length again 
G1 E-2 F500                                ; Retract a little 
G1 X70 F4000                              ; Quickly wipe away from the filament line
M117
G90
G21
M83 ; use relative distances for extrusion
; filament start gcode
M106 S0
;LAYER_CHANGE
;Z:0.24
;HEIGHT:0.24
; BEFORE_LAYER_CHANGE 0 @ 0.24mm
G92 E0
G1 E-2.5 F6000
; AFTER_LAYER_CHANGE 0 @ 0.24mm
M204 P500
; printing object "Cyclo7Disk.stl" id:2329643087104 copy 0
M204 T500
G1 X125.061 Y90.434 F18000
G1 Z.24
G1 E2.5 F6000
;TYPE:Brim
;WIDTH:0.5
;MM3_PER_MM:0.107639
G1 F1500
G1 X125.552 Y89.761 E.03616
G1 X125.828 Y89.432 E.01866
G1 X126.406 Y88.833 E.03612
G1 X126.692 Y88.573 E.01679
G1 X127.331 Y88.066 E.03538
G1 X127.666 Y87.835 E.01768
G1 X128.333 Y87.437 E.03371
G1 X128.651 Y87.273 E.01552
G1 X129.259 Y87.003 E.0289
G1 X129.368 Y86.898 E.00655
G1 X129.551 Y86.536 E.01761
G1 X129.929 Y85.894 E.03233
G1 X130.379 Y85.258 E.03384
G1 X130.637 Y84.94 E.01779
G1 X131.195 Y84.341 E.03552
G1 X131.477 Y84.075 E.01683
G1 X132.12 Y83.545 E.03616
G1 X132.469 Y83.295 E.01866
G1 X133.178 Y82.859 E.03611
G1 X133.52 Y82.678 E.0168
G1 X134.264 Y82.346 E.03538
G1 X134.647 Y82.206 E.01768
G1 X135.391 Y81.986 E.03371
G1 X135.74 Y81.906 E.01553
G1 X136.397 Y81.795 E.02889
G1 X136.525 Y81.725 E.00635
G1 X137.058 Y81.141 E.03432
G1 X137.621 Y80.622 E.03324
G1 X137.911 Y80.387 E.01621
G1 X138.567 Y79.922 E.03491
G1 X139.275 Y79.51 E.03554
G1 X140.027 Y79.158 E.03604
G1 X140.428 Y79.003 E.01866
G1 X141.22 Y78.757 E.03601
G1 X142.021 Y78.586 E.03554
G1 X142.398 Y78.531 E.01654
G1 X143.186 Y78.467 E.03434
G1 X143.944 Y78.471 E.03289
G1 X144.605 Y78.527 E.02879
G1 X144.746 Y78.491 E.00635
G1 X145.408 Y78.058 E.03433
G1 X146.082 Y77.695 E.03323
G1 X146.422 Y77.54 E.01622
G1 X147.173 Y77.253 E.03491
G1 X147.961 Y77.029 E.03554
G1 X148.777 Y76.875 E.03605
G1 X149.206 Y76.824 E.01878
G1 X149.604 Y76.795 E.01729
G1 X150.444 Y76.791 E.03646
G1 X151.231 Y76.858 E.03432
G1 X152.009 Y76.992 E.03423
G1 X152.742 Y77.184 E.0329
G1 X153.368 Y77.402 E.02879
G1 X153.519 Y77.401 E.00655
G1 X153.9 Y77.262 E.01761
G1 X154.615 Y77.053 E.03235
G1 X155.378 Y76.897 E.03382
G1 X155.784 Y76.842 E.01779
G1 X156.601 Y76.787 E.03552
G1 X156.988 Y76.786 E.01683
G1 X157.796 Y76.838 E.03514
G1 X158.235 Y76.896 E.01921
G1 X159.06 Y77.064 E.03658
G1 X159.434 Y77.167 E.01681
G1 X160.204 Y77.434 E.03537
G1 X160.579 Y77.593 E.01768
G1 X161.272 Y77.943 E.03371
G1 X161.581 Y78.123 E.01554
G1 X162.135 Y78.492 E.02889
G1 X162.282 Y78.529 E.00655
G1 X162.685 Y78.489 E.01761
G1 X163.43 Y78.464 E.03234
G1 X164.208 Y78.503 E.03383
G1 X164.615 Y78.551 E.01779
G1 X165.42 Y78.7 E.03552
G1 X165.795 Y78.796 E.01683
G1 X166.587 Y79.055 E.03616
G1 X166.986 Y79.216 E.01866
G1 X167.734 Y79.581 E.03611
G1 X168.069 Y79.773 E.01679
G1 X168.749 Y80.223 E.03538
G1 X169.072 Y80.471 E.01768
G1 X169.657 Y80.982 E.03371
G1 X169.911 Y81.233 E.01553
G1 X170.356 Y81.728 E.0289
G1 X170.489 Y81.8 E.00655
G1 X170.89 Y81.862 E.0176
G1 X171.617 Y82.023 E.03234
G1 X172.361 Y82.255 E.03383
G1 X172.744 Y82.402 E.01779
G1 X173.486 Y82.747 E.03552
G1 X173.826 Y82.933 E.01682
G1 X174.528 Y83.38 E.03616
G1 X174.874 Y83.636 E.01866
G1 X175.508 Y84.175 E.03611
G1 X175.785 Y84.444 E.0168
G1 X176.331 Y85.05 E.03538
G1 X176.583 Y85.37 E.01768
G1 X177.022 Y86.01 E.03371
G1 X177.206 Y86.317 E.01553
G1 X177.514 Y86.907 E.02889
G1 X177.62 Y87.008 E.00635
G1 X178.341 Y87.334 E.03433
G1 X179.008 Y87.71 E.03323
G1 X179.321 Y87.913 E.01621
G1 X179.966 Y88.393 E.03492
G1 X180.577 Y88.939 E.03554
G1 X181.144 Y89.545 E.03605
G1 X181.416 Y89.878 E.01866
G1 X181.894 Y90.556 E.03599
G1 X182.304 Y91.264 E.03554
G1 X182.473 Y91.606 E.01654
G1 X182.777 Y92.336 E.03433
G1 X183.008 Y93.058 E.03289
G1 X183.159 Y93.704 E.02879
G1 X183.237 Y93.827 E.00635
G1 X183.853 Y94.323 E.03433
G1 X184.405 Y94.85 E.03312
G1 X184.93 Y95.448 E.03454
G1 X185.163 Y95.751 E.0166
G1 X185.621 Y96.433 E.03565
G1 X186.019 Y97.161 E.03605
G1 X186.199 Y97.552 E.01866
G1 X186.494 Y98.327 E.036
G1 X186.715 Y99.113 E.03543
G1 X186.862 Y99.897 E.03465
G1 X186.938 Y100.667 E.03359
G1 X186.951 Y101.025 E.01554
G1 X186.937 Y101.69 E.02889
G1 X186.984 Y101.834 E.00655
G1 X187.234 Y102.153 E.01761
G1 X187.654 Y102.768 E.03233
G1 X188.038 Y103.446 E.03383
G1 X188.216 Y103.816 E.01779
G1 X188.521 Y104.575 E.03552
G1 X188.641 Y104.944 E.01683
G1 X188.847 Y105.751 E.03616
G1 X188.924 Y106.174 E.01866
G1 X189.017 Y107 E.03611
G1 X189.035 Y107.387 E.0168
G1 X189.018 Y108.202 E.03538
G1 X188.983 Y108.607 E.01768
G1 X188.865 Y109.375 E.03371
G1 X188.789 Y109.724 E.01553
G1 X188.609 Y110.366 E.0289
G1 X188.618 Y110.512 E.00635
G1 X188.919 Y111.242 E.03432
G1 X189.149 Y111.973 E.03324
G1 X189.238 Y112.336 E.01621
G1 X189.379 Y113.127 E.03491
G1 X189.451 Y113.943 E.03555
G1 X189.45 Y114.773 E.03604
G1 X189.42 Y115.202 E.01866
G1 X189.304 Y116.023 E.036
G1 X189.118 Y116.821 E.03554
G1 X189.008 Y117.186 E.01655
G1 X188.73 Y117.926 E.03433
G1 X188.404 Y118.61 E.03289
G1 X188.072 Y119.184 E.0288
G1 X188.044 Y119.328 E.00635
G1 X188.154 Y120.111 E.03431
G1 X188.195 Y120.873 E.03313
G1 X188.169 Y121.668 E.03454
G1 X188.131 Y122.048 E.01659
G1 X187.998 Y122.859 E.03565
G1 X187.79 Y123.663 E.03605
G1 X187.654 Y124.07 E.01866
G1 X187.338 Y124.837 E.036
G1 X186.961 Y125.561 E.03543
G1 X186.531 Y126.234 E.03464
G1 X186.06 Y126.847 E.0336
G1 X185.824 Y127.117 E.01553
G1 X185.358 Y127.592 E.0289
G1 X185.295 Y127.729 E.00655
G1 X185.259 Y128.133 E.01762
G1 X185.144 Y128.869 E.03233
G1 X184.959 Y129.626 E.03384
G1 X184.836 Y130.017 E.01779
G1 X184.538 Y130.779 E.03551
G1 X184.374 Y131.131 E.01683
G1 X183.971 Y131.86 E.03616
G1 X183.738 Y132.221 E.01866
G1 X183.24 Y132.887 E.0361
G1 X182.988 Y133.181 E.0168
G1 X182.418 Y133.764 E.03539
G1 X182.115 Y134.035 E.01768
G1 X181.503 Y134.514 E.0337
G1 X181.208 Y134.717 E.01554
G1 X180.639 Y135.061 E.02889
G1 X180.543 Y135.178 E.00655
G1 X180.408 Y135.56 E.01761
G1 X180.113 Y136.245 E.03234
G1 X179.746 Y136.932 E.03382
G1 X179.53 Y137.28 E.01779
G1 X179.052 Y137.944 E.03552
G1 X178.806 Y138.244 E.01683
G1 X178.234 Y138.85 E.03616
G1 X177.919 Y139.142 E.01866
G1 X177.27 Y139.663 E.03612
G1 X176.954 Y139.885 E.01679
G1 X176.257 Y140.308 E.03538
G1 X175.895 Y140.495 E.01768
G1 X175.184 Y140.807 E.0337
G1 X174.848 Y140.93 E.01554
G1 X174.21 Y141.122 E.02889
G1 X174.092 Y141.207 E.00635
G1 X173.636 Y141.854 E.03433
G1 X173.144 Y142.437 E.03312
G1 X172.581 Y142.999 E.03453
G1 X172.293 Y143.25 E.0166
G1 X171.641 Y143.75 E.03566
G1 X170.939 Y144.193 E.03604
G1 X170.561 Y144.398 E.01866
G1 X169.806 Y144.74 E.03599
G1 X169.035 Y145.01 E.03544
G1 X168.262 Y145.206 E.03464
G1 X167.498 Y145.33 E.03359
G1 X167.142 Y145.366 E.01554
G1 X166.477 Y145.393 E.0289
G1 X166.337 Y145.45 E.00655
G1 X166.034 Y145.72 E.01761
G1 X165.446 Y146.177 E.03234
G1 X164.793 Y146.603 E.03383
G1 X164.436 Y146.804 E.01779
G1 X163.697 Y147.156 E.03552
G1 X163.337 Y147.299 E.01683
G1 X162.544 Y147.555 E.03617
G1 X162.127 Y147.659 E.01866
G1 X161.308 Y147.803 E.03611
G1 X160.923 Y147.845 E.01679
G1 X160.109 Y147.88 E.03539
G1 X159.701 Y147.87 E.01768
G1 X158.928 Y147.8 E.0337
G1 X158.574 Y147.746 E.01554
G1 X157.923 Y147.607 E.0289
G1 X157.778 Y147.625 E.00635
G1 X157.068 Y147.972 E.03432
G1 X156.353 Y148.247 E.03324
G1 X155.997 Y148.359 E.01621
G1 X155.213 Y148.55 E.03502
G1 X154.798 Y148.622 E.01829
G1 X153.975 Y148.708 E.03595
G1 X153.142 Y148.72 E.03613
G1 X152.75 Y148.699 E.01703
G1 X152.323 Y148.657 E.01865
G1 X151.513 Y148.521 E.03565
G1 X151.142 Y148.433 E.01654
G1 X150.386 Y148.202 E.03433
G1 X149.682 Y147.92 E.0329
G1 X149.089 Y147.625 E.02879
G1 X148.943 Y147.606 E.00635
G1 X148.169 Y147.765 E.03432
G1 X147.411 Y147.853 E.03312
G1 X146.616 Y147.877 E.03453
G1 X146.234 Y147.864 E.0166
G1 X145.417 Y147.782 E.03564
G1 X144.601 Y147.625 E.03605
G1 X144.186 Y147.514 E.01866
G1 X143.401 Y147.247 E.036
G1 X142.654 Y146.916 E.03544
G1 X141.956 Y146.53 E.03464
G1 X141.314 Y146.098 E.03359
G1 X141.03 Y145.88 E.01554
G1 X140.527 Y145.444 E.02889
G1 X140.386 Y145.39 E.00655
G1 X139.981 Y145.379 E.01761
G1 X139.239 Y145.31 E.03234
G1 X138.472 Y145.174 E.03382
G1 X138.074 Y145.076 E.01779
G1 X137.294 Y144.827 E.03552
G1 X136.934 Y144.684 E.01683
G1 X136.18 Y144.328 E.03616
G1 X135.805 Y144.118 E.01866
G1 X135.109 Y143.663 E.03611
G1 X134.8 Y143.43 E.0168
G1 X134.183 Y142.898 E.03538
G1 X133.893 Y142.612 E.01768
G1 X133.376 Y142.032 E.03371
G1 X133.156 Y141.75 E.01552
G1 X132.776 Y141.203 E.0289
G1 X132.654 Y141.116 E.00655
G1 X132.263 Y141.004 E.01761
G1 X131.562 Y140.753 E.03233
G1 X130.853 Y140.43 E.03384
G1 X130.492 Y140.236 E.01779
G1 X129.799 Y139.801 E.03551
G1 X129.485 Y139.574 E.01683
G1 X128.844 Y139.042 E.03616
G1 X128.533 Y138.745 E.01866
G1 X127.972 Y138.131 E.03611
G1 X127.73 Y137.828 E.01679
G1 X127.265 Y137.159 E.03539
G1 X127.055 Y136.81 E.01768
G1 X126.699 Y136.12 E.0337
G1 X126.555 Y135.792 E.01554
G1 X126.324 Y135.168 E.0289
G1 X126.227 Y135.053 E.00655
G1 X125.877 Y134.848 E.01761
G1 X125.26 Y134.43 E.03234
G1 X124.653 Y133.941 E.03383
G1 X124.352 Y133.663 E.01779
G1 X123.789 Y133.069 E.03552
G1 X123.541 Y132.771 E.01683
G1 X123.053 Y132.096 E.03616
G1 X122.825 Y131.732 E.01866
G1 X122.435 Y130.997 E.03611
G1 X122.276 Y130.644 E.0168
G1 X121.991 Y129.88 E.03539
G1 X121.875 Y129.49 E.01768
G1 X121.702 Y128.733 E.0337
G1 X121.644 Y128.38 E.01553
G1 X121.575 Y127.718 E.0289
G1 X121.513 Y127.585 E.00635
G1 X120.964 Y127.017 E.03433
G1 X120.482 Y126.422 E.03323
G1 X120.265 Y126.118 E.01621
G1 X119.842 Y125.434 E.03492
G1 X119.475 Y124.702 E.03554
G1 X119.171 Y123.929 E.03604
G1 X119.041 Y123.519 E.01866
G1 X118.846 Y122.713 E.036
G1 X118.725 Y121.903 E.03554
G1 X118.694 Y121.524 E.01654
G1 X118.68 Y120.733 E.03434
G1 X118.731 Y119.977 E.03289
G1 X118.829 Y119.321 E.02879
G1 X118.799 Y119.173 E.00655
G1 X118.591 Y118.825 E.01761
G1 X118.252 Y118.161 E.03234
G1 X117.956 Y117.44 E.03383
G1 X117.826 Y117.052 E.01779
G1 X117.618 Y116.26 E.03552
G1 X117.545 Y115.88 E.01683
G1 X117.442 Y115.053 E.03615
G1 X117.418 Y114.624 E.01866
G1 X117.43 Y113.792 E.03612
G1 X117.461 Y113.406 E.01679
G1 X117.579 Y112.6 E.03538
G1 X117.665 Y112.202 E.01768
G1 X117.879 Y111.455 E.03371
G1 X117.998 Y111.118 E.01553
G1 X118.256 Y110.504 E.0289
G1 X118.265 Y110.354 E.00655
G1 X118.15 Y109.965 E.01761
G1 X117.986 Y109.238 E.03233
G1 X117.879 Y108.466 E.03383
G1 X117.849 Y108.057 E.01779
G1 X117.845 Y107.239 E.03552
G1 X117.869 Y106.852 E.01683
G1 X117.975 Y106.026 E.03616
G1 X118.059 Y105.604 E.01866
G1 X118.277 Y104.801 E.03611
G1 X118.402 Y104.436 E.01679
G1 X118.718 Y103.684 E.03539
G1 X118.9 Y103.32 E.01768
G1 X119.292 Y102.649 E.0337
G1 X119.492 Y102.353 E.01553
G1 X119.895 Y101.823 E.0289
G1 X119.941 Y101.684 E.00635
G1 X119.929 Y100.893 E.03432
G1 X119.985 Y100.129 E.03324
G1 X120.035 Y99.759 E.0162
G1 X120.195 Y98.971 E.03492
G1 X120.429 Y98.186 E.03554
G1 X120.736 Y97.415 E.03604
G1 X120.922 Y97.027 E.01866
G1 X121.331 Y96.306 E.036
G1 X121.798 Y95.633 E.03555
G1 X122.035 Y95.335 E.01653
G1 X122.566 Y94.749 E.03434
G1 X123.121 Y94.233 E.03289
G1 X123.641 Y93.821 E.02879
G1 X123.721 Y93.693 E.00655
G1 X123.807 Y93.297 E.01761
G1 X124.014 Y92.581 E.03233
G1 X124.292 Y91.853 E.03383
G1 X124.463 Y91.481 E.01779
G1 X124.854 Y90.762 E.03552
G1 X125.039 Y90.468 E.01509
G1 X125.419 Y90.707 F18000
G1 F1500
G1 X125.429 Y90.69 E.00088
G1 X125.908 Y90.034 E.03524
G1 X126.165 Y89.729 E.01732
G1 X126.722 Y89.152 E.03479
G1 X126.986 Y88.913 E.0155
G1 X127.594 Y88.43 E.0337
G1 X127.913 Y88.21 E.01678
G1 X128.547 Y87.831 E.0321
G1 X128.848 Y87.676 E.0147
G1 X129.431 Y87.417 E.02766
G1 X129.577 Y87.319 E.00764
G1 X129.669 Y87.231 E.00555
G1 X129.774 Y87.09 E.00764
G1 X129.947 Y86.747 E.01666
G1 X130.303 Y86.143 E.03043
G1 X130.734 Y85.533 E.03243
G1 X130.979 Y85.231 E.01689
G1 X131.51 Y84.66 E.03383
G1 X131.77 Y84.414 E.01554
G1 X132.389 Y83.904 E.03484
G1 X132.714 Y83.672 E.01732
G1 X133.396 Y83.251 E.0348
G1 X133.72 Y83.08 E.0159
G1 X134.429 Y82.764 E.03369
G1 X134.792 Y82.63 E.01678
G1 X135.509 Y82.419 E.03246
G1 X135.831 Y82.345 E.01435
G1 X136.46 Y82.239 E.02767
G1 X136.73 Y82.125 E.01273
G1 X136.864 Y82.019 E.0074
G1 X137.38 Y81.454 E.03324
G1 X137.911 Y80.965 E.03134
G1 X138.186 Y80.742 E.01534
G1 X138.816 Y80.297 E.03349
G1 X139.489 Y79.905 E.03381
G1 X140.199 Y79.573 E.03404
G1 X140.58 Y79.425 E.01772
G1 X141.328 Y79.193 E.034
G1 X142.104 Y79.027 E.03448
G1 X142.452 Y78.976 E.01526
G1 X143.197 Y78.916 E.03244
G1 X143.918 Y78.919 E.0313
G1 X144.556 Y78.973 E.02776
G1 X144.725 Y78.959 E.0074
G1 X145.002 Y78.86 E.01273
G1 X145.643 Y78.441 E.03325
G1 X146.278 Y78.099 E.03133
G1 X146.6 Y77.952 E.01534
G1 X147.321 Y77.677 E.03349
G1 X148.058 Y77.468 E.03328
G1 X148.85 Y77.318 E.03496
G1 X149.625 Y77.244 E.03383
G1 X150.42 Y77.24 E.03448
G1 X151.169 Y77.302 E.03262
G1 X151.919 Y77.432 E.03306
G1 X152.606 Y77.612 E.03081
G1 X153.209 Y77.822 E.02774
G1 X153.383 Y77.851 E.00764
G1 X153.51 Y77.85 E.00555
G1 X153.683 Y77.818 E.00764
G1 X154.044 Y77.687 E.01666
G1 X154.717 Y77.49 E.03045
G1 X155.449 Y77.341 E.03242
G1 X155.834 Y77.288 E.01688
G1 X156.612 Y77.235 E.03383
G1 X156.979 Y77.235 E.01593
G1 X157.748 Y77.284 E.03345
G1 X158.156 Y77.338 E.01786
G1 X158.952 Y77.5 E.03525
G1 X159.305 Y77.597 E.01591
G1 X160.038 Y77.851 E.03369
G1 X160.394 Y78.003 E.01678
G1 X161.062 Y78.339 E.03246
G1 X161.347 Y78.506 E.01435
G1 X161.877 Y78.859 E.02765
G1 X162.038 Y78.93 E.00764
G1 X162.162 Y78.961 E.00555
G1 X162.337 Y78.974 E.00764
G1 X162.719 Y78.936 E.01666
G1 X163.42 Y78.913 E.03044
G1 X164.166 Y78.95 E.03242
G1 X164.553 Y78.995 E.01689
G1 X165.319 Y79.137 E.03383
G1 X165.674 Y79.228 E.01593
G1 X166.437 Y79.478 E.03485
G1 X166.807 Y79.628 E.01732
G1 X167.52 Y79.975 E.0344
G1 X167.837 Y80.157 E.01589
G1 X168.484 Y80.586 E.0337
G1 X168.785 Y80.816 E.0164
G1 X169.354 Y81.313 E.03284
G1 X169.589 Y81.546 E.01434
G1 X170.015 Y82.02 E.02766
G1 X170.153 Y82.128 E.00764
G1 X170.266 Y82.189 E.00555
G1 X170.432 Y82.245 E.00764
G1 X170.811 Y82.304 E.01665
G1 X171.507 Y82.458 E.03094
G1 X172.21 Y82.677 E.03194
G1 X172.564 Y82.813 E.01649
G1 X173.279 Y83.145 E.03422
G1 X173.593 Y83.317 E.01553
G1 X174.27 Y83.748 E.03484
G1 X174.592 Y83.985 E.01732
G1 X175.209 Y84.51 E.03519
G1 X175.465 Y84.759 E.01551
G1 X175.991 Y85.342 E.03409
G1 X176.224 Y85.639 E.01639
G1 X176.642 Y86.249 E.03209
G1 X176.816 Y86.54 E.01471
G1 X177.111 Y87.105 E.02767
G1 X177.304 Y87.326 E.01273
G1 X177.445 Y87.421 E.0074
