; HEADER_BLOCK_START
; generated by AnycubicSlicerNext 1.3.2 on 2025-06-20 at 19:55:10
; total layer number: 75
; filament_density: 1.24
; filament_diameter: 1.75
; max_z_height: 15.04
; exclude_object: 0
; model_instances: 1
; HEADER_BLOCK_END

; THUMBNAIL_BLOCK_START

;
; THUMBNAIL_BLOCK_END

; external perimeters extrusion width = 0.42mm
; perimeters extrusion width = 0.45mm
; infill extrusion width = 0.45mm
; solid infill extrusion width = 0.42mm
; top infill extrusion width = 0.42mm
; support material extrusion width = 0.40mm
; first layer extrusion width = 0.50mm

; EXECUTABLE_BLOCK_START
M201 X2000 Y2000 Z800 E2000
M203 X300 Y300 Z8 E100
M204 P2000 R2000 T2000
M205 X10.00 Y10.00 Z2.00 E5.00 ; sets the jerk limits, mm/sec
;TYPE:Custom
G90 ; use absolute coordinates
M83 ; extruder relative mode
M104 S220 ; set extruder temp
M140 S60 ; set bed temp
M190 S60 ; wait for bed temp
M109 S220 ; wait for extruder temp
G28                                        ; move X/Y/Z to min endstops
G1 Z0.28                                   ; lift nozzle a bit 
G92 E0 
G1 Y3 F1800                                    ; zero the extruded length 
G1 X60  E25 F500                       ; Extrude 25mm of filament in a 5cm line. 
G92 E0                                     ; zero the extruded length again 
G1 E-2 F500                                ; Retract a little 
G1 X70 F4000                              ; Quickly wipe away from the filament line
M117
G90
G21
M82 ; use absolute distances for extrusion
G92 E0
; filament start gcode
M106 S0
;LAYER_CHANGE
;Z:0.24
;HEIGHT:0.24
; BEFORE_LAYER_CHANGE 0 @ 0.24mm
G1 E-2.5 F6000
G92 E0
; AFTER_LAYER_CHANGE 0 @ 0.24mm
;_SET_FAN_SPEED_CHANGING_LAYER
M204 P500
; printing object "CableRollHolder.stl" id:1985880968192 copy 0
M204 T500
G1 X110.166 Y70.867 F18000
G1 Z.24
G1 E2.5 F6000
;TYPE:Support
;WIDTH:0.5
G1 F1200
G1 X110.279 Y70.852 E2.50496
G1 X111.184 Y70.885 E2.54429
G1 X112.101 Y71.121 E2.58537
G1 X112.95 Y71.55 E2.62667
G1 X113.5 Y72.008 E2.65772
G1 X113.5 Y72.149 E2.66387
G1 X113.509 Y72.222 E2.66703
G1 X114.649 Y76.831 E2.87316
G1 X114.521 Y77.179 E2.88926
G1 X114.008 Y77.954 E2.92961
G1 X113.34 Y78.596 E2.96982
G1 X112.541 Y79.089 E3.01056
G1 X112.497 Y79.143 E3.01358
G1 X111.818 Y79.504 E3.04698
G1 X111.126 Y79.671 E3.07788
G1 X110.202 Y79.695 E3.11798
G1 X109.887 Y79.635 E3.13189
G1 X109.819 Y79.648 E3.13493
G1 X108.893 Y79.628 E3.17513
G1 X108.326 Y79.494 E3.20041
G1 X107.82 Y79.307 E3.22385
G1 X107.354 Y78.962 E3.24899
G1 X107.024 Y78.798 E3.26501
G1 X106.29 Y78.223 E3.30547
G1 X105.696 Y77.506 E3.34589
G1 X105.352 Y76.825 E3.37901
G1 X106.491 Y72.222 E3.58486
G1 X106.5 Y72.149 E3.58802
G1 X106.5 Y71.975 E3.59558
G1 X107.059 Y71.514 E3.62705
G1 X107.896 Y71.081 E3.66796
G1 X108.816 Y70.837 E3.70928
G1 X109.772 Y70.796 E3.7508
G1 X110.099 Y70.855 E3.76524
G1 X113.987 Y77.621 F18000
G1 F1200
G1 X113.987 Y75.833 E3.84285
G1 X113.488 Y73.819 E3.93291
G1 X113.488 Y77.894 E4.10979
G1 X113.091 Y78.275 E4.13367
G1 X112.99 Y78.337 E4.13883
G1 X112.99 Y72.108 E4.40921
G1 X112.727 Y71.89 E4.42405
G1 X112.492 Y71.771 E4.43551
G1 X112.492 Y78.645 E4.73391
G1 X112.273 Y78.78 E4.74508
G1 X112.237 Y78.824 E4.74753
G1 X111.993 Y78.954 E4.75951
G1 X111.993 Y71.519 E5.08223
G1 X111.958 Y71.501 E5.08395
G1 X111.495 Y71.382 E5.1047
G1 X111.495 Y79.167 E5.44264
G1 X111.073 Y79.269 E5.46148
G1 X110.997 Y79.271 E5.4648
G1 X110.997 Y71.282 E5.81156
G1 X110.498 Y71.264 E5.83321
G1 X110.498 Y79.283 E6.18131
G1 X110.235 Y79.29 E6.19273
G1 X110 Y79.245 E6.20313
G1 X110 Y71.247 E6.5503
G1 X109.745 Y71.202 E6.56157
G1 X109.502 Y71.212 E6.57212
G1 X109.502 Y79.238 E6.92051
G1 X109.003 Y79.227 E6.94215
G1 X109.003 Y71.233 E7.28916
G1 X108.877 Y71.238 E7.29464
G1 X108.505 Y71.337 E7.31135
G1 X108.505 Y79.121 E7.64926
G1 X108.443 Y79.106 E7.65202
G1 X108.013 Y78.948 E7.6719
G1 X108.007 Y78.943 E7.67226
G1 X108.007 Y71.478 E7.99632
G1 X107.508 Y71.736 E8.02067
G1 X107.508 Y78.588 E8.31813
G1 X107.24 Y78.455 E8.33112
G1 X107.01 Y78.275 E8.34383
G1 X107.01 Y72.078 E8.61283
G1 X106.904 Y72.165 E8.61881
G1 X106.904 Y72.174 E8.61918
G1 X106.889 Y72.295 E8.62447
G1 X106.512 Y73.819 E8.69264
G1 X106.512 Y77.857 E8.86792
G1 X106.036 Y77.283 E8.90028
G1 X106.013 Y77.238 E8.90247
G1 X106.013 Y74.993 E8.99993
G1 E7.24993 F6000
;WIPE_START
G1 F1200
G1 X106.013 Y75.993 E6.49993
;WIPE_END
G92 E0
G1 X97.253 Y72.803 F18000
G1 E2.5 F6000
;TYPE:Brim
G1 F1200
G1 X100.719 Y58.938 E3.12036
G1 X100.921 Y58.327 E3.14832
G1 X101.21 Y57.758 E3.176
G1 X101.478 Y57.365 E3.19666
G1 X101.977 Y56.796 E3.22953
G1 X102.466 Y56.391 E3.25707
G1 X103.007 Y56.066 E3.28447
G1 X103.942 Y55.724 E3.32766
G1 X104.567 Y55.612 E3.35525
G1 X105.006 Y55.589 E3.37432
G1 X114.992 Y55.589 E3.80779
G1 X115.634 Y55.637 E3.83575
G1 X116.255 Y55.779 E3.86338
G1 X116.81 Y55.991 E3.88918
G1 X117.375 Y56.29 E3.91691
G1 X117.886 Y56.667 E3.94451
G1 X118.334 Y57.113 E3.97194
G1 X118.857 Y57.872 E4.01194
G1 X119.152 Y58.516 E4.04273
G1 X119.28 Y58.936 E4.06176
G1 X144.277 Y158.922 E8.5356
G1 X144.386 Y159.557 E8.56355
G1 X144.399 Y160.193 E8.59119
G1 X144.328 Y160.783 E8.61698
G1 X144.175 Y161.404 E8.64472
G1 X143.934 Y161.992 E8.67231
G1 X143.607 Y162.537 E8.69991
G1 X143.203 Y163.028 E8.7275
G1 X142.731 Y163.452 E8.75507
G1 X142.154 Y163.828 E8.78495
G1 X141.449 Y164.156 E8.81871
G1 X140.841 Y164.326 E8.84612
G1 X139.989 Y164.411 E8.88328
G1 X80.008 Y164.411 E11.48694
G1 X79.366 Y164.363 E11.5149
G1 X78.745 Y164.221 E11.54253
G1 X78.19 Y164.009 E11.56833
G1 X77.625 Y163.71 E11.59607
G1 X77.114 Y163.333 E11.62366
G1 X76.664 Y162.884 E11.65126
G1 X76.286 Y162.373 E11.67885
G1 X75.988 Y161.812 E11.70642
G1 X75.764 Y161.161 E11.7363
G1 X75.617 Y160.398 E11.77005
G1 X75.599 Y159.766 E11.79746
G1 X75.724 Y158.919 E11.83463
G1 X97.243 Y72.842 E15.68613
G1 X97.678 Y72.95 F18000
G1 F1200
G1 X101.149 Y59.068 E16.30728
G1 X101.333 Y58.509 E16.33284
G1 X101.592 Y57.995 E16.35784
G1 X101.829 Y57.647 E16.37608
G1 X102.299 Y57.111 E16.40704
G1 X102.718 Y56.765 E16.43065
G1 X103.191 Y56.479 E16.45461
G1 X104.071 Y56.156 E16.4953
G1 X104.61 Y56.06 E16.51908
G1 X105.021 Y56.038 E16.53693
G1 X114.98 Y56.038 E16.96925
G1 X115.577 Y56.084 E16.99524
G1 X116.133 Y56.212 E17.02
G1 X116.631 Y56.404 E17.04318
G1 X117.127 Y56.666 E17.0675
G1 X117.585 Y57.002 E17.09218
G1 X117.995 Y57.412 E17.11734
G1 X118.459 Y58.085 E17.15281
G1 X118.728 Y58.668 E17.18071
G1 X118.849 Y59.059 E17.19848
G1 X143.837 Y159.01 E21.67072
G1 X143.937 Y159.59 E21.69627
G1 X143.95 Y160.161 E21.72108
G1 X143.884 Y160.71 E21.74509
G1 X143.744 Y161.274 E21.77028
G1 X143.526 Y161.799 E21.79496
G1 X143.233 Y162.286 E21.81963
G1 X142.871 Y162.723 E21.84431
G1 X142.448 Y163.101 E21.86891
G1 X141.927 Y163.439 E21.89585
G1 X141.282 Y163.737 E21.92669
G1 X140.746 Y163.885 E21.95085
G1 X139.96 Y163.962 E21.98513
G1 X80.03 Y163.962 E24.5866
G1 X79.443 Y163.919 E24.61215
G1 X78.867 Y163.788 E24.63779
G1 X78.369 Y163.596 E24.66097
G1 X77.873 Y163.334 E24.68529
G1 X77.415 Y162.998 E24.70997
G1 X77.012 Y162.597 E24.73464
G1 X76.662 Y162.124 E24.76019
G1 X76.397 Y161.623 E24.78479
G1 X76.201 Y161.054 E24.8109
G1 X76.066 Y160.359 E24.84163
G1 X76.05 Y159.781 E24.86673
G1 X76.166 Y159 E24.90101
G1 X97.669 Y72.989 E28.74953
G1 X98.104 Y73.098 F18000
G1 F1200
G1 X101.579 Y59.198 E29.37148
G1 X101.746 Y58.691 E29.39466
G1 X101.976 Y58.231 E29.41699
G1 X102.19 Y57.916 E29.43349
G1 X102.605 Y57.442 E29.46086
G1 X102.971 Y57.138 E29.48151
G1 X103.398 Y56.881 E29.50314
G1 X104.177 Y56.595 E29.53918
G1 X104.653 Y56.508 E29.56019
G1 X105.036 Y56.486 E29.57683
G1 X114.957 Y56.487 E30.0075
G1 X115.499 Y56.528 E30.03107
G1 X116.01 Y56.646 E30.05384
G1 X116.452 Y56.817 E30.07442
G1 X116.879 Y57.043 E30.09539
G1 X117.284 Y57.337 E30.11711
G1 X117.656 Y57.71 E30.13997
G1 X118.061 Y58.298 E30.17098
G1 X118.305 Y58.82 E30.196
G1 X118.418 Y59.183 E30.21248
G1 X143.396 Y159.098 E34.68311
G1 X143.487 Y159.624 E34.70629
G1 X143.501 Y160.13 E34.72827
G1 X143.44 Y160.637 E34.75045
G1 X143.313 Y161.142 E34.77305
G1 X143.12 Y161.605 E34.79481
G1 X142.86 Y162.033 E34.81656
G1 X142.539 Y162.418 E34.83832
G1 X142.166 Y162.75 E34.85997
G1 X141.702 Y163.049 E34.88397
G1 X141.117 Y163.317 E34.91188
G1 X140.652 Y163.443 E34.93279
G1 X139.931 Y163.514 E34.96423
G1 X80.052 Y163.514 E37.56352
G1 X79.5 Y163.472 E37.58754
G1 X78.989 Y163.354 E37.61029
G1 X78.548 Y163.183 E37.63084
G1 X78.121 Y162.957 E37.65181
G1 X77.715 Y162.662 E37.67358
G1 X77.346 Y162.295 E37.69619
G1 X77.038 Y161.876 E37.71876
G1 X76.807 Y161.434 E37.7404
G1 X76.639 Y160.947 E37.7628
G1 X76.516 Y160.321 E37.79047
G1 X76.501 Y159.797 E37.81324
G1 X76.608 Y159.081 E37.84464
G1 X98.094 Y73.137 E41.69018
G1 X98.529 Y73.246 F18000
G1 F1200
G1 X102.009 Y59.328 E42.31293
G1 X102.158 Y58.871 E42.33377
G1 X102.36 Y58.466 E42.35342
G1 X102.55 Y58.185 E42.36817
G1 X102.912 Y57.773 E42.39199
G1 X103.224 Y57.511 E42.40964
G1 X103.605 Y57.283 E42.42892
G1 X104.285 Y57.033 E42.46038
G1 X104.698 Y56.955 E42.47862
G1 X105.052 Y56.935 E42.49402
G1 X114.935 Y56.935 E42.92301
G1 X115.421 Y56.972 E42.94417
G1 X115.887 Y57.079 E42.96493
G1 X116.273 Y57.229 E42.9829
G1 X116.633 Y57.419 E43.00057
G1 X116.983 Y57.673 E43.01931
G1 X117.316 Y58.008 E43.03986
G1 X117.664 Y58.512 E43.06646
G1 X117.882 Y58.974 E43.08861
G1 X117.987 Y59.308 E43.10379
G1 X142.956 Y159.186 E47.57277
G1 X143.038 Y159.659 E47.59361
G1 X143.051 Y160.099 E47.61275
G1 X142.996 Y160.564 E47.63305
G1 X142.882 Y161.01 E47.65302
G1 X142.714 Y161.409 E47.67186
G1 X142.487 Y161.78 E47.6907
G1 X142.208 Y162.112 E47.70953
G1 X141.886 Y162.397 E47.72823
G1 X141.477 Y162.659 E47.7493
G1 X140.953 Y162.897 E47.77427
G1 X140.56 Y163.002 E47.79193
G1 X139.903 Y163.065 E47.82059
G1 X80.074 Y163.065 E50.41767
G1 X79.578 Y163.028 E50.43927
G1 X79.112 Y162.921 E50.46001
G1 X78.727 Y162.771 E50.47795
G1 X78.367 Y162.581 E50.49562
G1 X78.015 Y162.326 E50.51448
G1 X77.694 Y162.009 E50.53408
G1 X77.415 Y161.629 E50.55454
G1 X77.217 Y161.247 E50.57322
G1 X77.076 Y160.838 E50.59198
G1 X76.965 Y160.283 E50.61658
G1 X76.953 Y159.812 E50.637
G1 X77.05 Y159.162 E50.66552
G1 X98.519 Y73.284 E54.50809
G1 X98.954 Y73.393 F18000
G1 F1200
G1 X102.439 Y59.457 E55.13167
G1 X102.572 Y59.051 E55.1502
G1 X102.744 Y58.701 E55.16715
G1 X102.911 Y58.454 E55.18011
G1 X103.22 Y58.102 E55.20043
G1 X103.477 Y57.884 E55.21503
G1 X103.811 Y57.685 E55.23193
G1 X104.394 Y57.471 E55.25889
G1 X104.744 Y57.403 E55.27437
G1 X105.069 Y57.383 E55.28851
G1 X114.913 Y57.384 E55.71581
G1 X115.343 Y57.416 E55.73454
G1 X115.764 Y57.512 E55.75327
G1 X116.079 Y57.635 E55.76795
G1 X116.387 Y57.797 E55.78305
G1 X116.681 Y58.008 E55.79878
G1 X116.977 Y58.306 E55.81699
G1 X117.268 Y58.728 E55.83924
G1 X117.459 Y59.129 E55.85854
G1 X117.556 Y59.433 E55.87239
G1 X142.516 Y159.274 E60.3397
G1 X142.589 Y159.694 E60.35824
G1 X142.602 Y160.069 E60.37452
G1 X142.555 Y160.473 E60.39215
G1 X142.452 Y160.875 E60.41019
G1 X142.308 Y161.213 E60.42611
G1 X142.116 Y161.525 E60.44203
G1 X141.879 Y161.805 E60.45794
G1 X141.606 Y162.043 E60.47368
G1 X141.253 Y162.268 E60.49184
G1 X140.791 Y162.476 E60.51385
G1 X140.469 Y162.56 E60.52828
G1 X139.875 Y162.617 E60.55419
G1 X80.096 Y162.617 E63.1491
G1 X79.655 Y162.584 E63.16828
G1 X79.236 Y162.487 E63.18698
G1 X78.921 Y162.365 E63.20163
G1 X78.613 Y162.203 E63.21674
G1 X78.314 Y161.989 E63.2327
G1 X78.028 Y161.706 E63.25017
G1 X77.792 Y161.382 E63.26756
G1 X77.627 Y161.06 E63.28326
G1 X77.513 Y160.73 E63.29845
G1 X77.415 Y160.244 E63.31997
G1 X77.404 Y159.828 E63.33801
G1 X77.492 Y159.244 E63.36366
G1 X98.945 Y73.432 E67.20327
G1 X99.38 Y73.541 F18000
G1 F1200
G1 X102.888 Y59.509 E67.8311
G1 X103.054 Y59.088 E67.85077
G1 X103.351 Y58.631 E67.87445
G1 X103.7 Y58.286 E67.89572
G1 X103.84 Y58.187 E67.90317
G1 X104.169 Y58.015 E67.9193
G1 X104.509 Y57.903 E67.93481
G1 X104.871 Y57.844 E67.95076
G1 X115.159 Y57.85 E68.39734
G1 X115.691 Y57.968 E68.42099
G1 X115.816 Y58.017 E68.42679
G1 X116.25 Y58.257 E68.44833
G1 X116.414 Y58.377 E68.45716
G1 X116.594 Y58.552 E68.46806
G1 X116.774 Y58.776 E68.48054
G1 X117.088 Y59.438 E68.51232
G1 X142.094 Y159.438 E72.98683
G1 X142.147 Y159.884 E73.00634
G1 X142.127 Y160.287 E73.02388
G1 X142.06 Y160.584 E73.03709
G1 X141.898 Y160.985 E73.05585
G1 X141.622 Y161.395 E73.07732
G1 X141.356 Y161.659 E73.09361
G1 X141.05 Y161.869 E73.10971
G1 X140.649 Y162.049 E73.12878
G1 X140.394 Y162.115 E73.1402
G1 X139.961 Y162.168 E73.15916
G1 X80.036 Y162.168 E75.7604
G1 X79.603 Y162.115 E75.77935
G1 X79.228 Y162.004 E75.79631
G1 X79.055 Y161.92 E75.80466
G1 X78.668 Y161.675 E75.82454
G1 X78.433 Y161.462 E75.83831
G1 X78.237 Y161.217 E75.85193
G1 X78.06 Y160.91 E75.8673
G1 X77.96 Y160.661 E75.87898
G1 X77.859 Y160.121 E75.90282
G1 X77.854 Y159.998 E75.90815
G1 X77.907 Y159.434 E75.93273
G1 X99.37 Y73.58 E79.77425
G1 X99.805 Y73.688 F18000
G1 F1200
G1 X103.325 Y59.61 E80.40419
G1 X103.429 Y59.334 E80.417
G1 X103.666 Y58.95 E80.43655
G1 X103.964 Y58.648 E80.45499
G1 X104.05 Y58.583 E80.45967
G1 X104.312 Y58.44 E80.47263
G1 X104.571 Y58.348 E80.48454
G1 X104.954 Y58.285 E80.50141
G1 X115.167 Y58.298 E80.94474
G1 X115.591 Y58.405 E80.96369
G1 X116.039 Y58.653 E80.98596
G1 X116.144 Y58.734 E80.9917
G1 X116.28 Y58.872 E81.00011
G1 X116.423 Y59.056 E81.01023
G1 X116.65 Y59.535 E81.03322
G1 X141.661 Y159.555 E85.50862
G1 X141.703 Y159.941 E85.52551
G1 X141.679 Y160.264 E85.53954
G1 X141.624 Y160.479 E85.54917
G1 X141.48 Y160.824 E85.56541
G1 X141.252 Y161.142 E85.5824
G1 X141.043 Y161.338 E85.59484
G1 X140.797 Y161.499 E85.60761
G1 X140.536 Y161.615 E85.62001
G1 X140.342 Y161.67 E85.62875
G1 X139.969 Y161.72 E85.64508
G1 X80.028 Y161.72 E88.24705
G1 X79.732 Y161.685 E88.25996
G1 X79.417 Y161.597 E88.27415
G1 X79.302 Y161.546 E88.27964
G1 X78.899 Y161.29 E88.30035
G1 X78.741 Y161.136 E88.30993
G1 X78.588 Y160.938 E88.3208
G1 X78.448 Y160.686 E88.33332
G1 X78.375 Y160.493 E88.34227
G1 X78.3 Y160.041 E88.36216
G1 X78.339 Y159.553 E88.3834
G1 X99.796 Y73.727 E92.22363
G1 X100.231 Y73.836 F18000
G1 F1200
G1 X103.762 Y59.711 E92.85565
G1 X103.85 Y59.489 E92.86602
G1 X104.048 Y59.185 E92.88174
G1 X104.275 Y58.971 E92.8953
G1 X104.452 Y58.866 E92.90425
G1 X104.732 Y58.766 E92.91716
G1 X105.019 Y58.729 E92.9297
G1 X115.07 Y58.736 E93.36599
G1 X115.303 Y58.781 E93.37629
G1 X115.459 Y58.833 E93.38344
G1 X115.819 Y59.044 E93.40155
G1 X115.968 Y59.194 E93.4107
G1 X116.069 Y59.331 E93.41814
G1 X116.211 Y59.631 E93.43252
G1 X141.228 Y159.673 E97.90891
G1 X141.255 Y159.91 E97.91928
G1 X141.243 Y160.163 E97.93026
G1 X141.214 Y160.297 E97.93623
G1 X141.062 Y160.66 E97.95328
G1 X140.895 Y160.871 E97.96501
G1 X140.74 Y161.007 E97.97394
G1 X140.616 Y161.089 E97.98039
G1 X140.406 Y161.186 E97.99044
G1 X140.282 Y161.225 E97.99608
G1 X139.978 Y161.271 E98.00943
G1 X80.02 Y161.271 E100.61213
G1 X79.783 Y161.24 E100.62251
G1 X79.541 Y161.166 E100.63348
G1 X79.204 Y160.961 E100.6506
G1 X79.102 Y160.871 E100.65651
G1 X78.938 Y160.657 E100.66823
G1 X78.843 Y160.474 E100.67716
G1 X78.795 Y160.337 E100.68347
G1 X78.743 Y159.971 E100.6995
G1 X78.772 Y159.67 E100.71262
G1 X100.221 Y73.875 E104.55149
G1 X100.656 Y73.984 F18000
G1 F1200
G1 X104.199 Y59.811 E105.18564
G1 X104.264 Y59.659 E105.19281
G1 X104.364 Y59.503 E105.20085
G1 X104.515 Y59.35 E105.21018
G1 X104.614 Y59.284 E105.21534
G1 X104.794 Y59.21 E105.22377
G1 X105.01 Y59.177 E105.23329
G1 X114.989 Y59.177 E105.66646
G1 X115.152 Y59.204 E105.67363
G1 X115.328 Y59.262 E105.68168
G1 X115.513 Y59.372 E105.69101
G1 X115.601 Y59.452 E105.69616
G1 X115.716 Y59.608 E105.70459
G1 X115.801 Y59.81 E105.71411
G1 X140.796 Y159.79 E110.18764
G1 X140.809 Y159.955 E110.19482
G1 X140.795 Y160.135 E110.20268
G1 X140.701 Y160.395 E110.21466
G1 X140.606 Y160.527 E110.22173
G1 X140.436 Y160.678 E110.2316
G1 X140.209 Y160.783 E110.24245
G1 X139.988 Y160.823 E110.25221
G1 X80.011 Y160.823 E112.85573
G1 X79.848 Y160.796 E112.86291
G1 X79.676 Y160.739 E112.87077
G1 X79.447 Y160.585 E112.88275
G1 X79.341 Y160.461 E112.88982
G1 X79.237 Y160.259 E112.8997
