; HEADER_BLOCK_START
; generated by AnycubicSlicerNext 1.3.2 on 2025-02-17 at 02:13:21
; total layer number: 100
; filament_density: 1.24
; filament_diameter: 1.75
; max_z_height: 20.04
; exclude_object: 0
; model_instances: 1
; HEADER_BLOCK_END

; THUMBNAIL_BLOCK_START

;
; THUMBNAIL_BLOCK_END

; external perimeters extrusion width = 0.42mm
; perimeters extrusion width = 0.45mm
; infill extrusion width = 0.45mm
; solid infill extrusion width = 0.42mm
; top infill extrusion width = 0.42mm
; first layer extrusion width = 0.50mm

; EXECUTABLE_BLOCK_START
M201 X2000 Y2000 Z800 E2000
M203 X300 Y300 Z8 E100
M204 P2000 R2000 T2000
M205 X10.00 Y10.00 Z2.00 E5.00 ; sets the jerk limits, mm/sec
;TYPE:Custom
G90 ; use absolute coordinates
M83 ; extruder relative mode
M104 S220 ; set extruder temp
M140 S60 ; set bed temp
M190 S60 ; wait for bed temp
M109 S220 ; wait for extruder temp
G28                                        ; move X/Y/Z to min endstops
G1 Z0.28                                   ; lift nozzle a bit 
G92 E0 
G1 Y3 F1800                                    ; zero the extruded length 
G1 X60  E25 F500                       ; Extrude 25mm of filament in a 5cm line. 
G92 E0                                     ; zero the extruded length again 
G1 E-2 F500                                ; Retract a little 
G1 X70 F4000                              ; Quickly wipe away from the filament line
M117
G90
G21
M82 ; use absolute distances for extrusion
G92 E0
; filament start gcode
M106 S0
;LAYER_CHANGE
;Z:0.24
;HEIGHT:0.24
; BEFORE_LAYER_CHANGE 0 @ 0.24mm
G1 E-2.5 F6000
G92 E0
; AFTER_LAYER_CHANGE 0 @ 0.24mm
;_SET_FAN_SPEED_CHANGING_LAYER
M204 P500
; printing object "GetriebeAchse.stl" id:0 copy 0
M204 T500
G1 X99.863 Y99.758 F18000
G1 Z.24
G1 E2.5 F6000
;TYPE:Brim
;WIDTH:0.5
G1 F3000
G1 X100.327 Y99.319 E2.52774
G1 X100.87 Y98.851 E2.55884
G1 X101.497 Y98.365 E2.59328
G1 X102.012 Y98.006 E2.62054
G1 X102.613 Y97.627 E2.65138
G1 X103.3 Y97.242 E2.68558
G1 X103.872 Y96.957 E2.71332
G1 X104.528 Y96.669 E2.74442
G1 X105.27 Y96.388 E2.77885
G1 X105.952 Y96.17 E2.80994
G1 X106.597 Y95.998 E2.83889
G1 X107.21 Y95.862 E2.86614
G1 X107.954 Y95.736 E2.89892
G1 X108.664 Y95.652 E2.92995
G1 X109.417 Y95.602 E2.96272
G1 X110.091 Y95.59 E2.99198
G1 X110.795 Y95.611 E3.02255
G1 X111.541 Y95.672 E3.05503
G1 X112.293 Y95.773 E3.08799
G1 X112.918 Y95.888 E3.11558
G1 X113.568 Y96.039 E3.14454
G1 X114.252 Y96.231 E3.17538
G1 X114.961 Y96.47 E3.20786
G1 X115.663 Y96.749 E3.24061
G1 X116.353 Y97.065 E3.27357
G1 X116.917 Y97.358 E3.30115
G1 X117.568 Y97.737 E3.33388
G1 X118.119 Y98.095 E3.36236
G1 X118.702 Y98.513 E3.39352
G1 X119.293 Y98.986 E3.4264
G1 X119.77 Y99.407 E3.454
G1 X120.241 Y99.862 E3.48242
G1 X120.815 Y100.477 E3.51897
G1 X121.551 Y101.385 E3.56969
G1 X121.988 Y102.003 E3.60255
G1 X122.371 Y102.61 E3.63368
G1 X122.685 Y103.164 E3.66133
G1 X123.041 Y103.869 E3.69563
G1 X123.326 Y104.517 E3.72635
G1 X123.566 Y105.14 E3.75533
G1 X123.802 Y105.858 E3.78813
G1 X124 Y106.586 E3.82087
G1 X124.153 Y107.286 E3.85201
G1 X124.257 Y107.903 E3.87917
G1 X124.339 Y108.565 E3.90812
G1 X124.393 Y109.282 E3.93932
G1 X124.41 Y110.074 E3.97371
G1 X124.393 Y110.713 E4.00146
G1 X124.349 Y111.329 E4.02825
G1 X124.265 Y112.042 E4.05941
G1 X124.131 Y112.822 E4.09379
G1 X123.992 Y113.446 E4.12152
G1 X123.793 Y114.174 E4.15428
G1 X123.529 Y114.962 E4.19036
G1 X123.296 Y115.556 E4.21806
G1 X122.972 Y116.277 E4.25236
G1 X122.648 Y116.906 E4.28309
G1 X122.315 Y117.484 E4.31204
G1 X121.972 Y118.02 E4.33966
G1 X121.533 Y118.64 E4.37264
G1 X121.153 Y119.125 E4.39941
G1 X120.685 Y119.669 E4.43057
G1 X120.137 Y120.242 E4.46495
G1 X119.673 Y120.681 E4.49269
G1 X119.131 Y121.148 E4.52374
G1 X118.503 Y121.635 E4.55823
G1 X117.998 Y121.987 E4.58498
G1 X117.358 Y122.39 E4.61781
G1 X116.613 Y122.803 E4.65477
G1 X116.114 Y123.049 E4.67893
G1 X115.436 Y123.346 E4.71103
G1 X114.716 Y123.617 E4.74442
G1 X113.997 Y123.845 E4.77717
G1 X113.281 Y124.032 E4.8093
G1 X112.678 Y124.159 E4.83607
G1 X112.047 Y124.264 E4.86385
G1 X111.336 Y124.348 E4.89489
G1 X110.543 Y124.4 E4.92939
G1 X109.927 Y124.41 E4.95614
G1 X109.205 Y124.389 E4.9875
G1 X108.459 Y124.328 E5.02
G1 X107.825 Y124.245 E5.04773
G1 X107.179 Y124.131 E5.07623
G1 X106.474 Y123.972 E5.10759
G1 X105.753 Y123.771 E5.14008
G1 X105.147 Y123.568 E5.16781
G1 X104.523 Y123.329 E5.19682
G1 X103.873 Y123.043 E5.22766
G1 X103.204 Y122.707 E5.26014
G1 X102.544 Y122.332 E5.2931
G1 X102.008 Y121.991 E5.32071
G1 X101.502 Y121.638 E5.34746
G1 X100.905 Y121.178 E5.3802
G1 X100.229 Y120.592 E5.419
G1 X99.786 Y120.165 E5.44572
G1 X99.346 Y119.702 E5.47345
G1 X98.83 Y119.104 E5.50775
G1 X98.366 Y118.503 E5.5407
G1 X98.013 Y117.998 E5.56741
G1 X97.629 Y117.39 E5.59864
G1 X97.315 Y116.836 E5.62629
G1 X96.959 Y116.131 E5.66059
G1 X96.674 Y115.483 E5.69131
G1 X96.434 Y114.86 E5.7203
G1 X96.209 Y114.178 E5.75146
G1 X96.001 Y113.416 E5.78577
G1 X95.847 Y112.713 E5.81697
G1 X95.743 Y112.097 E5.84413
G1 X95.661 Y111.434 E5.87313
G1 X95.607 Y110.718 E5.90429
G1 X95.59 Y109.927 E5.93864
G1 X95.614 Y109.171 E5.97145
G1 X95.688 Y108.323 E6.00842
G1 X95.761 Y107.786 E6.03192
G1 X95.896 Y107.044 E6.06469
G1 X96.032 Y106.457 E6.09083
G1 X96.267 Y105.634 E6.12799
G1 X96.445 Y105.11 E6.152
G1 X96.719 Y104.407 E6.18475
G1 X97.03 Y103.719 E6.21752
G1 X97.31 Y103.172 E6.24423
G1 X97.667 Y102.547 E6.27544
G1 X98.087 Y101.892 E6.30923
G1 X98.467 Y101.36 E6.33758
G1 X98.847 Y100.875 E6.36436
G1 X99.315 Y100.33 E6.39553
G1 X99.835 Y99.787 E6.42817
G1 X100.159 Y100.097 F18000
G1 F3000
G1 X100.182 Y100.074 E6.42958
G1 X100.63 Y99.649 E6.45638
G1 X101.156 Y99.197 E6.48652
G1 X101.76 Y98.729 E6.51967
G1 X102.263 Y98.378 E6.54628
G1 X102.846 Y98.011 E6.57619
G1 X103.507 Y97.64 E6.6091
G1 X104.066 Y97.362 E6.63618
G1 X104.701 Y97.083 E6.66632
G1 X105.414 Y96.813 E6.69942
G1 X106.075 Y96.601 E6.72954
G1 X106.7 Y96.434 E6.75762
G1 X107.299 Y96.302 E6.78423
G1 X108.014 Y96.18 E6.81574
G1 X108.702 Y96.099 E6.84578
G1 X109.433 Y96.05 E6.87758
G1 X110.091 Y96.039 E6.90618
G1 X110.773 Y96.06 E6.9358
G1 X111.489 Y96.118 E6.96698
G1 X112.219 Y96.216 E6.99896
G1 X112.83 Y96.328 E7.02592
G1 X113.46 Y96.474 E7.05398
G1 X114.123 Y96.661 E7.08388
G1 X114.81 Y96.893 E7.11536
G1 X115.483 Y97.16 E7.14678
G1 X116.153 Y97.467 E7.17876
G1 X116.697 Y97.75 E7.20541
G1 X117.33 Y98.118 E7.23719
G1 X117.863 Y98.463 E7.26474
G1 X118.433 Y98.873 E7.29523
G1 X119.002 Y99.328 E7.32683
G1 X119.463 Y99.735 E7.35354
G1 X119.918 Y100.174 E7.381
G1 X120.48 Y100.776 E7.41672
G1 X121.191 Y101.652 E7.46571
G1 X121.617 Y102.256 E7.49777
G1 X121.985 Y102.837 E7.52765
G1 X122.291 Y103.378 E7.55464
G1 X122.634 Y104.057 E7.58765
G1 X122.913 Y104.691 E7.6177
G1 X123.144 Y105.294 E7.64574
G1 X123.373 Y105.99 E7.67756
G1 X123.563 Y106.689 E7.709
G1 X123.712 Y107.368 E7.73919
G1 X123.813 Y107.971 E7.76572
G1 X123.892 Y108.613 E7.79378
G1 X123.945 Y109.307 E7.82402
G1 X123.961 Y110.076 E7.8574
G1 X123.945 Y110.688 E7.88397
G1 X123.902 Y111.289 E7.91014
G1 X123.82 Y111.981 E7.94037
G1 X123.69 Y112.739 E7.97374
G1 X123.556 Y113.341 E8.00053
G1 X123.362 Y114.047 E8.03229
G1 X123.109 Y114.805 E8.06702
G1 X122.884 Y115.379 E8.09375
G1 X122.569 Y116.078 E8.12705
G1 X122.255 Y116.688 E8.15683
G1 X121.933 Y117.248 E8.18488
G1 X121.598 Y117.772 E8.21187
G1 X121.175 Y118.369 E8.24362
G1 X120.804 Y118.843 E8.26974
G1 X120.35 Y119.371 E8.29997
G1 X119.818 Y119.926 E8.33334
G1 X119.37 Y120.351 E8.36014
G1 X118.845 Y120.803 E8.39023
G1 X118.24 Y121.271 E8.42344
G1 X117.747 Y121.615 E8.44952
G1 X117.126 Y122.006 E8.48138
G1 X116.408 Y122.404 E8.51702
G1 X115.922 Y122.644 E8.54054
G1 X115.271 Y122.929 E8.5714
G1 X114.573 Y123.192 E8.60377
G1 X113.876 Y123.413 E8.63551
G1 X113.181 Y123.595 E8.66667
G1 X112.597 Y123.718 E8.69258
G1 X111.98 Y123.821 E8.71974
G1 X111.292 Y123.902 E8.74983
G1 X110.528 Y123.952 E8.78304
G1 X109.933 Y123.961 E8.80888
G1 X109.226 Y123.94 E8.83958
G1 X108.509 Y123.882 E8.8708
G1 X107.89 Y123.801 E8.8979
G1 X107.27 Y123.692 E8.92524
G1 X106.581 Y123.537 E8.95592
G1 X105.888 Y123.342 E8.98715
G1 X105.296 Y123.145 E9.01424
G1 X104.691 Y122.913 E9.04236
G1 X104.061 Y122.635 E9.07225
G1 X103.419 Y122.313 E9.10342
G1 X102.779 Y121.949 E9.1354
G1 X102.254 Y121.616 E9.16239
G1 X101.765 Y121.274 E9.18827
G1 X101.186 Y120.828 E9.22002
G1 X100.535 Y120.263 E9.25744
G1 X100.102 Y119.847 E9.2835
G1 X99.676 Y119.399 E9.31034
G1 X99.179 Y118.823 E9.34333
G1 X98.729 Y118.24 E9.37531
G1 X98.385 Y117.748 E9.40138
G1 X98.015 Y117.163 E9.43143
G1 X97.709 Y116.622 E9.45841
G1 X97.366 Y115.943 E9.49143
G1 X97.087 Y115.309 E9.52147
G1 X96.856 Y114.706 E9.54953
G1 X96.637 Y114.045 E9.57973
G1 X96.437 Y113.312 E9.61271
G1 X96.288 Y112.631 E9.64296
G1 X96.187 Y112.029 E9.66949
G1 X96.108 Y111.386 E9.69761
G1 X96.055 Y110.692 E9.7278
G1 X96.039 Y109.925 E9.76112
G1 X96.062 Y109.194 E9.79287
G1 X96.133 Y108.376 E9.82853
G1 X96.204 Y107.854 E9.85139
G1 X96.335 Y107.138 E9.88298
G1 X96.468 Y106.566 E9.90846
G1 X96.697 Y105.764 E9.94466
G1 X96.867 Y105.261 E9.96774
G1 X97.131 Y104.585 E9.99924
G1 X97.433 Y103.917 E10.03105
G1 X97.707 Y103.382 E10.05712
G1 X98.052 Y102.776 E10.0874
G1 X98.457 Y102.146 E10.1199
G1 X98.824 Y101.632 E10.14735
G1 X99.196 Y101.157 E10.17351
G1 X99.65 Y100.629 E10.20374
G1 X100.132 Y100.126 E10.23397
G1 X100.456 Y100.437 F18000
G1 F3000
G1 X100.501 Y100.39 E10.23679
G1 X100.933 Y99.98 E10.26264
G1 X101.443 Y99.542 E10.29183
G1 X102.023 Y99.093 E10.32369
G1 X102.514 Y98.751 E10.34964
G1 X103.078 Y98.394 E10.37861
G1 X103.714 Y98.038 E10.41024
G1 X104.259 Y97.767 E10.43667
G1 X104.874 Y97.497 E10.46585
G1 X105.559 Y97.238 E10.49763
G1 X106.199 Y97.033 E10.52679
G1 X106.804 Y96.871 E10.55397
G1 X107.388 Y96.742 E10.57995
G1 X108.075 Y96.625 E10.6102
G1 X108.74 Y96.546 E10.63925
G1 X109.448 Y96.499 E10.67007
G1 X110.092 Y96.488 E10.69801
G1 X110.752 Y96.508 E10.72668
G1 X111.438 Y96.564 E10.75656
G1 X112.146 Y96.658 E10.78756
G1 X112.742 Y96.768 E10.81388
G1 X113.352 Y96.91 E10.84105
G1 X113.994 Y97.091 E10.87
G1 X114.652 Y97.313 E10.90018
G1 X115.303 Y97.571 E10.93058
G1 X115.953 Y97.869 E10.96159
G1 X116.478 Y98.141 E10.9873
G1 X117.093 Y98.498 E11.01814
G1 X117.607 Y98.832 E11.04475
G1 X118.165 Y99.233 E11.07457
G1 X118.711 Y99.669 E11.1049
G1 X119.161 Y100.067 E11.13097
G1 X119.596 Y100.486 E11.15721
G1 X120.144 Y101.074 E11.1921
G1 X120.83 Y101.92 E11.23937
G1 X121.245 Y102.508 E11.27062
G1 X121.598 Y103.065 E11.29925
G1 X121.897 Y103.593 E11.32558
G1 X122.226 Y104.246 E11.35731
G1 X122.499 Y104.865 E11.38667
G1 X122.723 Y105.447 E11.41378
G1 X122.944 Y106.122 E11.44461
G1 X123.127 Y106.793 E11.47476
G1 X123.27 Y107.451 E11.504
G1 X123.37 Y108.039 E11.5299
G1 X123.446 Y108.66 E11.55707
G1 X123.497 Y109.333 E11.58634
G1 X123.513 Y110.078 E11.61872
G1 X123.497 Y110.669 E11.64437
G1 X123.455 Y111.25 E11.66967
G1 X123.376 Y111.92 E11.69895
G1 X123.249 Y112.655 E11.73132
G1 X123.12 Y113.236 E11.75715
G1 X122.932 Y113.92 E11.78792
G1 X122.688 Y114.649 E11.82131
G1 X122.469 Y115.208 E11.84737
G1 X122.166 Y115.88 E11.87938
G1 X121.863 Y116.471 E11.90819
G1 X121.55 Y117.013 E11.93536
G1 X121.224 Y117.525 E11.96171
G1 X120.818 Y118.098 E11.99222
G1 X120.455 Y118.56 E12.01771
G1 X120.015 Y119.072 E12.04699
G1 X119.499 Y119.61 E12.07936
G1 X119.067 Y120.02 E12.10522
G1 X118.558 Y120.457 E12.13435
G1 X117.977 Y120.908 E12.16627
G1 X117.496 Y121.243 E12.1917
G1 X116.894 Y121.622 E12.22258
G1 X116.203 Y122.005 E12.25691
G1 X115.73 Y122.238 E12.27978
G1 X115.105 Y122.512 E12.30941
G1 X114.429 Y122.766 E12.34075
G1 X113.755 Y122.981 E12.37147
G1 X113.081 Y123.157 E12.40168
G1 X112.517 Y123.276 E12.42673
G1 X111.914 Y123.377 E12.45326
G1 X111.254 Y123.454 E12.48209
G1 X110.513 Y123.503 E12.51432
G1 X109.939 Y123.513 E12.53924
G1 X109.248 Y123.492 E12.56928
G1 X108.56 Y123.436 E12.59924
G1 X107.961 Y123.358 E12.62545
G1 X107.361 Y123.253 E12.65188
G1 X106.687 Y123.101 E12.68189
G1 X106.023 Y122.914 E12.71184
G1 X105.444 Y122.722 E12.7383
G1 X104.859 Y122.497 E12.76553
G1 X104.249 Y122.228 E12.79447
G1 X103.627 Y121.916 E12.82464
G1 X103.005 Y121.561 E12.85575
G1 X102.035 Y120.916 E12.9063
G1 X101.467 Y120.478 E12.93745
G1 X100.84 Y119.934 E12.9735
G1 X100.418 Y119.528 E12.9989
G1 X100.006 Y119.095 E13.02484
G1 X99.529 Y118.542 E13.05654
G1 X99.093 Y117.977 E13.08753
G1 X98.757 Y117.497 E13.11296
G1 X98.402 Y116.935 E13.14183
G1 X98.103 Y116.407 E13.16816
G1 X97.774 Y115.754 E13.19989
G1 X97.501 Y115.135 E13.22925
G1 X97.277 Y114.552 E13.25639
G1 X97.066 Y113.912 E13.28562
G1 X96.874 Y113.209 E13.31728
G1 X96.73 Y112.549 E13.34658
G1 X96.63 Y111.961 E13.37247
G1 X96.554 Y111.339 E13.3997
G1 X96.503 Y110.667 E13.42893
G1 X96.488 Y109.924 E13.46121
G1 X96.51 Y109.217 E13.4919
G1 X96.579 Y108.429 E13.52626
G1 X96.648 Y107.921 E13.54848
G1 X96.773 Y107.232 E13.57889
G1 X96.903 Y106.675 E13.6037
G1 X97.124 Y105.901 E13.63866
G1 X97.29 Y105.411 E13.66109
G1 X97.544 Y104.762 E13.69136
G1 X97.836 Y104.115 E13.7222
G1 X98.103 Y103.593 E13.74763
G1 X98.438 Y103.006 E13.77697
G1 X98.827 Y102.401 E13.8082
G1 X99.182 Y101.903 E13.83474
G1 X99.545 Y101.44 E13.86028
G1 X99.985 Y100.928 E13.88957
G1 X100.428 Y100.466 E13.91739
G1 X100.752 Y100.776 F18000
G1 F3000
G1 X100.819 Y100.706 E13.92161
G1 X101.236 Y100.311 E13.94652
G1 X101.729 Y99.888 E13.97475
G1 X102.286 Y99.456 E14.00533
G1 X102.764 Y99.123 E14.03063
G1 X103.311 Y98.778 E14.05866
G1 X103.921 Y98.437 E14.08901
G1 X104.452 Y98.172 E14.11478
G1 X105.047 Y97.911 E14.14299
G1 X105.704 Y97.662 E14.17346
G1 X106.322 Y97.464 E14.20165
G1 X106.907 Y97.307 E14.22795
G1 X107.477 Y97.182 E14.25329
G1 X108.136 Y97.069 E14.28228
G1 X108.778 Y96.993 E14.31034
G1 X109.464 Y96.947 E14.34019
G1 X110.092 Y96.936 E14.36746
G1 X110.73 Y96.956 E14.39518
G1 X111.386 Y97.009 E14.42376
G1 X112.072 Y97.101 E14.45379
G1 X112.654 Y97.208 E14.47946
G1 X113.243 Y97.345 E14.50574
G1 X113.864 Y97.52 E14.53374
G1 X114.501 Y97.736 E14.56292
G1 X115.124 Y97.982 E14.59201
G1 X115.753 Y98.271 E14.62204
G1 X116.26 Y98.533 E14.64681
G1 X116.855 Y98.879 E14.67671
G1 X117.352 Y99.201 E14.70239
G1 X117.891 Y99.588 E14.73122
G1 X118.419 Y100.011 E14.76059
G1 X118.854 Y100.394 E14.78577
G1 X119.273 Y100.798 E14.81104
G1 X119.809 Y101.372 E14.8451
G1 X120.47 Y102.187 E14.89064
G1 X120.874 Y102.76 E14.92109
G1 X121.211 Y103.293 E14.94847
G1 X121.503 Y103.808 E14.97414
G1 X121.819 Y104.434 E15.00459
G1 X122.085 Y105.038 E15.03327
G1 X122.301 Y105.601 E15.05943
G1 X122.516 Y106.255 E15.08929
G1 X122.69 Y106.896 E15.11814
G1 X122.829 Y107.533 E15.14643
G1 X122.926 Y108.107 E15.17169
G1 X123 Y108.708 E15.19798
G1 X123.048 Y109.358 E15.22628
G1 X123.064 Y110.08 E15.25765
G1 X123.049 Y110.644 E15.28213
G1 X123.008 Y111.211 E15.3068
G1 X122.931 Y111.859 E15.33515
G1 X122.808 Y112.571 E15.36651
G1 X122.684 Y113.131 E15.3914
G1 X122.502 Y113.792 E15.42117
G1 X122.267 Y114.493 E15.45323
G1 X122.054 Y115.037 E15.4786
G1 X121.764 Y115.683 E15.50933
G1 X121.47 Y116.253 E15.53719
G1 X121.168 Y116.778 E15.56346
G1 X120.85 Y117.277 E15.58916
G1 X120.46 Y117.828 E15.61845
G1 X120.107 Y118.278 E15.6433
G1 X119.681 Y118.773 E15.67163
G1 X119.181 Y119.294 E15.703
G1 X118.764 Y119.689 E15.72791
G1 X118.272 Y120.112 E15.75608
G1 X117.713 Y120.544 E15.78673
G1 X117.246 Y120.871 E15.81149
G1 X116.663 Y121.237 E15.84139
G1 X115.997 Y121.606 E15.87441
G1 X115.538 Y121.833 E15.89665
G1 X114.939 Y122.095 E15.92504
G1 X114.279 Y122.344 E15.95567
G1 X113.626 Y122.551 E15.98537
G1 X112.972 Y122.722 E16.01472
G1 X111.857 Y122.932 E16.06399
G1 X111.217 Y123.007 E16.09196
G1 X110.498 Y123.055 E16.12322
G1 X109.946 Y123.064 E16.14722
G1 X109.276 Y123.044 E16.17629
G1 X108.61 Y122.99 E16.20529
G1 X108.032 Y122.915 E16.2306
G1 X107.453 Y122.813 E16.25613
G1 X106.8 Y122.666 E16.28516
G1 X106.157 Y122.486 E16.31415
G1 X105.593 Y122.298 E16.33997
G1 X105.027 Y122.08 E16.36629
G1 X104.437 Y121.821 E16.3943
G1 X103.836 Y121.519 E16.42347
G1 X103.236 Y121.177 E16.45344
G1 X102.301 Y120.554 E16.50222
G1 X101.748 Y120.128 E16.5325
