; HEADER_BLOCK_START
; generated by AnycubicSlicerNext 1.3.2 on 2025-02-23 at 09:04:59
; total layer number: 50
; filament_density: 1.24
; filament_diameter: 1.75
; max_z_height: 10.04
; exclude_object: 0
; model_instances: 2
; HEADER_BLOCK_END

; THUMBNAIL_BLOCK_START

;
; THUMBNAIL_BLOCK_END

; external perimeters extrusion width = 0.42mm
; perimeters extrusion width = 0.45mm
; infill extrusion width = 0.45mm
; solid infill extrusion width = 0.42mm
; top infill extrusion width = 0.42mm
; first layer extrusion width = 0.50mm

; external perimeters extrusion width = 0.42mm
; perimeters extrusion width = 0.45mm
; infill extrusion width = 0.45mm
; solid infill extrusion width = 0.42mm
; top infill extrusion width = 0.42mm
; first layer extrusion width = 0.50mm

; EXECUTABLE_BLOCK_START
M201 X2000 Y2000 Z800 E2000
M203 X300 Y300 Z8 E100
M204 P2000 R2000 T2000
M205 X10.00 Y10.00 Z2.00 E5.00 ; sets the jerk limits, mm/sec
;TYPE:Custom
G90 ; use absolute coordinates
M83 ; extruder relative mode
M104 S220 ; set extruder temp
M140 S60 ; set bed temp
M190 S60 ; wait for bed temp
M109 S220 ; wait for extruder temp
G28                                        ; move X/Y/Z to min endstops
G1 Z0.28                                   ; lift nozzle a bit 
G92 E0 
G1 Y3 F1800                                    ; zero the extruded length 
G1 X60  E25 F500                       ; Extrude 25mm of filament in a 5cm line. 
G92 E0                                     ; zero the extruded length again 
G1 E-2 F500                                ; Retract a little 
G1 X70 F4000                              ; Quickly wipe away from the filament line
M117
G90
G21
M82 ; use absolute distances for extrusion
G92 E0
; filament start gcode
M106 S0
;LAYER_CHANGE
;Z:0.24
;HEIGHT:0.24
; BEFORE_LAYER_CHANGE 0 @ 0.24mm
G1 E-2.5 F6000
G92 E0
; AFTER_LAYER_CHANGE 0 @ 0.24mm
;_SET_FAN_SPEED_CHANGING_LAYER
M204 P500
; printing object "GearHolder.stl" id:1975273228288 copy 0
M204 T500
G1 X86.116 Y107.664 F18000
G1 Z.24
G1 E2.5 F6000
;TYPE:Brim
;WIDTH:0.5
G1 F3000
G1 X86.625 Y107.287 E2.5275
G1 X87.344 Y106.924 E2.56245
G1 X88.051 Y106.697 E2.59469
G1 X88.626 Y106.61 E2.61992
G1 X88.626 Y109 E2.72367
G1 X88.681 Y109.184 E2.73201
G1 X88.8 Y109.308 E2.73946
G1 X89 Y109.374 E2.7486
G1 X131 Y109.374 E4.57175
G1 X131.184 Y109.319 E4.5801
G1 X131.308 Y109.2 E4.58755
G1 X131.374 Y109 E4.59668
G1 X131.374 Y106.618 E4.70008
G1 X131.634 Y106.637 E4.71139
G1 X132.256 Y106.779 E4.73907
G1 X132.702 Y106.944 E4.75973
G1 X133.376 Y107.29 E4.7926
G1 X133.886 Y107.667 E4.82014
G1 X134.336 Y108.116 E4.84774
G1 X134.713 Y108.625 E4.87523
G1 X135.076 Y109.344 E4.91018
G1 X135.303 Y110.051 E4.94243
G1 X135.399 Y110.683 E4.97015
G1 X135.411 Y111.004 E4.98413
G1 X135.411 Y150.992 E6.71992
G1 X135.363 Y151.634 E6.74788
G1 X135.221 Y152.256 E6.77556
G1 X135.056 Y152.702 E6.79622
G1 X134.71 Y153.376 E6.8291
G1 X134.333 Y153.886 E6.85663
G1 X133.884 Y154.336 E6.88423
G1 X133.375 Y154.713 E6.91173
G1 X132.656 Y155.076 E6.94667
G1 X131.949 Y155.303 E6.97892
G1 X131.317 Y155.399 E7.00664
G1 X130.996 Y155.411 E7.02062
G1 X89.008 Y155.411 E8.84323
G1 X88.366 Y155.363 E8.87119
G1 X87.744 Y155.221 E8.89887
G1 X87.298 Y155.056 E8.91953
G1 X86.624 Y154.71 E8.9524
G1 X86.114 Y154.333 E8.97994
G1 X85.664 Y153.884 E9.00754
G1 X85.287 Y153.375 E9.03503
G1 X84.924 Y152.656 E9.06998
G1 X84.697 Y151.949 E9.10223
G1 X84.601 Y151.317 E9.12995
G1 X84.589 Y150.996 E9.14393
G1 X84.589 Y111.008 E10.87972
G1 X84.637 Y110.366 E10.90768
G1 X84.779 Y109.745 E10.93531
G1 X84.991 Y109.19 E10.96111
G1 X85.29 Y108.625 E10.98885
G1 X85.667 Y108.114 E11.01644
G1 X86.088 Y107.692 E11.0423
G1 X86.405 Y108.011 F18000
G1 F3000
G1 X86.418 Y107.998 E11.04306
G1 X86.872 Y107.665 E11.06751
G1 X87.524 Y107.337 E11.09923
G1 X88.002 Y107.184 E11.12098
G1 X88.114 Y107.198 E11.1259
G1 X88.177 Y107.312 E11.13156
G1 X88.177 Y108.99 E11.2044
G1 X88.247 Y109.298 E11.21813
G1 X88.37 Y109.507 E11.22861
G1 X88.466 Y109.607 E11.23466
G1 X88.674 Y109.738 E11.24532
G1 X88.848 Y109.796 E11.25327
G1 X89.011 Y109.823 E11.26045
G1 X130.99 Y109.823 E13.08271
G1 X131.298 Y109.753 E13.09644
G1 X131.507 Y109.63 E13.10692
G1 X131.607 Y109.534 E13.11297
G1 X131.738 Y109.326 E13.12363
G1 X131.796 Y109.152 E13.13158
G1 X131.823 Y108.989 E13.13876
G1 X131.823 Y107.309 E13.21169
G1 X131.87 Y107.206 E13.2166
G1 X131.987 Y107.178 E13.22182
G1 X132.119 Y107.208 E13.22768
G1 X132.528 Y107.359 E13.24662
G1 X133.147 Y107.679 E13.27688
G1 X133.6 Y108.015 E13.30136
G1 X134.002 Y108.418 E13.32603
G1 X134.335 Y108.872 E13.35048
G1 X134.663 Y109.524 E13.3822
G1 X134.862 Y110.143 E13.41042
G1 X134.952 Y110.737 E13.43649
G1 X134.962 Y150.97 E15.18292
G1 X134.916 Y151.577 E15.20935
G1 X134.792 Y152.119 E15.23348
G1 X134.647 Y152.513 E15.25173
G1 X134.332 Y153.129 E15.28175
G1 X133.985 Y153.6 E15.30716
G1 X133.597 Y153.988 E15.33096
G1 X133.148 Y154.323 E15.3553
G1 X132.495 Y154.655 E15.38708
G1 X131.836 Y154.867 E15.41715
G1 X131.283 Y154.95 E15.44142
G1 X130.985 Y154.962 E15.45437
G1 X89.03 Y154.962 E17.27555
G1 X88.423 Y154.916 E17.30198
G1 X87.881 Y154.792 E17.32611
G1 X87.487 Y154.647 E17.34435
G1 X86.871 Y154.332 E17.37437
G1 X86.4 Y153.985 E17.39978
G1 X86.012 Y153.597 E17.42359
G1 X85.677 Y153.148 E17.44793
G1 X85.345 Y152.495 E17.47971
G1 X85.133 Y151.836 E17.50977
G1 X85.05 Y151.283 E17.53404
G1 X85.038 Y150.985 E17.54699
G1 X85.038 Y111.03 E19.28136
G1 X85.081 Y110.443 E19.30692
G1 X85.212 Y109.867 E19.33255
G1 X85.404 Y109.369 E19.35573
G1 X85.666 Y108.873 E19.38005
G1 X86.015 Y108.4 E19.4056
G1 X86.377 Y108.039 E19.42778
G1 X86.694 Y108.357 F18000
G1 F3000
G1 X86.703 Y108.347 E19.42837
G1 X87.098 Y108.056 E19.44966
G1 X87.534 Y107.834 E19.47089
G1 X87.647 Y107.831 E19.47581
G1 X87.729 Y107.954 E19.48225
G1 X87.742 Y109.097 E19.53186
G1 X87.808 Y109.388 E19.54481
G1 X87.866 Y109.534 E19.55164
G1 X87.977 Y109.723 E19.56116
G1 X88.138 Y109.914 E19.57199
G1 X88.168 Y110.023 E19.57691
G1 X88.137 Y110.09 E19.58012
G1 X88.01 Y110.234 E19.58846
G1 X87.833 Y110.543 E19.60392
G1 X87.76 Y110.783 E19.6148
G1 X87.729 Y111.02 E19.62518
G1 X87.729 Y150.977 E21.35967
G1 X87.809 Y151.39 E21.37792
G1 X87.866 Y151.534 E21.38465
G1 X87.977 Y151.723 E21.39417
G1 X88.141 Y151.915 E21.40513
G1 X88.231 Y151.989 E21.4102
G1 X88.543 Y152.167 E21.42578
G1 X88.783 Y152.24 E21.43666
G1 X89.02 Y152.271 E21.44704
G1 X130.977 Y152.271 E23.26835
G1 X131.39 Y152.191 E23.2866
G1 X131.534 Y152.134 E23.29333
G1 X131.723 Y152.023 E23.30284
G1 X131.915 Y151.859 E23.3138
G1 X131.989 Y151.769 E23.31888
G1 X132.167 Y151.457 E23.33445
G1 X132.24 Y151.217 E23.34534
G1 X132.271 Y150.98 E23.35571
G1 X132.271 Y111.023 E25.09021
G1 X132.191 Y110.61 E25.10846
G1 X132.134 Y110.466 E25.11519
G1 X132.023 Y110.277 E25.12471
G1 X131.862 Y110.086 E25.13554
G1 X131.832 Y109.977 E25.14046
G1 X132.113 Y109.572 E25.16187
G1 X132.24 Y109.217 E25.17824
G1 X132.271 Y108.98 E25.18862
G1 X132.271 Y107.952 E25.23323
G1 X132.319 Y107.85 E25.23815
G1 X132.468 Y107.833 E25.24464
G1 X132.918 Y108.068 E25.26669
G1 X133.313 Y108.363 E25.2881
G1 X133.653 Y108.703 E25.30898
G1 X133.944 Y109.098 E25.33027
G1 X134.242 Y109.685 E25.35887
G1 X134.42 Y110.236 E25.38399
G1 X134.503 Y110.781 E25.40794
G1 X134.514 Y150.948 E27.15149
G1 X134.469 Y151.519 E27.17638
G1 X134.363 Y151.983 E27.19702
G1 X134.238 Y152.326 E27.21286
G1 X133.954 Y152.883 E27.24
G1 X133.637 Y153.314 E27.26327
G1 X133.295 Y153.654 E27.28417
G1 X132.92 Y153.934 E27.30451
G1 X132.334 Y154.234 E27.33309
G1 X131.722 Y154.43 E27.36096
G1 X131.247 Y154.502 E27.38181
G1 X130.973 Y154.514 E27.39373
G1 X89.053 Y154.514 E29.21344
G1 X88.481 Y154.469 E29.23833
G1 X88.017 Y154.363 E29.25897
G1 X87.674 Y154.238 E29.2748
G1 X87.117 Y153.954 E29.30194
G1 X86.686 Y153.637 E29.32522
G1 X86.346 Y153.295 E29.34612
G1 X86.066 Y152.92 E29.36645
G1 X85.766 Y152.334 E29.39504
G1 X85.57 Y151.722 E29.4229
G1 X85.498 Y151.247 E29.44375
G1 X85.486 Y150.978 E29.45544
G1 X85.486 Y111.052 E31.1886
G1 X85.525 Y110.52 E31.21175
G1 X85.64 Y110.008 E31.23453
G1 X85.817 Y109.548 E31.25592
G1 X86.053 Y109.104 E31.27772
G1 X86.363 Y108.686 E31.30033
G1 X86.665 Y108.385 E31.31884
G1 X86.98 Y108.718 F18000
G1 F3000
G1 X87.062 Y108.641 E31.32374
G1 X87.17 Y108.605 E31.32866
G1 X87.266 Y108.664 E31.33358
G1 X87.289 Y108.737 E31.33691
G1 X87.293 Y109.089 E31.35217
G1 X87.395 Y109.562 E31.37317
G1 X87.483 Y109.768 E31.38293
G1 X87.584 Y109.94 E31.39155
G1 X87.587 Y110.07 E31.39722
G1 X87.401 Y110.423 E31.41454
G1 X87.315 Y110.732 E31.42846
G1 X87.28 Y111.028 E31.44137
G1 X87.28 Y150.966 E33.17502
G1 X87.367 Y151.467 E33.19709
G1 X87.447 Y151.693 E33.20752
G1 X87.585 Y151.942 E33.2199
G1 X87.794 Y152.199 E33.23425
G1 X88.017 Y152.383 E33.2468
G1 X88.424 Y152.599 E33.2668
G1 X88.732 Y152.685 E33.28069
G1 X89.028 Y152.72 E33.29361
G1 X130.966 Y152.72 E35.11408
G1 X131.467 Y152.633 E35.13615
G1 X131.693 Y152.553 E35.14658
G1 X131.942 Y152.415 E35.15895
G1 X132.199 Y152.206 E35.1733
G1 X132.383 Y151.983 E35.18586
G1 X132.599 Y151.576 E35.20585
G1 X132.685 Y151.268 E35.21975
G1 X132.72 Y150.972 E35.23266
G1 X132.72 Y111.036 E36.96626
G1 X132.604 Y110.435 E36.99281
G1 X132.517 Y110.232 E37.00241
G1 X132.416 Y110.059 E37.01108
G1 X132.416 Y109.923 E37.01698
G1 X132.54 Y109.711 E37.02766
G1 X132.658 Y109.379 E37.04296
G1 X132.715 Y109.045 E37.05769
G1 X132.72 Y108.745 E37.07068
G1 X132.769 Y108.643 E37.0756
G1 X132.879 Y108.615 E37.08052
G1 X133.026 Y108.709 E37.0881
G1 X133.318 Y109.004 E37.10611
G1 X133.555 Y109.325 E37.12341
G1 X133.821 Y109.847 E37.14888
G1 X133.979 Y110.329 E37.17088
G1 X134.055 Y110.825 E37.19268
G1 X134.065 Y150.925 E38.93332
G1 X134.022 Y151.461 E38.95668
G1 X133.934 Y151.847 E38.97389
G1 X133.829 Y152.139 E38.98732
G1 X133.576 Y152.636 E39.01156
G1 X133.288 Y153.028 E39.03266
G1 X133.009 Y153.307 E39.0498
G1 X132.691 Y153.545 E39.06704
G1 X132.172 Y153.813 E39.09241
G1 X131.609 Y153.994 E39.11806
G1 X131.211 Y154.054 E39.13552
G1 X130.96 Y154.065 E39.14642
G1 X89.075 Y154.065 E40.96459
G1 X88.539 Y154.022 E40.98794
G1 X88.153 Y153.934 E41.00515
G1 X87.861 Y153.829 E41.01858
G1 X87.364 Y153.576 E41.04282
G1 X86.972 Y153.288 E41.06392
G1 X86.693 Y153.009 E41.08106
G1 X86.455 Y152.691 E41.09831
G1 X86.187 Y152.172 E41.12368
G1 X86.006 Y151.609 E41.14932
G1 X85.946 Y151.211 E41.16679
G1 X85.935 Y150.972 E41.17719
G1 X85.935 Y111.073 E42.90913
G1 X85.97 Y110.596 E42.92991
G1 X86.069 Y110.147 E42.94984
G1 X86.223 Y109.742 E42.96868
G1 X86.428 Y109.353 E42.98775
G1 X86.713 Y108.971 E43.00846
G1 X86.951 Y108.746 E43.02267
G1 X86.829 Y109.657 F18000
G1 F3000
G1 X86.94 Y109.682 E43.02759
G1 X86.981 Y109.735 E43.03052
G1 X87.08 Y109.963 E43.04129
G1 X87.078 Y110.073 E43.04608
G1 X86.966 Y110.313 E43.05759
G1 X86.885 Y110.602 E43.07059
G1 X86.832 Y111.036 E43.08958
G1 X86.832 Y150.955 E44.82242
G1 X86.924 Y151.534 E44.84788
G1 X87.021 Y151.833 E44.86151
G1 X87.244 Y152.233 E44.88138
G1 X87.517 Y152.551 E44.89959
G1 X87.816 Y152.784 E44.91606
G1 X88.202 Y152.989 E44.93501
G1 X88.604 Y153.115 E44.95329
G1 X89.036 Y153.168 E44.97219
G1 X130.955 Y153.168 E46.79184
G1 X131.534 Y153.076 E46.8173
G1 X131.834 Y152.979 E46.831
G1 X132.153 Y152.811 E46.84662
G1 X132.474 Y152.561 E46.86429
G1 X132.722 Y152.275 E46.88071
G1 X132.99 Y151.797 E46.9045
G1 X133.115 Y151.396 E46.92272
G1 X133.168 Y150.964 E46.94162
G1 X133.168 Y111.047 E48.67434
G1 X133.046 Y110.361 E48.7046
G1 X132.923 Y110.042 E48.71945
G1 X132.924 Y109.944 E48.72373
G1 X133.009 Y109.732 E48.73362
G1 X133.091 Y109.654 E48.73854
G1 X133.204 Y109.667 E48.74346
G1 X133.253 Y109.721 E48.74663
G1 X133.409 Y110.03 E48.76166
G1 X133.543 Y110.444 E48.78055
G1 X133.606 Y110.87 E48.79922
G1 X133.617 Y150.901 E50.53694
G1 X133.575 Y151.402 E50.55876
G1 X133.505 Y151.713 E50.5726
G1 X133.413 Y151.968 E50.58435
G1 X133.187 Y152.409 E50.60589
G1 X132.954 Y152.726 E50.62296
G1 X132.721 Y152.96 E50.63727
G1 X132.442 Y153.169 E50.65241
G1 X131.988 Y153.401 E50.67453
G1 X131.496 Y153.557 E50.69696
G1 X131.174 Y153.606 E50.71107
G1 X130.947 Y153.617 E50.72094
G1 X89.099 Y153.617 E52.53752
G1 X88.598 Y153.575 E52.55934
G1 X88.287 Y153.505 E52.57318
G1 X88.032 Y153.413 E52.58493
G1 X87.591 Y153.187 E52.60647
G1 X87.274 Y152.954 E52.62354
G1 X87.04 Y152.721 E52.63785
G1 X86.831 Y152.442 E52.653
G1 X86.599 Y151.988 E52.67511
G1 X86.443 Y151.496 E52.69754
G1 X86.394 Y151.174 E52.71167
G1 X86.384 Y150.958 E52.72105
G1 X86.383 Y111.094 E54.45147
G1 X86.414 Y110.67 E54.46992
G1 X86.497 Y110.286 E54.48701
G1 X86.629 Y109.935 E54.50329
G1 X86.739 Y109.726 E54.51353
G1 X86.797 Y109.681 E54.51671
G1 E52.76671 F6000
;WIPE_START
G1 F3000
G1 X86.94 Y109.682 E52.65991
G1 X86.981 Y109.735 E52.60915
G1 X87.08 Y109.963 E52.42317
G1 X87.078 Y110.073 E52.34034
G1 X86.966 Y110.313 E52.14142
G1 X86.921 Y110.473 E52.01671
;WIPE_END
G92 E0
G1 X88.293 Y110.625 F18000
G1 E2.5 F6000
G1 F3000
G1 X88.393 Y110.466 E2.50816
G1 X88.493 Y110.37 E2.51421
G1 X88.702 Y110.247 E2.52469
G1 X89.01 Y110.177 E2.53842
G1 X130.989 Y110.177 E4.36067
G1 X131.152 Y110.204 E4.36785
G1 X131.326 Y110.262 E4.3758
G1 X131.534 Y110.393 E4.38646
G1 X131.63 Y110.493 E4.39251
G1 X131.753 Y110.702 E4.40299
G1 X131.823 Y111.01 E4.41672
G1 X131.823 Y150.989 E6.15216
G1 X131.796 Y151.152 E6.15934
G1 X131.738 Y151.326 E6.16729
G1 X131.607 Y151.534 E6.17795
G1 X131.507 Y151.63 E6.184
G1 X131.298 Y151.753 E6.19448
G1 X130.99 Y151.823 E6.20821
G1 X89.011 Y151.823 E8.03047
G1 X88.848 Y151.796 E8.03764
G1 X88.674 Y151.738 E8.0456
G1 X88.466 Y151.607 E8.05626
G1 X88.37 Y151.507 E8.06231
G1 X88.247 Y151.298 E8.07279
G1 X88.177 Y150.99 E8.08652
G1 X88.177 Y111.011 E9.82196
G1 X88.204 Y110.848 E9.82913
G1 X88.262 Y110.674 E9.83709
G1 X88.271 Y110.659 E9.83785
G1 X88.692 Y110.8 F18000
G1 F3000
G1 X88.816 Y110.681 E9.8453
G1 X89 Y110.626 E9.85365
G1 X131 Y110.626 E11.67681
G1 X131.2 Y110.692 E11.68594
G1 X131.319 Y110.816 E11.69339
G1 X131.374 Y111 E11.70174
G1 X131.374 Y151 E13.43808
G1 X131.308 Y151.2 E13.44721
G1 X131.184 Y151.319 E13.45466
G1 X131 Y151.374 E13.46301
G1 X89 Y151.374 E15.28616
G1 X88.8 Y151.308 E15.29529
G1 X88.681 Y151.184 E15.30275
G1 X88.626 Y151 E15.31109
G1 X88.626 Y111 E17.04743
G1 X88.68 Y110.838 E17.05483
G1 E15.30483 F6000
;WIPE_START
G1 F3000
G1 X88.816 Y110.681 E15.1489
G1 X89 Y110.626 E15.00468
G1 X89.6 Y110.626 E14.55483
;WIPE_END
G92 E0
G1 X130.675 Y150.675 F18000
G1 E2.5 F6000
;TYPE:Outer wall
G1 F3000
G1 X89.325 Y150.675 E4.29494
G1 X89.325 Y111.325 E6.00307
G1 X130.675 Y111.325 E7.79801
G1 X130.675 Y150.615 E9.50353
G1 X130.227 Y150.227 F18000
;TYPE:Inner wall
G1 F3000
G1 X89.773 Y150.227 E11.25954
G1 X89.773 Y111.773 E12.92873
G1 X130.227 Y111.773 E14.68473
G1 X130.227 Y150.167 E16.35132
G1 E14.60132 F6000
;WIPE_START
G1 F3000
G1 X129.227 Y150.168 E13.85132
;WIPE_END
G92 E0
G1 X129.18 Y111.908 F18000
G1 E2.5 F6000
;TYPE:Bottom surface
;WIDTH:0.502543
G1 F3000
G1 X129.89 Y112.618 E2.54385
G1 X129.89 Y113.256 E2.57169
G1 X128.744 Y112.11 E2.64246
G1 X128.106 Y112.11 E2.6703
G1 X129.89 Y113.894 E2.78045
G1 X129.89 Y114.532 E2.80829
G1 X127.468 Y112.11 E2.95782
G1 X126.83 Y112.11 E2.98567
G1 X129.89 Y115.17 E3.17457
G1 X129.89 Y115.808 E3.20242
G1 X126.192 Y112.11 E3.4307
G1 X125.555 Y112.11 E3.45855
G1 X129.89 Y116.445 E3.72621
G1 X129.89 Y117.083 E3.75406
G1 X124.917 Y112.11 E4.0611
G1 X124.279 Y112.11 E4.08895
G1 X129.89 Y117.721 E4.43538
G1 X129.89 Y118.359 E4.46322
G1 X123.641 Y112.11 E4.84903
G1 X123.003 Y112.11 E4.87687
