; HEADER_BLOCK_START
; generated by AnycubicSlicerNext 1.3.3.1 on 2025-03-08 at 00:57:43
; total layer number: 55
; filament_density: 1.24
; filament_diameter: 1.75
; max_z_height: 11.04
; exclude_object: 0
; model_instances: 1
; HEADER_BLOCK_END

; THUMBNAIL_BLOCK_START
; THUMBNAIL_BLOCK_END

; external perimeters extrusion width = 0.42mm
; perimeters extrusion width = 0.45mm
; infill extrusion width = 0.45mm
; solid infill extrusion width = 0.42mm
; top infill extrusion width = 0.42mm
; support material extrusion width = 0.40mm
; first layer extrusion width = 0.50mm

; EXECUTABLE_BLOCK_START
M201 X2000 Y2000 Z800 E2000
M203 X300 Y300 Z8 E100
M204 P2000 R2000 T2000
M205 X10.00 Y10.00 Z2.00 E5.00 ; sets the jerk limits, mm/sec
;TYPE:Custom
G90 ; use absolute coordinates
M83 ; extruder relative mode
M104 S220 ; set extruder temp
M140 S60 ; set bed temp
M190 S60 ; wait for bed temp
M109 S220 ; wait for extruder temp
G28                                        ; move X/Y/Z to min endstops
G1 Z0.28                                   ; lift nozzle a bit 
G92 E0 
G1 Y3 F1800                                    ; zero the extruded length 
G1 X60  E25 F500                       ; Extrude 25mm of filament in a 5cm line. 
G92 E0                                     ; zero the extruded length again 
G1 E-2 F500                                ; Retract a little 
G1 X70 F4000                              ; Quickly wipe away from the filament line
M117
G90
G21
M83 ; use relative distances for extrusion
; filament start gcode
M106 S0
;LAYER_CHANGE
;Z:0.24
;HEIGHT:0.24
; BEFORE_LAYER_CHANGE 0 @ 0.24mm
G92 E0
G1 E-2.5 F6000
; AFTER_LAYER_CHANGE 0 @ 0.24mm
M204 P500
; printing object "Cyclo4AxisHub.stl" id:0 copy 0
M204 T500
G1 X103.201 Y103.909 F18000
G1 Z.24
G1 E2.5 F6000
;TYPE:Brim
;WIDTH:0.5
;MM3_PER_MM:0.107639
G1 F3000
G1 X103.836 Y103.362 E.03639
G1 X104.522 Y102.881 E.03639
G1 X105.253 Y102.471 E.03639
G1 X106.022 Y102.135 E.03639
G1 X106.82 Y101.878 E.03639
G1 X107.639 Y101.701 E.03639
G1 X108.473 Y101.607 E.03644
G1 X109.139 Y101.592 E.0289
G1 X109.929 Y101.642 E.03438
G1 X110.757 Y101.776 E.0364
G1 X111.567 Y101.992 E.03639
G1 X112.352 Y102.287 E.03639
G1 X113.103 Y102.659 E.0364
G1 X113.814 Y103.105 E.03639
G1 X114.476 Y103.618 E.03639
G1 X115.084 Y104.195 E.03639
G1 X115.632 Y104.83 E.03639
G1 X116.114 Y105.516 E.03639
G1 X116.525 Y106.247 E.03639
G1 X116.861 Y107.015 E.03639
G1 X117.12 Y107.812 E.03639
G1 X117.297 Y108.633 E.03645
G1 X117.377 Y109.262 E.02754
G1 X117.409 Y110.101 E.03645
G1 X117.357 Y110.938 E.03639
G1 X117.222 Y111.766 E.03639
G1 X117.005 Y112.575 E.03639
G1 X116.709 Y113.36 E.03639
G1 X116.336 Y114.111 E.03639
G1 X115.89 Y114.821 E.03639
G1 X115.376 Y115.484 E.03644
G1 X114.921 Y115.971 E.02891
G1 X114.334 Y116.502 E.03438
G1 X113.66 Y117.001 E.03641
G1 X112.939 Y117.43 E.03639
G1 X112.18 Y117.785 E.03639
G1 X111.389 Y118.063 E.03639
G1 X110.574 Y118.261 E.03639
G1 X109.744 Y118.377 E.03639
G1 X108.906 Y118.409 E.03639
G1 X108.07 Y118.358 E.03639
G1 X107.242 Y118.224 E.03639
G1 X106.432 Y118.008 E.03639
G1 X105.647 Y117.713 E.03639
G1 X104.896 Y117.341 E.03639
G1 X104.185 Y116.895 E.03639
G1 X103.523 Y116.382 E.03639
G1 X102.915 Y115.805 E.03639
G1 X102.367 Y115.17 E.03639
G1 X101.885 Y114.484 E.03639
G1 X101.473 Y113.752 E.03645
G1 X101.212 Y113.174 E.02754
G1 X100.934 Y112.382 E.03645
G1 X100.737 Y111.567 E.03639
G1 X100.622 Y110.736 E.03639
G1 X100.59 Y109.899 E.03639
G1 X100.642 Y109.062 E.03639
G1 X100.777 Y108.234 E.03639
G1 X100.994 Y107.425 E.03639
G1 X101.29 Y106.64 E.03639
G1 X101.663 Y105.889 E.03639
G1 X102.109 Y105.179 E.03639
G1 X102.623 Y104.517 E.03639
G1 X103.173 Y103.938 E.03466
G1 X103.498 Y104.247 F18000
G1 F3000
G1 X103.506 Y104.24 E.00046
G1 X104.106 Y103.721 E.03445
G1 X104.756 Y103.265 E.03445
G1 X105.448 Y102.876 E.03445
G1 X106.175 Y102.558 E.03445
G1 X106.93 Y102.314 E.03445
G1 X107.705 Y102.146 E.03445
G1 X108.497 Y102.055 E.03461
G1 X109.135 Y102.041 E.0277
G1 X109.886 Y102.089 E.03263
G1 X110.67 Y102.217 E.03449
G1 X111.436 Y102.422 E.03445
G1 X112.179 Y102.702 E.03445
G1 X112.89 Y103.055 E.03445
G1 X113.562 Y103.477 E.03445
G1 X114.178 Y103.955 E.03386
G1 X114.755 Y104.5 E.03445
G1 X115.274 Y105.101 E.03445
G1 X115.73 Y105.75 E.03445
G1 X116.12 Y106.441 E.03445
G1 X116.439 Y107.168 E.03445
G1 X116.684 Y107.923 E.03445
G1 X116.854 Y108.703 E.03466
G1 X116.93 Y109.305 E.02634
G1 X116.959 Y110.103 E.03466
G1 X116.909 Y110.895 E.03445
G1 X116.781 Y111.678 E.03445
G1 X116.575 Y112.444 E.03445
G1 X116.3 Y113.174 E.03387
G1 X115.947 Y113.885 E.03445
G1 X115.526 Y114.558 E.03445
G1 X115.037 Y115.188 E.03461
G1 X114.602 Y115.655 E.02771
G1 X114.044 Y116.158 E.03263
G1 X113.405 Y116.63 E.03449
G1 X112.723 Y117.036 E.03445
G1 X112.004 Y117.372 E.03445
G1 X111.255 Y117.634 E.03445
G1 X110.484 Y117.821 E.03444
G1 X109.698 Y117.93 E.03445
G1 X108.905 Y117.96 E.03445
G1 X108.113 Y117.911 E.03445
G1 X107.329 Y117.783 E.03445
G1 X106.563 Y117.578 E.03445
G1 X105.82 Y117.298 E.03445
G1 X105.109 Y116.945 E.03445
G1 X104.437 Y116.523 E.03445
G1 X103.81 Y116.037 E.03445
G1 X103.244 Y115.5 E.03387
G1 X102.725 Y114.899 E.03445
G1 X102.269 Y114.25 E.03445
G1 X101.877 Y113.555 E.03466
G1 X101.627 Y113.002 E.02634
G1 X101.363 Y112.248 E.03466
G1 X101.177 Y111.477 E.03445
G1 X101.069 Y110.69 E.03445
G1 X101.04 Y109.897 E.03445
G1 X101.088 Y109.119 E.03387
G1 X101.215 Y108.335 E.03445
G1 X101.42 Y107.569 E.03445
G1 X101.699 Y106.826 E.03445
G1 X102.052 Y106.115 E.03445
G1 X102.473 Y105.442 E.03445
G1 X102.959 Y104.815 E.03445
G1 X103.471 Y104.276 E.03226
G1 E-1.75 F6000
;WIPE_START
G1 F3000
G1 X103.506 Y104.24 E-.0379
G1 X104.106 Y103.721 E-.59514
G1 X104.234 Y103.632 E-.11696
;WIPE_END
G1 X115.068 Y108.432 F18000
G1 E2.5 F6000
G1 F3000
G1 X115.125 Y108.311 E.0058
G1 X115.331 Y108.167 E.01093
G1 X115.544 Y107.955 E.01305
G1 X115.732 Y107.672 E.01473
G1 X115.812 Y107.464 E.0097
G1 X115.894 Y107.385 E.00492
G1 X116.006 Y107.396 E.00492
G1 X116.066 Y107.471 E.00413
G1 X116.252 Y108.046 E.02627
G1 X116.41 Y108.773 E.03227
G1 X116.481 Y109.335 E.02461
G1 X116.504 Y110.187 E.03698
G1 X116.459 Y110.291 E.00492
G1 X116.351 Y110.324 E.00492
G1 X116.278 Y110.289 E.00346
G1 X116.022 Y110.054 E.0151
G1 X115.716 Y109.889 E.01511
G1 X115.2 Y109.795 E.02275
G1 X114.954 Y109.801 E.01068
G1 X114.814 Y109.828 E.00618
G1 X114.704 Y109.801 E.00492
G1 X114.654 Y109.7 E.00492
G1 X114.687 Y109.608 E.0042
G1 X114.903 Y109.327 E.01542
G1 X115.024 Y109.046 E.01326
G1 X115.086 Y108.663 E.01685
G1 X115.071 Y108.472 E.00832
G1 X115.533 Y108.625 F18000
G1 F3000
G1 X115.578 Y108.542 E.0041
G1 X115.677 Y108.455 E.00575
G1 X115.786 Y108.423 E.00492
G1 X115.898 Y108.527 E.00663
G1 X115.968 Y108.855 E.01454
G1 X116.028 Y109.324 E.02054
G1 X115.994 Y109.432 E.00492
G1 X115.866 Y109.473 E.00583
G1 X115.533 Y109.399 E.01477
G1 X115.443 Y109.331 E.00492
G1 X115.433 Y109.23 E.00438
G1 X115.468 Y109.112 E.00535
G1 X115.528 Y108.665 E.01959
G1 E-1.75 F6000
;WIPE_START
G1 F3000
G1 X115.578 Y108.542 E-.0995
G1 X115.677 Y108.455 E-.09932
G1 X115.786 Y108.423 E-.08495
G1 X115.898 Y108.527 E-.11456
G1 X115.968 Y108.855 E-.25126
G1 X115.985 Y108.988 E-.10041
;WIPE_END
G1 X114.847 Y105.533 F18000
G1 E2.5 F6000
G1 F3000
G1 X114.709 Y105.542 E.00602
G1 X114.601 Y105.439 E.00648
G1 X114.588 Y105.38 E.00261
G1 X114.612 Y105.27 E.00492
G1 X114.713 Y105.217 E.00492
G1 X114.821 Y105.263 E.00513
G1 X114.879 Y105.33 E.00383
G1 X114.91 Y105.439 E.00492
G1 X114.869 Y105.5 E.00318
G1 X114.77 Y106.009 F18000
G1 F3000
G1 X114.861 Y106.046 E.00428
G1 X114.962 Y106.103 E.00503
G1 X115.126 Y106.239 E.00925
G1 X115.314 Y106.478 E.0132
G1 X115.396 Y106.662 E.00877
G1 X115.448 Y106.912 E.01106
G1 X115.441 Y107.113 E.00874
G1 X115.357 Y107.427 E.01411
G1 X115.224 Y107.641 E.01093
G1 X115.077 Y107.797 E.00933
G1 X114.881 Y107.938 E.01047
G1 X114.637 Y108.028 E.01128
G1 X114.558 Y108.109 E.00492
G1 X114.557 Y108.198 E.00385
G1 X114.595 Y108.311 E.0052
G1 X114.641 Y108.61 E.01311
G1 X114.622 Y108.814 E.0089
G1 X114.589 Y108.94 E.00568
G1 X114.494 Y109.145 E.00977
G1 X114.265 Y109.411 E.01525
G1 X114.07 Y109.551 E.01042
G1 X113.899 Y109.621 E.00801
G1 X113.815 Y109.745 E.00651
G1 X113.812 Y110.288 E.02357
G1 X113.904 Y110.416 E.00685
G1 X114.045 Y110.463 E.00646
G1 X114.232 Y110.58 E.00954
G1 X114.385 Y110.572 E.00665
G1 X114.673 Y110.351 E.01577
G1 X114.972 Y110.249 E.01373
G1 X115.144 Y110.239 E.00747
G1 X115.275 Y110.254 E.00573
G1 X115.54 Y110.301 E.01167
G1 X115.631 Y110.339 E.00427
G1 X115.732 Y110.395 E.00503
G1 X115.896 Y110.531 E.00922
G1 X116.09 Y110.783 E.01381
G1 X116.176 Y110.998 E.01006
G1 X116.211 Y111.17 E.00762
G1 X116.218 Y111.379 E.0091
G1 X116.203 Y111.486 E.0047
G1 X116.119 Y111.742 E.01169
G1 X115.995 Y111.932 E.00982
G1 X115.742 Y112.175 E.01525
G1 X115.527 Y112.285 E.0105
G1 X115.277 Y112.344 E.01113
G1 X115.076 Y112.342 E.00873
G1 X114.771 Y112.272 E.01358
G1 X114.561 Y112.158 E.01039
G1 X114.448 Y112.15 E.00492
G1 X114.369 Y112.233 E.00495
G1 X114.203 Y112.674 E.02047
G1 X114.076 Y112.843 E.00918
G1 X113.947 Y112.965 E.00766
G1 X113.74 Y113.097 E.01067
G1 X113.619 Y113.142 E.0056
G1 X113.308 Y113.199 E.01373
G1 X113.216 Y113.265 E.00492
G1 X113.201 Y113.358 E.0041
G1 X113.231 Y113.678 E.01396
G1 X113.179 Y113.93 E.01118
G1 X113.134 Y114.042 E.00522
G1 X113.008 Y114.235 E.01001
G1 X112.755 Y114.478 E.01525
G1 X112.539 Y114.588 E.0105
G1 X112.29 Y114.647 E.01113
G1 X112.088 Y114.645 E.00875
G1 X111.797 Y114.581 E.01295
G1 X111.686 Y114.605 E.00492
G1 X111.638 Y114.675 E.00368
G1 X111.565 Y114.931 E.01155
G1 X111.472 Y115.111 E.00881
G1 X111.305 Y115.303 E.01104
G1 X111.119 Y115.436 E.00994
G1 X110.609 Y115.609 E.02335
G1 X110.474 Y115.631 E.00595
G1 X110.22 Y115.616 E.01104
G1 X110.025 Y115.562 E.00877
G1 X109.914 Y115.581 E.00492
G1 X109.709 Y115.894 E.01625
G1 X109.614 Y115.991 E.00591
G1 X109.426 Y116.124 E.01001
G1 X109.086 Y116.242 E.01561
G1 X108.964 Y116.261 E.00537
G1 X108.729 Y116.251 E.01018
G1 X108.259 Y116.128 E.02111
G1 X108.083 Y116.028 E.00878
G1 X107.947 Y115.918 E.00759
G1 X107.793 Y115.739 E.01024
G1 X107.733 Y115.632 E.00533
G1 X107.627 Y115.315 E.01452
G1 X107.549 Y115.233 E.00492
G1 X107.442 Y115.236 E.00463
G1 X107.285 Y115.309 E.00751
G1 X107.033 Y115.368 E.01124
G1 X106.829 Y115.366 E.00889
G1 X106.657 Y115.337 E.00757
G1 X106.437 Y115.256 E.01018
G1 X106.312 Y115.174 E.00647
G1 X106.111 Y114.995 E.01169
G1 X105.988 Y114.833 E.00882
G1 X105.898 Y114.59 E.01126
G1 X105.865 Y114.353 E.01038
G1 X105.869 Y114.183 E.00739
G1 X105.899 Y114.026 E.00693
G1 X105.961 Y113.854 E.00795
G1 X105.926 Y113.71 E.00642
G1 X105.492 Y113.307 E.02567
G1 X105.341 Y113.285 E.00663
G1 X105.097 Y113.405 E.0118
G1 X104.83 Y113.471 E.01196
G1 X104.637 Y113.482 E.00839
G1 X104.327 Y113.439 E.01358
G1 X104.129 Y113.376 E.00901
G1 X103.834 Y113.192 E.01511
G1 X103.715 Y113.081 E.00707
G1 X103.547 Y112.864 E.01187
G1 X103.481 Y112.752 E.00566
G1 X103.24 Y112.19 E.02654
G1 X103.202 Y112.042 E.00662
G1 X103.167 Y111.628 E.01806
G1 X102.98 Y111.235 E.01889
G1 X102.906 Y110.965 E.01214
G1 X102.895 Y110.727 E.01034
G1 X102.94 Y110.449 E.01222
G1 X102.994 Y110.303 E.00675
G1 X103.141 Y110.039 E.01313
G1 X103.277 Y109.87 E.0094
G1 X103.281 Y109.708 E.00702
G1 X103.187 Y109.575 E.00709
G1 X103.05 Y109.308 E.01304
G1 X103.003 Y109.174 E.00613
G1 X102.97 Y108.962 E.00933
G1 X102.979 Y108.696 E.01154
G1 X103.068 Y108.379 E.0143
G1 X103.263 Y108.028 E.01747
G1 X103.35 Y107.57 E.02021
G1 X103.407 Y107.415 E.00719
G1 X103.521 Y107.21 E.01018
G1 X103.647 Y107.05 E.00883
G1 X104.046 Y106.765 E.02129
G1 X104.218 Y106.7 E.00797
G1 X104.399 Y106.661 E.00804
G1 X104.602 Y106.644 E.00881
G1 X104.935 Y106.691 E.01459
G1 X105.091 Y106.748 E.00725
G1 X105.23 Y106.826 E.00693
G1 X105.392 Y106.804 E.00708
G1 X105.8 Y106.393 E.02515
G1 X106.176 Y106.092 E.0209
G1 X106.559 Y105.842 E.01986
G1 X106.813 Y105.708 E.01249
G1 X106.882 Y105.618 E.00492
G1 X106.796 Y105.186 E.01911
G1 X106.809 Y104.98 E.00897
G1 X106.863 Y104.759 E.00988
G1 X106.945 Y104.579 E.0086
G1 X107.015 Y104.482 E.00517
G1 X107.106 Y104.385 E.00577
G1 X107.364 Y104.193 E.01396
G1 X107.664 Y104.09 E.01377
G1 X107.833 Y104.081 E.00734
G1 X108.233 Y104.144 E.01758
G1 X108.499 Y104.291 E.01319
G1 X108.722 Y104.528 E.01412
G1 X108.827 Y104.57 E.00492
G1 X108.902 Y104.542 E.00343
G1 X109.194 Y104.32 E.01594
G1 X109.493 Y104.217 E.01373
G1 X109.662 Y104.208 E.00734
G1 X110.062 Y104.27 E.01758
G1 X110.345 Y104.43 E.0141
G1 X110.457 Y104.444 E.00492
G1 X110.53 Y104.388 E.00398
G1 X110.626 Y104.238 E.00774
G1 X110.876 Y104.011 E.01466
G1 X111.053 Y103.91 E.00887
G1 X111.279 Y103.845 E.01021
G1 X111.444 Y103.835 E.00717
G1 X111.84 Y103.897 E.01739
G1 X112.038 Y103.994 E.00956
G1 X112.202 Y104.129 E.00922
G1 X112.32 Y104.266 E.00785
G1 X112.428 Y104.443 E.00899
G1 X112.494 Y104.64 E.00905
G1 X112.572 Y104.723 E.00492
G1 X112.661 Y104.726 E.00388
G1 X112.929 Y104.644 E.01216
G1 X113.093 Y104.635 E.00712
G1 X113.489 Y104.696 E.01739
G1 X113.687 Y104.793 E.00956
G1 X113.85 Y104.928 E.00922
G1 X113.968 Y105.065 E.00785
G1 X114.076 Y105.241 E.00895
G1 X114.155 Y105.487 E.01122
G1 X114.17 Y105.595 E.00473
G1 X114.163 Y105.812 E.00941
G1 X114.207 Y105.916 E.00492
G1 X114.29 Y105.951 E.00391
G1 X114.509 Y105.962 E.00951
G1 X114.73 Y106.002 E.00976
G1 E-1.75 F6000
;WIPE_START
G1 F3000
G1 X114.861 Y106.046 E-.10338
G1 X114.962 Y106.103 E-.08693
G1 X115.126 Y106.239 E-.15979
G1 X115.314 Y106.478 E-.22802
G1 X115.396 Y106.662 E-.15149
G1 X115.402 Y106.689 E-.02039
;WIPE_END
G1 X109.234 Y114.695 F18000
G1 E2.5 F6000
G1 F3000
G1 X109.382 Y114.828 E.00866
G1 X109.448 Y114.938 E.00555
G1 X109.51 Y115.173 E.01055
G1 X109.507 Y115.297 E.0054
G1 X109.447 Y115.486 E.00858
G1 X109.394 Y115.575 E.00451
G1 X109.285 Y115.687 E.00679
G1 X109.187 Y115.745 E.00493
G1 X108.955 Y115.814 E.01053
G1 X108.841 Y115.817 E.00494
G1 X108.463 Y115.729 E.01684
G1 X108.373 Y115.685 E.00435
G1 X108.219 Y115.561 E.0086
G1 X108.151 Y115.47 E.00493
G1 X108.078 Y115.286 E.00859
G1 X108.064 Y115.172 E.005
G1 X108.095 Y114.951 E.00967
G1 X108.146 Y114.837 E.00543
G1 X108.27 Y114.691 E.00833
G1 X108.456 Y114.578 E.00945
G1 X108.594 Y114.547 E.00614
G1 X108.741 Y114.563 E.00641
G1 X108.754 Y114.58 E.00095
G1 X108.839 Y114.564 E.00372
G1 X109.141 Y114.644 E.01356
G1 X109.199 Y114.675 E.00287
G1 E-1.75 F6000
;WIPE_START
G1 F3000
G1 X109.382 Y114.828 E-.17888
G1 X109.448 Y114.938 E-.09596
G1 X109.51 Y115.173 E-.18224
G1 X109.507 Y115.297 E-.09329
G1 X109.447 Y115.486 E-.14832
G1 X109.412 Y115.544 E-.05131
;WIPE_END
G1 X114.615 Y111.583 F18000
G1 E2.5 F6000
G1 F3000
G1 X114.551 Y111.344 E.01075
G1 X114.551 Y111.255 E.00387
G1 X114.61 Y111.009 E.01094
G1 X114.692 Y110.895 E.00612
G1 X114.861 Y110.758 E.00944
G1 X114.953 Y110.713 E.00443
G1 X115.083 Y110.684 E.00579
G1 X115.229 Y110.7 E.00641
G1 X115.247 Y110.722 E.00124
G1 X115.355 Y110.71 E.00473
G1 X115.467 Y110.756 E.00524
G1 X115.551 Y110.817 E.00452
G1 X115.684 Y110.971 E.00882
G1 X115.734 Y111.074 E.00495
G1 X115.773 Y111.269 E.00863
G1 X115.77 Y111.369 E.00438
G1 X115.731 Y111.518 E.00668
G1 X115.677 Y111.615 E.00482
G1 X115.512 Y111.791 E.01047
G1 X115.411 Y111.852 E.00512
G1 X115.26 Y111.896 E.00685
G1 X115.159 Y111.902 E.00437
G1 X114.964 Y111.868 E.00858
G1 X114.861 Y111.821 E.00493
G1 X114.692 Y111.684 E.00945
G1 X114.639 Y111.615 E.00377
G1 E-1.75 F6000
;WIPE_START
G1 F3000
G1 X114.551 Y111.344 E-.21374
G1 X114.551 Y111.255 E-.06685
