; HEADER_BLOCK_START
; generated by AnycubicSlicerNext 1.3.2 on 2025-01-25 at 18:39:13
; total layer number: 25
; filament_density: 1.24
; filament_diameter: 1.75
; max_z_height: 5.04
; exclude_object: 0
; model_instances: 4
; HEADER_BLOCK_END

; THUMBNAIL_BLOCK_START

;
; THUMBNAIL_BLOCK_END

; external perimeters extrusion width = 0.42mm
; perimeters extrusion width = 0.45mm
; infill extrusion width = 0.45mm
; solid infill extrusion width = 0.42mm
; top infill extrusion width = 0.42mm
; first layer extrusion width = 0.50mm

; external perimeters extrusion width = 0.42mm
; perimeters extrusion width = 0.45mm
; infill extrusion width = 0.45mm
; solid infill extrusion width = 0.42mm
; top infill extrusion width = 0.42mm
; first layer extrusion width = 0.50mm

; external perimeters extrusion width = 0.42mm
; perimeters extrusion width = 0.45mm
; infill extrusion width = 0.45mm
; solid infill extrusion width = 0.42mm
; top infill extrusion width = 0.42mm
; first layer extrusion width = 0.50mm

; external perimeters extrusion width = 0.42mm
; perimeters extrusion width = 0.45mm
; infill extrusion width = 0.45mm
; solid infill extrusion width = 0.42mm
; top infill extrusion width = 0.42mm
; first layer extrusion width = 0.50mm

; EXECUTABLE_BLOCK_START
M201 X2000 Y2000 Z800 E2000
M203 X300 Y300 Z8 E100
M204 P2000 R2000 T2000
M205 X10.00 Y10.00 Z2.00 E5.00 ; sets the jerk limits, mm/sec
;TYPE:Custom
G90 ; use absolute coordinates
M83 ; extruder relative mode
M104 S220 ; set extruder temp
M140 S60 ; set bed temp
M190 S60 ; wait for bed temp
M109 S220 ; wait for extruder temp
G28                                        ; move X/Y/Z to min endstops
G1 Z0.28                                   ; lift nozzle a bit 
G92 E0 
G1 Y3 F1800                                    ; zero the extruded length 
G1 X60  E25 F500                       ; Extrude 25mm of filament in a 5cm line. 
G92 E0                                     ; zero the extruded length again 
G1 E-2 F500                                ; Retract a little 
G1 X70 F4000                              ; Quickly wipe away from the filament line
M117
G90
G21
M82 ; use absolute distances for extrusion
G92 E0
; filament start gcode
M106 S0
;LAYER_CHANGE
;Z:0.24
;HEIGHT:0.24
; BEFORE_LAYER_CHANGE 0 @ 0.24mm
G1 E-2.5 F6000
G92 E0
; AFTER_LAYER_CHANGE 0 @ 0.24mm
;_SET_FAN_SPEED_CHANGING_LAYER
M204 P500
; printing object "Sockel.stl" id:1811648076800 copy 0
M204 T500
G1 X91.285 Y92.437 F18000
G1 Z.24
G1 E2.5 F6000
;TYPE:Brim
;WIDTH:0.5
G1 F3000
G1 X91.829 Y91.921 E2.53254
G1 X92.412 Y91.45 E2.56512
G1 X93.032 Y91.026 E2.5977
G1 X93.684 Y90.653 E2.63028
G1 X94.361 Y90.334 E2.66281
G1 X95.257 Y90.007 E2.7042
G1 X95.982 Y89.815 E2.73673
G1 X96.72 Y89.681 E2.76931
G1 X97.467 Y89.607 E2.80189
G1 X98.219 Y89.592 E2.83453
G1 X98.955 Y89.636 E2.86654
G1 X99.525 Y89.71 E2.8915
G1 X100.065 Y89.813 E2.91537
G1 X100.624 Y89.955 E2.94039
G1 X101.147 Y90.122 E2.96425
G1 X101.685 Y90.329 E2.98926
G1 X102.184 Y90.557 E3.01309
G1 X102.817 Y90.9 E3.04435
G1 X103.32 Y91.218 E3.07017
G1 X103.786 Y91.556 E3.09515
G1 X104.244 Y91.935 E3.12094
G1 X104.622 Y92.286 E3.14334
G1 X105.023 Y92.704 E3.16848
G1 X105.378 Y93.123 E3.19234
G1 X105.723 Y93.583 E3.21731
G1 X106.131 Y94.214 E3.24989
G1 X106.562 Y95.033 E3.29009
G1 X106.92 Y95.917 E3.33148
G1 X107.074 Y96.408 E3.35383
G1 X107.22 Y96.984 E3.37961
G1 X107.377 Y97.924 E3.42098
G1 X107.438 Y98.875 E3.46234
G1 X107.439 Y105.282 E3.74044
G1 X107.055 Y105.504 E3.7597
G1 X106.641 Y105.805 E3.78192
G1 X106.24 Y106.16 E3.80517
G1 X105.997 Y106.414 E3.82043
G1 X105.677 Y106.807 E3.8424
G1 X105.42 Y107.188 E3.86237
G1 X105.162 Y107.66 E3.88571
G1 X104.929 Y108.221 E3.91207
G1 X104.73 Y108.949 E3.94483
G1 X104.634 Y109.714 E3.97831
G1 X104.626 Y113.095 E4.12508
G1 X103.978 Y113.303 E4.15463
G1 X103.349 Y113.398 E4.18225
G1 X102.7 Y113.409 E4.21041
G1 X102.418 Y112.941 E4.23413
G1 X102.164 Y112.603 E4.25248
G1 X101.893 Y112.295 E4.27031
G1 X101.344 Y111.793 E4.30256
G1 X100.791 Y111.408 E4.33182
G1 X100.154 Y111.077 E4.36301
G1 X99.521 Y110.846 E4.39224
G1 X99.112 Y110.742 E4.41058
G1 X98.707 Y110.672 E4.42841
G1 X98.038 Y110.626 E4.45749
G1 X97.324 Y110.669 E4.48857
G1 X96.662 Y110.795 E4.5178
G1 X96.269 Y110.912 E4.53563
G1 X95.874 Y111.064 E4.55398
G1 X95.279 Y111.365 E4.58291
G1 X94.924 Y111.593 E4.60126
G1 X94.596 Y111.841 E4.61909
G1 X94.107 Y112.295 E4.64803
G1 X93.828 Y112.612 E4.66637
G1 X93.582 Y112.94 E4.6842
G1 X93.299 Y113.411 E4.70803
G1 X93.037 Y113.411 E4.71938
G1 X92.395 Y113.363 E4.74734
G1 X91.774 Y113.221 E4.77497
G1 X91.219 Y113.009 E4.80077
G1 X90.654 Y112.71 E4.82851
G1 X90.142 Y112.333 E4.8561
G1 X89.693 Y111.884 E4.8837
G1 X89.316 Y111.375 E4.9112
G1 X88.952 Y110.656 E4.94616
G1 X88.726 Y109.949 E4.97841
G1 X88.63 Y109.317 E5.00613
G1 X88.618 Y108.995 E5.02012
G1 X88.62 Y98.879 E5.45922
G1 X88.644 Y98.309 E5.48402
G1 X88.704 Y97.736 E5.50901
G1 X88.801 Y97.159 E5.53443
G1 X88.97 Y96.452 E5.56597
G1 X89.203 Y95.737 E5.59863
G1 X89.491 Y95.044 E5.63121
G1 X89.833 Y94.376 E5.66379
G1 X90.228 Y93.737 E5.69637
G1 X90.672 Y93.133 E5.72891
G1 X91.258 Y92.467 E5.76742
G1 X91.595 Y92.764 F18000
G1 F3000
G1 X91.604 Y92.753 E5.76803
G1 X92.12 Y92.263 E5.79895
G1 X92.685 Y91.807 E5.83044
G1 X93.275 Y91.404 E5.86147
G1 X93.896 Y91.049 E5.8925
G1 X94.54 Y90.746 E5.9234
G1 X95.386 Y90.438 E5.96249
G1 X96.084 Y90.253 E5.99386
G1 X96.788 Y90.125 E6.02489
G1 X97.499 Y90.055 E6.05591
G1 X98.215 Y90.041 E6.087
G1 X98.908 Y90.082 E6.11712
G1 X99.45 Y90.152 E6.14085
G1 X99.972 Y90.252 E6.16391
G1 X100.496 Y90.385 E6.18741
G1 X101.002 Y90.546 E6.21045
G1 X101.515 Y90.745 E6.2343
G1 X101.988 Y90.961 E6.2569
G1 X102.586 Y91.285 E6.28644
G1 X103.064 Y91.588 E6.311
G1 X103.507 Y91.909 E6.33474
G1 X103.945 Y92.27 E6.35939
G1 X104.31 Y92.609 E6.38099
G1 X104.687 Y93.002 E6.40462
G1 X105.03 Y93.407 E6.42767
G1 X105.358 Y93.844 E6.45139
G1 X105.74 Y94.435 E6.48195
G1 X106.157 Y95.229 E6.52086
G1 X106.499 Y96.074 E6.56045
G1 X106.644 Y96.535 E6.58141
G1 X106.78 Y97.071 E6.60541
G1 X106.93 Y97.969 E6.64493
G1 X106.989 Y98.894 E6.68517
G1 X106.99 Y104.946 E6.94789
G1 X106.932 Y105.057 E6.95331
G1 X106.382 Y105.439 E6.98243
G1 X105.946 Y105.821 E7.00756
G1 X105.646 Y106.135 E7.02644
G1 X105.333 Y106.519 E7.04792
G1 X105.052 Y106.933 E7.06964
G1 X104.772 Y107.439 E7.09475
G1 X104.518 Y108.041 E7.12311
G1 X104.3 Y108.822 E7.15831
G1 X104.19 Y109.65 E7.19457
G1 X104.179 Y112.67 E7.32565
G1 X104.085 Y112.798 E7.33252
G1 X103.865 Y112.866 E7.34255
G1 X103.32 Y112.949 E7.36644
G1 X103.029 Y112.955 E7.37911
G1 X102.912 Y112.891 E7.38488
G1 X102.773 Y112.666 E7.39636
G1 X102.526 Y112.338 E7.4142
G1 X102.19 Y111.959 E7.43616
G1 X101.594 Y111.421 E7.47102
G1 X100.991 Y111.006 E7.50279
G1 X100.3 Y110.653 E7.53649
G1 X99.625 Y110.409 E7.56765
G1 X99.226 Y110.308 E7.58549
G1 X98.789 Y110.232 E7.60475
G1 X98.004 Y110.179 E7.63893
G1 X97.232 Y110.23 E7.6725
G1 X96.528 Y110.367 E7.70363
G1 X96.103 Y110.495 E7.72291
G1 X95.719 Y110.643 E7.74076
G1 X95.082 Y110.962 E7.77168
G1 X94.686 Y111.213 E7.79206
G1 X94.331 Y111.48 E7.81133
G1 X93.807 Y111.961 E7.84221
G1 X93.466 Y112.347 E7.86454
G1 X93.227 Y112.666 E7.88187
G1 X93.087 Y112.892 E7.89338
G1 X92.963 Y112.955 E7.89945
G1 X92.452 Y112.916 E7.9217
G1 X91.914 Y112.793 E7.94564
G1 X91.398 Y112.596 E7.96965
G1 X90.885 Y112.323 E7.99484
G1 X90.428 Y111.985 E8.01951
G1 X90.04 Y111.597 E8.04332
G1 X89.694 Y111.128 E8.06864
G1 X89.373 Y110.495 E8.09945
G1 X89.162 Y109.835 E8.12952
G1 X89.077 Y109.262 E8.15465
G1 X89.068 Y98.892 E8.60482
G1 X89.092 Y98.338 E8.62891
G1 X89.149 Y97.793 E8.6527
G1 X89.242 Y97.244 E8.67686
G1 X89.401 Y96.579 E8.70654
G1 X89.622 Y95.897 E8.73764
G1 X89.896 Y95.237 E8.76866
G1 X90.227 Y94.592 E8.80015
G1 X90.603 Y93.984 E8.83118
G1 X91.025 Y93.41 E8.8621
G1 X91.568 Y92.794 E8.89775
G1 E7.14775 F6000
;WIPE_START
G1 F3000
G1 X91.604 Y92.753 E7.10724
G1 X92.12 Y92.263 E6.57306
G1 X92.302 Y92.116 E6.39775
;WIPE_END
G92 E0
G1 X100.991 Y110.323 F18000
G1 E2.5 F6000
G1 F3000
G1 X101.097 Y110.271 E2.50514
G1 X103.005 Y110.271 E2.58796
G1 X103.359 Y110.214 E2.60351
G1 X103.555 Y110.136 E2.61266
G1 X103.668 Y110.143 E2.61758
G1 X103.739 Y110.262 E2.62359
G1 X103.731 Y112.318 E2.71283
G1 X103.683 Y112.42 E2.71774
G1 X103.617 Y112.45 E2.7209
G1 X103.293 Y112.499 E2.73511
G1 X103.165 Y112.446 E2.74113
G1 X102.887 Y112.072 E2.76139
G1 X102.53 Y111.667 E2.78482
G1 X101.901 Y111.094 E2.82178
G1 X101.251 Y110.641 E2.85615
G1 X101.034 Y110.524 E2.86685
G1 X100.966 Y110.434 E2.87177
G1 X100.982 Y110.362 E2.87495
G1 E1.12495 F6000
;WIPE_START
G1 F3000
G1 X101.097 Y110.271 E1.01475
G1 X101.951 Y110.271 E.37495
;WIPE_END
G92 E0
G1 X102.369 Y110.849 F18000
G1 E2.5 F6000
G1 F3000
G1 X102.421 Y110.748 E2.50492
G1 X102.504 Y110.72 E2.50873
G1 X103.139 Y110.704 E2.53631
G1 X103.246 Y110.74 E2.54123
G1 X103.288 Y110.838 E2.54586
G1 X103.286 Y111.49 E2.57416
G1 X103.238 Y111.593 E2.57907
G1 X103.129 Y111.622 E2.58399
G1 X103.051 Y111.58 E2.58782
G1 X102.827 Y111.331 E2.60236
G1 X102.413 Y110.954 E2.62666
G1 X102.385 Y110.886 E2.62984
G1 E.87984 F6000
;WIPE_START
G1 F3000
G1 X102.421 Y110.748 E.77304
G1 X102.504 Y110.72 E.70713
G1 X103.139 Y110.704 E.23066
G1 X103.246 Y110.74 E.14571
G1 X103.255 Y110.76 E.12984
;WIPE_END
G92 E0
G1 X102.385 Y109.823 F18000
G1 E2.5 F6000
G1 F3000
G1 X93.04 Y109.823 E2.90567
G1 X92.876 Y109.796 E2.91284
G1 X92.703 Y109.738 E2.9208
G1 X92.495 Y109.607 E2.93146
G1 X92.396 Y109.505 E2.93763
G1 X92.257 Y109.258 E2.94994
G1 X92.206 Y108.987 E2.96189
G1 X92.208 Y98.873 E3.40095
G1 X92.235 Y98.426 E3.42035
G1 X92.298 Y97.972 E3.44028
G1 X92.388 Y97.558 E3.45864
G1 X92.513 Y97.136 E3.47775
G1 X92.661 Y96.745 E3.49591
G1 X92.857 Y96.326 E3.51601
G1 X93.256 Y95.666 E3.54949
G1 X93.535 Y95.298 E3.56953
G1 X93.832 Y94.965 E3.58888
G1 X94.167 Y94.643 E3.60905
G1 X94.526 Y94.349 E3.62919
G1 X94.903 Y94.088 E3.64907
G1 X95.304 Y93.855 E3.66923
G1 X95.723 Y93.654 E3.6894
G1 X96.113 Y93.502 E3.70756
G1 X96.557 Y93.367 E3.72773
G1 X97.009 Y93.268 E3.74782
G1 X97.758 Y93.185 E3.78052
G1 X98.276 Y93.184 E3.80298
G1 X98.746 Y93.222 E3.82346
G1 X99.204 Y93.298 E3.84363
G1 X99.655 Y93.41 E3.86378
G1 X100.095 Y93.557 E3.88394
G1 X100.52 Y93.738 E3.904
G1 X101.292 Y94.179 E3.94257
G1 X101.669 Y94.456 E3.96289
G1 X102.041 Y94.782 E3.98437
G1 X102.37 Y95.121 E4.00485
G1 X102.666 Y95.479 E4.02502
G1 X102.931 Y95.86 E4.04517
G1 X103.187 Y96.301 E4.06732
G1 X103.386 Y96.721 E4.0875
G1 X103.555 Y97.167 E4.10818
G1 X103.658 Y97.513 E4.12386
G1 X103.758 Y97.967 E4.14404
G1 X103.823 Y98.427 E4.1642
G1 X103.85 Y98.879 E4.18387
G1 X103.851 Y108.989 E4.62272
G1 X103.825 Y109.152 E4.62989
G1 X103.767 Y109.326 E4.63785
G1 X103.636 Y109.534 E4.64851
G1 X103.534 Y109.632 E4.65468
G1 X103.286 Y109.772 E4.66699
G1 X103.016 Y109.823 E4.67894
G1 X102.425 Y109.823 E4.7046
G1 X102.425 Y109.374 F18000
G1 F3000
G1 X93.029 Y109.374 E5.11247
G1 X92.829 Y109.308 E5.1216
G1 X92.71 Y109.184 E5.12905
G1 X92.67 Y109.082 E5.13382
G1 X92.654 Y109 E5.13744
G1 X92.656 Y98.869 E5.57723
G1 X92.683 Y98.45 E5.59543
G1 X92.743 Y98.031 E5.61382
G1 X92.817 Y97.688 E5.62903
G1 X92.931 Y97.3 E5.6466
G1 X93.082 Y96.899 E5.6652
G1 X93.266 Y96.511 E5.68381
G1 X93.611 Y95.941 E5.71276
G1 X93.868 Y95.598 E5.73136
G1 X94.14 Y95.29 E5.7492
G1 X94.448 Y94.992 E5.7678
G1 X94.779 Y94.72 E5.78641
G1 X95.126 Y94.478 E5.80475
G1 X95.495 Y94.261 E5.82336
G1 X95.881 Y94.074 E5.84197
G1 X96.28 Y93.918 E5.86057
G1 X96.691 Y93.795 E5.87918
G1 X97.11 Y93.705 E5.89779
G1 X97.752 Y93.633 E5.92583
G1 X98.283 Y93.632 E5.94885
G1 X98.712 Y93.67 E5.96755
G1 X99.134 Y93.741 E5.98616
G1 X99.55 Y93.846 E6.00477
G1 X99.956 Y93.983 E6.02337
G1 X100.35 Y94.153 E6.04198
G1 X101.022 Y94.537 E6.07557
G1 X101.369 Y94.791 E6.09427
G1 X101.751 Y95.123 E6.11623
G1 X102.05 Y95.435 E6.13499
G1 X102.321 Y95.767 E6.1536
G1 X102.565 Y96.119 E6.17221
G1 X102.781 Y96.49 E6.19082
G1 X102.966 Y96.877 E6.20943
G1 X103.124 Y97.292 E6.22872
G1 X103.219 Y97.608 E6.24304
G1 X103.314 Y98.026 E6.26165
G1 X103.375 Y98.45 E6.28026
G1 X103.401 Y98.875 E6.29874
G1 X103.403 Y109 E6.73824
G1 X103.336 Y109.199 E6.74737
G1 X103.213 Y109.319 E6.75482
G1 X103.111 Y109.359 E6.75958
G1 X103.029 Y109.374 E6.7632
G1 X102.465 Y109.374 E6.78768
G1 E5.03768 F6000
;WIPE_START
G1 F3000
G1 X101.465 Y109.374 E4.28768
;WIPE_END
G92 E0
G1 X104.35 Y106.949 F18000
G1 E2.5 F6000
G1 F3000
G1 X104.3 Y106.845 E2.50503
G1 X104.298 Y98.883 E2.85063
G1 X104.27 Y98.405 E2.87143
G1 X104.203 Y97.91 E2.8931
G1 X104.097 Y97.42 E2.91485
G1 X103.973 Y97.004 E2.93373
G1 X103.79 Y96.525 E2.95597
G1 X103.573 Y96.071 E2.9778
G1 X103.322 Y95.639 E2.99948
G1 X103.036 Y95.226 E3.02128
G1 X102.719 Y94.839 E3.043
G1 X102.367 Y94.473 E3.06505
G1 X101.968 Y94.122 E3.08814
G1 X101.564 Y93.822 E3.10994
G1 X100.689 Y93.323 E3.15369
G1 X100.233 Y93.13 E3.17518
G1 X99.758 Y92.973 E3.19689
G1 X99.272 Y92.855 E3.21861
G1 X98.824 Y92.781 E3.23833
G1 X98.318 Y92.737 E3.26038
G1 X97.764 Y92.736 E3.28441
G1 X96.907 Y92.831 E3.32185
G1 X96.422 Y92.939 E3.34342
G1 X95.987 Y93.072 E3.36315
G1 X95.565 Y93.234 E3.3828
G1 X95.115 Y93.448 E3.40443
G1 X94.643 Y93.723 E3.42812
G1 X94.238 Y94.005 E3.44954
G1 X93.887 Y94.293 E3.46923
G1 X93.494 Y94.67 E3.49291
G1 X93.175 Y95.031 E3.51379
G1 X92.903 Y95.389 E3.53331
G1 X92.477 Y96.088 E3.56886
G1 X92.24 Y96.591 E3.59299
G1 X92.082 Y97.013 E3.61257
G1 X91.959 Y97.426 E3.63126
G1 X91.853 Y97.915 E3.65297
G1 X91.787 Y98.404 E3.67439
G1 X91.759 Y98.876 E3.69494
G1 X91.758 Y108.976 E4.13336
G1 X91.815 Y109.332 E4.149
G1 X91.872 Y109.487 E4.15618
G1 X91.999 Y109.714 E4.16746
G1 X92.166 Y109.911 E4.17869
G1 X92.455 Y110.112 E4.19395
G1 X92.728 Y110.219 E4.20665
G1 X93.05 Y110.271 E4.22085
G1 X94.892 Y110.271 E4.30077
G1 X94.994 Y110.319 E4.30569
G1 X95.024 Y110.428 E4.3106
G1 X94.961 Y110.521 E4.31546
G1 X94.45 Y110.832 E4.34146
G1 X94.022 Y111.154 E4.36469
G1 X93.467 Y111.669 E4.39759
G1 X93.134 Y112.046 E4.4194
G1 X92.843 Y112.434 E4.44044
G1 X92.725 Y112.487 E4.44606
G1 X92.529 Y112.472 E4.45458
G1 X92.054 Y112.365 E4.47573
G1 X91.576 Y112.183 E4.49793
G1 X91.117 Y111.937 E4.52053
G1 X90.715 Y111.637 E4.5423
G1 X90.375 Y111.296 E4.56322
G1 X90.072 Y110.882 E4.58548
G1 X89.795 Y110.334 E4.61216
G1 X89.604 Y109.744 E4.63908
G1 X89.527 Y109.239 E4.66124
G1 X89.517 Y98.899 E5.1101
G1 X89.54 Y98.367 E5.13322
G1 X89.595 Y97.849 E5.1558
G1 X89.683 Y97.329 E5.1787
G1 X89.835 Y96.695 E5.20699
G1 X90.045 Y96.048 E5.23655
G1 X90.306 Y95.421 E5.26601
G1 X90.621 Y94.808 E5.29594
G1 X90.978 Y94.231 E5.3254
G1 X91.379 Y93.687 E5.35471
G1 X91.924 Y93.069 E5.39046
G1 X92.42 Y92.597 E5.42023
G1 X92.957 Y92.164 E5.45015
G1 X93.518 Y91.782 E5.47962
G1 X94.107 Y91.445 E5.50909
G1 X94.718 Y91.159 E5.53837
G1 X95.515 Y90.868 E5.57518
G1 X96.177 Y90.692 E5.60491
G1 X96.845 Y90.571 E5.63438
G1 X97.531 Y90.503 E5.66432
G1 X98.211 Y90.49 E5.69386
G1 X98.861 Y90.529 E5.72211
G1 X99.375 Y90.595 E5.7446
G1 X99.87 Y90.689 E5.76649
G1 X100.369 Y90.816 E5.78882
G1 X100.857 Y90.971 E5.81105
G1 X101.344 Y91.16 E5.83373
G1 X101.792 Y91.365 E5.85511
G1 X102.355 Y91.67 E5.88293
G1 X102.809 Y91.957 E5.90623
G1 X103.229 Y92.261 E5.92874
G1 X103.647 Y92.605 E5.95223
G1 X103.998 Y92.931 E5.97304
G1 X104.356 Y93.305 E5.99551
G1 X104.682 Y93.69 E6.01738
G1 X104.992 Y94.104 E6.03987
G1 X105.349 Y94.657 E6.06841
G1 X105.752 Y95.424 E6.10603
G1 X106.078 Y96.231 E6.14381
G1 X106.213 Y96.661 E6.16338
G1 X106.339 Y97.158 E6.18562
G1 X106.482 Y98.013 E6.22329
G1 X106.541 Y98.912 E6.26239
G1 X106.542 Y104.712 E6.51412
G1 X106.485 Y104.822 E6.5195
G1 X106.08 Y105.107 E6.54099
G1 X105.655 Y105.481 E6.56557
G1 X105.325 Y105.822 E6.58615
G1 X104.959 Y106.271 E6.61132
G1 X104.684 Y106.676 E6.63255
G1 X104.551 Y106.911 E6.64427
G1 X104.459 Y106.977 E6.64919
G1 X104.388 Y106.959 E6.65237
G1 E4.90237 F6000
;WIPE_START
G1 F3000
G1 X104.3 Y106.845 E4.79389
G1 X104.3 Y105.989 E4.15237
;WIPE_END
G92 E0
G1 X104.873 Y105.577 F18000
G1 E2.5 F6000
G1 F3000
G1 X104.774 Y105.523 E2.50492
