; HEADER_BLOCK_START
; generated by AnycubicSlicerNext 1.3.2 on 2025-02-18 at 01:25:07
; total layer number: 50
; filament_density: 1.24
; filament_diameter: 1.75
; max_z_height: 10.04
; exclude_object: 0
; model_instances: 1
; HEADER_BLOCK_END

; THUMBNAIL_BLOCK_START

;
; THUMBNAIL_BLOCK_END

; external perimeters extrusion width = 0.42mm
; perimeters extrusion width = 0.45mm
; infill extrusion width = 0.45mm
; solid infill extrusion width = 0.42mm
; top infill extrusion width = 0.42mm
; first layer extrusion width = 0.50mm

; EXECUTABLE_BLOCK_START
M201 X2000 Y2000 Z800 E2000
M203 X300 Y300 Z8 E100
M204 P2000 R2000 T2000
M205 X10.00 Y10.00 Z2.00 E5.00 ; sets the jerk limits, mm/sec
;TYPE:Custom
G90 ; use absolute coordinates
M83 ; extruder relative mode
M104 S220 ; set extruder temp
M140 S60 ; set bed temp
M190 S60 ; wait for bed temp
M109 S220 ; wait for extruder temp
G28                                        ; move X/Y/Z to min endstops
G1 Z0.28                                   ; lift nozzle a bit 
G92 E0 
G1 Y3 F1800                                    ; zero the extruded length 
G1 X60  E25 F500                       ; Extrude 25mm of filament in a 5cm line. 
G92 E0                                     ; zero the extruded length again 
G1 E-2 F500                                ; Retract a little 
G1 X70 F4000                              ; Quickly wipe away from the filament line
M117
G90
G21
M82 ; use absolute distances for extrusion
G92 E0
; filament start gcode
M106 S0
;LAYER_CHANGE
;Z:0.24
;HEIGHT:0.24
; BEFORE_LAYER_CHANGE 0 @ 0.24mm
G1 E-2.5 F6000
G92 E0
; AFTER_LAYER_CHANGE 0 @ 0.24mm
;_SET_FAN_SPEED_CHANGING_LAYER
M204 P500
; printing object "Unbenannt.stl" id:81604378654 copy 0
M204 T500
G1 X77.511 Y79.573 F18000
G1 Z.24
G1 E2.5 F6000
;TYPE:Brim
;WIDTH:0.5
G1 F3000
G1 X77.896 Y79.229 E2.52245
G1 X78.422 Y78.848 E2.55064
G1 X78.889 Y78.581 E2.57398
G1 X79.289 Y78.398 E2.59306
G1 X79.932 Y78.178 E2.62258
G1 X80.067 Y78.051 E2.63064
G1 X80.274 Y77.548 E2.65426
G1 X80.438 Y77.222 E2.67009
G1 X80.692 Y76.8 E2.69146
G1 X81.061 Y76.302 E2.71839
G1 X81.394 Y75.933 E2.73997
G1 X81.668 Y75.673 E2.75635
G1 X82.065 Y75.351 E2.77852
G1 X82.502 Y75.059 E2.80137
G1 X83.069 Y74.759 E2.82919
G1 X83.568 Y74.56 E2.85251
G1 X83.979 Y74.437 E2.87116
G1 X84.657 Y74.307 E2.90111
G1 X84.81 Y74.198 E2.90926
G1 X85.015 Y73.837 E2.92727
G1 X85.291 Y73.429 E2.94866
G1 X85.602 Y73.047 E2.97003
G1 X85.944 Y72.691 E2.99147
G1 X86.319 Y72.363 E3.01309
G1 X86.724 Y72.068 E3.03487
G1 X87.271 Y71.747 E3.06238
G1 X87.741 Y71.531 E3.08482
G1 X88.122 Y71.394 E3.10241
G1 X88.643 Y71.254 E3.12582
G1 X89.305 Y71.153 E3.15489
G1 X89.872 Y71.131 E3.17952
G1 X90.039 Y71.046 E3.18767
G1 X90.376 Y70.619 E3.21125
G1 X90.714 Y70.261 E3.23264
G1 X90.99 Y70.01 E3.24881
G1 X91.477 Y69.637 E3.27546
G1 X91.899 Y69.375 E3.29702
G1 X92.233 Y69.201 E3.31339
G1 X92.704 Y69.001 E3.33557
G1 X93.196 Y68.842 E3.35802
G1 X93.831 Y68.708 E3.38621
G1 X94.367 Y68.655 E3.40957
G1 X94.796 Y68.649 E3.4282
G1 X95.483 Y68.711 E3.45816
G1 X95.658 Y68.65 E3.46621
G1 X96.051 Y68.274 E3.48979
G1 X96.436 Y67.967 E3.51118
G1 X96.736 Y67.762 E3.52698
G1 X97.278 Y67.456 E3.55397
G1 X97.732 Y67.254 E3.57555
G1 X98.088 Y67.128 E3.59192
G1 X98.581 Y66.996 E3.61411
G1 X99.091 Y66.907 E3.63654
G1 X99.739 Y66.863 E3.66474
G1 X100.276 Y66.884 E3.68809
G1 X100.712 Y66.941 E3.70716
G1 X101.374 Y67.096 E3.73668
G1 X101.558 Y67.058 E3.74484
G1 X101.892 Y66.812 E3.76284
G1 X102.31 Y66.553 E3.78418
G1 X102.865 Y66.278 E3.81106
G1 X103.326 Y66.102 E3.83249
G1 X103.681 Y65.997 E3.84855
G1 X104.297 Y65.871 E3.87586
G1 X104.803 Y65.82 E3.89794
G1 X105.196 Y65.812 E3.91501
G1 X105.846 Y65.858 E3.94326
G1 X106.375 Y65.954 E3.96661
G1 X106.789 Y66.067 E3.98524
G1 X107.433 Y66.316 E4.0152
G1 X107.62 Y66.304 E4.02335
G1 X107.985 Y66.108 E4.04135
G1 X108.436 Y65.908 E4.06275
G1 X108.901 Y65.748 E4.08411
G1 X109.38 Y65.628 E4.10552
G1 X109.997 Y65.536 E4.13262
G1 X110.401 Y65.512 E4.15017
G1 X110.919 Y65.523 E4.17268
G1 X111.518 Y65.597 E4.19889
G1 X112.033 Y65.713 E4.22177
G1 X112.431 Y65.839 E4.2399
G1 X112.948 Y66.056 E4.26425
G1 X113.54 Y66.387 E4.29372
G1 X113.725 Y66.403 E4.30177
G1 X114.237 Y66.219 E4.32534
G1 X114.714 Y66.095 E4.34674
G1 X115.072 Y66.03 E4.36254
G1 X115.691 Y65.97 E4.38953
G1 X116.188 Y65.971 E4.41111
G1 X116.564 Y66.001 E4.42749
G1 X117.069 Y66.08 E4.44967
G1 X117.57 Y66.207 E4.47211
G1 X118.18 Y66.43 E4.50031
G1 X118.662 Y66.668 E4.52365
G1 X119.029 Y66.891 E4.54229
G1 X119.579 Y67.308 E4.57225
G1 X119.76 Y67.349 E4.5803
G1 X120.292 Y67.238 E4.60388
G1 X120.782 Y67.182 E4.62527
G1 X121.145 Y67.167 E4.64107
G1 X121.766 Y67.194 E4.66806
G1 X122.259 Y67.264 E4.68964
G1 X122.627 Y67.346 E4.706
G1 X123.124 Y67.498 E4.72858
G1 X123.597 Y67.691 E4.75078
G1 X124.167 Y67.996 E4.77883
G1 X124.612 Y68.299 E4.80218
G1 X124.944 Y68.571 E4.82082
G1 X125.431 Y69.06 E4.85079
G1 X125.607 Y69.125 E4.85894
G1 X126.024 Y69.094 E4.87709
G1 X126.512 Y69.095 E4.89827
G1 X127.128 Y69.156 E4.92515
G1 X127.613 Y69.252 E4.94658
G1 X127.969 Y69.35 E4.96265
G1 X128.559 Y69.57 E4.98996
G1 X129.015 Y69.795 E5.01204
G1 X129.353 Y69.996 E5.0291
G1 X129.879 Y70.38 E5.0574
G1 X130.197 Y70.664 E5.07589
G1 X130.571 Y71.061 E5.09955
G1 X130.982 Y71.609 E5.1293
G1 X131.147 Y71.698 E5.13745
G1 X131.561 Y71.725 E5.15545
G1 X132.049 Y71.795 E5.17685
G1 X132.528 Y71.906 E5.19821
G1 X132.999 Y72.058 E5.21966
G1 X133.457 Y72.251 E5.24127
G1 X133.901 Y72.486 E5.26305
G1 X134.429 Y72.836 E5.29056
G1 X134.828 Y73.164 E5.313
G1 X135.119 Y73.446 E5.3306
G1 X135.474 Y73.854 E5.35405
G1 X135.797 Y74.311 E5.37835
G1 X136.124 Y74.906 E5.40781
G1 X136.273 Y75.017 E5.41587
G1 X136.803 Y75.133 E5.43944
G1 X137.274 Y75.28 E5.46084
G1 X137.612 Y75.414 E5.47663
G1 X138.178 Y75.698 E5.50412
G1 X138.59 Y75.956 E5.52522
G1 X138.893 Y76.18 E5.54157
G1 X139.279 Y76.515 E5.56376
G1 X139.637 Y76.888 E5.5862
G1 X140.035 Y77.401 E5.6144
G1 X140.319 Y77.858 E5.63775
G1 X140.512 Y78.242 E5.65639
G1 X140.757 Y78.887 E5.68635
G1 X140.891 Y79.018 E5.69449
G1 X141.29 Y79.161 E5.71286
G1 X141.734 Y79.36 E5.73399
G1 X142.269 Y79.665 E5.76071
G1 X142.672 Y79.949 E5.78215
G1 X142.958 Y80.185 E5.79821
G1 X143.407 Y80.625 E5.82552
G1 X143.733 Y81.016 E5.8476
G1 X143.964 Y81.345 E5.86507
G1 X144.284 Y81.902 E5.89294
G1 X144.5 Y82.394 E5.91626
G1 X144.638 Y82.801 E5.93491
G1 X144.791 Y83.473 E5.96486
G1 X144.906 Y83.622 E5.97301
G1 X145.273 Y83.815 E5.99101
G1 X145.691 Y84.077 E6.01241
G1 X146.084 Y84.373 E6.03377
G1 X146.451 Y84.704 E6.05523
G1 X146.792 Y85.067 E6.07684
G1 X147.101 Y85.461 E6.09861
G1 X147.441 Y85.996 E6.12612
G1 X147.673 Y86.459 E6.14857
G1 X147.827 Y86.844 E6.16657
G1 X147.982 Y87.354 E6.18972
G1 X148.106 Y88.008 E6.21864
G1 X148.148 Y88.575 E6.24328
G1 X148.239 Y88.739 E6.25142
G1 X148.685 Y89.067 E6.27549
G1 X149.047 Y89.386 E6.29641
G1 X149.301 Y89.646 E6.31219
G1 X149.696 Y90.126 E6.33919
G1 X149.973 Y90.539 E6.36076
G1 X150.159 Y90.867 E6.37713
G1 X150.375 Y91.33 E6.39932
G1 X150.551 Y91.816 E6.42177
G1 X150.707 Y92.448 E6.45
G1 X150.768 Y92.87 E6.4685
G1 X150.799 Y93.414 E6.49215
G1 X150.762 Y94.098 E6.5219
G1 X150.831 Y94.272 E6.53005
G1 X151.131 Y94.559 E6.54805
G1 X151.459 Y94.925 E6.56941
G1 X151.826 Y95.423 E6.59626
G1 X152.079 Y95.848 E6.61771
G1 X152.244 Y96.179 E6.63376
G1 X152.475 Y96.764 E6.66107
G1 X152.614 Y97.254 E6.68317
G1 X152.69 Y97.639 E6.70023
G1 X152.757 Y98.286 E6.72847
G1 X152.754 Y98.824 E6.75181
G1 X152.713 Y99.262 E6.77089
G1 X152.581 Y99.929 E6.80041
G1 X152.625 Y100.111 E6.80856
G1 X152.888 Y100.443 E6.82693
G1 X153.159 Y100.849 E6.84811
G1 X153.396 Y101.277 E6.86933
G1 X153.598 Y101.728 E6.89079
G1 X153.761 Y102.198 E6.9124
G1 X153.883 Y102.685 E6.93418
G1 X153.976 Y103.311 E6.96168
G1 X154 Y103.828 E6.98412
G1 X153.985 Y104.233 E7.00172
G1 X153.919 Y104.769 E7.02516
G1 X153.795 Y105.315 E7.04948
G1 X153.572 Y105.956 E7.07893
G1 X153.589 Y106.141 E7.08699
G1 X153.858 Y106.613 E7.11057
G1 X154.063 Y107.06 E7.13194
G1 X154.193 Y107.41 E7.14812
G1 X154.356 Y108.002 E7.17477
G1 X154.441 Y108.491 E7.19633
G1 X154.478 Y108.866 E7.21269
G1 X154.487 Y109.378 E7.23489
G1 X154.449 Y109.893 E7.25733
G1 X154.335 Y110.534 E7.28557
G1 X154.22 Y110.944 E7.30406
G1 X154.027 Y111.453 E7.32772
G1 X153.714 Y112.063 E7.35747
G1 X153.705 Y112.248 E7.36552
G1 X153.906 Y112.753 E7.38909
G1 X154.047 Y113.225 E7.41049
G1 X154.125 Y113.581 E7.42628
G1 X154.207 Y114.209 E7.45377
G1 X154.222 Y114.695 E7.47488
G1 X154.206 Y115.071 E7.49122
G1 X154.144 Y115.578 E7.51341
G1 X154.035 Y116.084 E7.53585
G1 X153.833 Y116.701 E7.56405
G1 X153.612 Y117.191 E7.58739
G1 X153.402 Y117.566 E7.60605
G1 X153.005 Y118.13 E7.636
G1 X152.971 Y118.315 E7.64414
G1 X153.074 Y118.716 E7.66214
G1 X153.158 Y119.202 E7.68354
G1 X153.201 Y119.693 E7.70492
G1 X153.201 Y120.187 E7.72635
G1 X153.159 Y120.683 E7.74797
G1 X153.073 Y121.177 E7.76976
G1 X152.903 Y121.787 E7.79724
G1 X152.715 Y122.269 E7.81971
G1 X152.536 Y122.633 E7.83729
G1 X152.253 Y123.103 E7.86111
G1 X151.852 Y123.628 E7.88981
G1 X151.46 Y124.038 E7.91441
G1 X151.399 Y124.215 E7.92256
G1 X151.453 Y124.757 E7.94618
G1 X151.461 Y125.121 E7.96202
G1 X151.435 Y125.613 E7.98338
G1 X151.343 Y126.226 E8.01031
G1 X151.222 Y126.709 E8.03189
G1 X151.102 Y127.066 E8.04827
G1 X150.903 Y127.537 E8.07045
G1 X150.659 Y127.993 E8.0929
G1 X150.294 Y128.53 E8.12108
G1 X149.947 Y128.941 E8.14444
G1 X149.641 Y129.243 E8.16308
G1 X149.104 Y129.676 E8.19304
G1 X149.021 Y129.842 E8.20109
G1 X148.999 Y130.385 E8.2247
G1 X148.955 Y130.756 E8.24089
G1 X148.861 Y131.234 E8.26205
G1 X148.685 Y131.826 E8.28884
G1 X148.498 Y132.286 E8.31042
G1 X148.33 Y132.624 E8.32679
G1 X148.067 Y133.062 E8.34898
G1 X147.762 Y133.48 E8.37142
G1 X147.326 Y133.961 E8.39962
G1 X146.925 Y134.319 E8.42295
G1 X146.573 Y134.582 E8.44204
G1 X145.989 Y134.93 E8.47156
G1 X145.883 Y135.085 E8.47971
G1 X145.813 Y135.494 E8.49771
G1 X145.693 Y135.971 E8.51905
G1 X145.485 Y136.554 E8.54593
G1 X145.275 Y137.001 E8.56736
G1 X145.093 Y137.323 E8.58343
G1 X144.737 Y137.841 E8.61073
G1 X144.408 Y138.23 E8.63282
G1 X144.131 Y138.509 E8.64988
G1 X143.632 Y138.926 E8.67813
G1 X143.185 Y139.225 E8.70148
G1 X142.808 Y139.431 E8.72013
G1 X142.172 Y139.699 E8.75008
G1 X142.046 Y139.838 E8.75823
G1 X141.92 Y140.233 E8.77622
G1 X141.73 Y140.697 E8.79798
G1 X141.509 Y141.131 E8.81914
G1 X141.249 Y141.548 E8.84045
G1 X140.95 Y141.946 E8.86205
G1 X140.616 Y142.32 E8.88383
G1 X140.148 Y142.747 E8.91134
G1 X139.733 Y143.056 E8.93379
G1 X139.388 Y143.27 E8.95138
G1 X138.908 Y143.514 E8.97478
G1 X138.281 Y143.751 E9.00386
G1 X137.732 Y143.89 E9.02848
G1 X137.586 Y144.008 E9.03663
G1 X137.345 Y144.496 E9.06022
G1 X137.088 Y144.916 E9.08162
G1 X136.876 Y145.212 E9.09742
G1 X136.472 Y145.685 E9.12441
G1 X136.114 Y146.029 E9.14598
G1 X135.823 Y146.269 E9.16236
G1 X135.405 Y146.563 E9.18454
G1 X134.956 Y146.82 E9.20698
G1 X134.362 Y147.083 E9.23518
G1 X133.85 Y147.247 E9.25852
G1 X133.431 Y147.341 E9.27717
G1 X132.746 Y147.424 E9.30712
G1 X132.587 Y147.52 E9.31517
G1 X132.275 Y147.978 E9.33924
G1 X131.968 Y148.35 E9.36017
G1 X131.717 Y148.613 E9.37594
G1 X131.251 Y149.025 E9.40293
G1 X130.849 Y149.316 E9.42451
G1 X130.527 Y149.513 E9.44088
G1 X130.064 Y149.749 E9.46345
G1 X129.589 Y149.939 E9.48566
G1 X128.967 Y150.116 E9.51371
G1 X128.438 Y150.207 E9.53704
G1 X128.009 Y150.242 E9.5557
G1 X127.319 Y150.229 E9.58566
G1 X127.147 Y150.304 E9.59381
G1 X126.869 Y150.616 E9.61196
G1 X126.517 Y150.954 E9.63315
G1 X126.032 Y151.338 E9.66003
G1 X125.617 Y151.606 E9.68146
G1 X125.292 Y151.783 E9.69752
G1 X124.715 Y152.034 E9.72482
G1 X124.231 Y152.189 E9.74691
G1 X123.839 Y152.281 E9.76437
G1 X123.203 Y152.369 E9.79225
G1 X122.666 Y152.385 E9.81557
G1 X122.237 Y152.36 E9.83421
G1 X121.555 Y152.251 E9.86417
G1 X121.375 Y152.301 E9.87232
G1 X121.059 Y152.57 E9.89032
G1 X120.652 Y152.863 E9.91208
G1 X120.234 Y153.113 E9.93323
G1 X119.793 Y153.329 E9.95453
G1 X119.329 Y153.508 E9.97615
G1 X118.847 Y153.648 E9.99792
G1 X118.224 Y153.763 E10.02544
G1 X117.708 Y153.804 E10.04787
G1 X117.303 Y153.803 E10.06547
G1 X116.765 Y153.756 E10.08892
G1 X116.215 Y153.652 E10.11322
G1 X115.566 Y153.451 E10.14269
G1 X115.382 Y153.475 E10.15074
G1 X114.92 Y153.76 E10.17432
G1 X114.48 Y153.981 E10.19571
G1 X114.143 Y154.119 E10.21151
G1 X113.539 Y154.309 E10.23899
G1 X113.063 Y154.408 E10.2601
G1 X112.69 Y154.458 E10.27645
G1 X112.179 Y154.485 E10.29864
G1 X111.663 Y154.465 E10.32108
G1 X111.019 Y154.374 E10.34928
G1 X110.498 Y154.241 E10.37262
G1 X110.093 Y154.099 E10.39127
G1 X109.469 Y153.806 E10.42121
G1 X109.283 Y153.804 E10.42926
G1 X108.785 Y154.023 E10.4529
G1 X108.44 Y154.143 E10.46873
G1 X107.965 Y154.27 E10.49009
G1 X107.353 Y154.372 E10.51703
G1 X106.857 Y154.406 E10.53861
G1 X106.479 Y154.403 E10.55498
G1 X105.97 Y154.359 E10.57717
G1 X105.461 Y154.267 E10.59962
G1 X104.837 Y154.087 E10.6278
G1 X104.34 Y153.883 E10.65115
G1 X103.958 Y153.686 E10.6698
G1 X103.38 Y153.309 E10.69975
G1 X103.194 Y153.282 E10.7079
G1 X102.797 Y153.398 E10.7259
G1 X102.306 Y153.501 E10.74766
G1 X101.822 Y153.56 E10.76882
G1 X101.332 Y153.577 E10.79011
G1 X100.834 Y153.552 E10.81173
G1 X100.337 Y153.484 E10.8335
G1 X99.722 Y153.335 E10.86101
G1 X99.234 Y153.163 E10.88345
G1 X98.864 Y152.998 E10.90106
G1 X98.392 Y152.736 E10.92445
G1 X97.846 Y152.349 E10.95354
G1 X97.422 Y151.971 E10.97817
G1 X97.243 Y151.916 E10.98632
G1 X96.705 Y151.989 E11.00988
G1 X96.212 Y152.012 E11.03128
G1 X95.848 Y152.001 E11.04708
G1 X95.231 Y151.93 E11.07407
G1 X94.745 Y151.826 E11.09565
G1 X94.383 Y151.719 E11.11202
G1 X93.906 Y151.537 E11.13421
G1 X93.442 Y151.309 E11.15665
G1 X92.892 Y150.963 E11.18484
G1 X92.469 Y150.63 E11.20819
G1 X92.157 Y150.336 E11.22684
G1 X91.705 Y149.814 E11.25679
G1 X91.537 Y149.736 E11.26484
G1 X90.992 Y149.734 E11.28847
G1 X90.621 Y149.702 E11.30466
G1 X90.14 Y149.625 E11.32581
G1 X89.542 Y149.47 E11.3526
G1 X89.075 Y149.299 E11.37418
G1 X88.732 Y149.143 E11.39056
G1 X88.285 Y148.896 E11.41274
G1 X87.857 Y148.605 E11.43518
G1 X87.36 Y148.187 E11.46338
G1 X86.989 Y147.798 E11.48672
G1 X86.72 Y147.463 E11.50537
G1 X86.346 Y146.883 E11.53532
G1 X86.187 Y146.783 E11.54347
G1 X85.776 Y146.728 E11.56147
G1 X85.295 Y146.624 E11.58282
G1 X84.704 Y146.436 E11.60974
G1 X84.359 Y146.292 E11.62599
G1 X83.919 Y146.069 E11.64738
G1 X83.392 Y145.734 E11.67449
G1 X82.992 Y145.419 E11.69658
G1 X82.704 Y145.152 E11.71364
G1 X82.27 Y144.668 E11.74189
G1 X81.955 Y144.231 E11.76523
G1 X81.731 Y143.853 E11.78431
G1 X81.446 Y143.236 E11.81383
G1 X81.303 Y143.114 E11.82199
G1 X80.904 Y143.002 E11.83999
G1 X80.441 Y142.832 E11.86138
G1 X79.995 Y142.624 E11.88275
G1 X79.567 Y142.378 E11.9042
G1 X79.158 Y142.093 E11.92581
G1 X78.773 Y141.772 E11.94759
G1 X78.329 Y141.319 E11.9751
G1 X78.007 Y140.915 E11.99754
G1 X77.781 Y140.578 E12.01514
G1 X77.52 Y140.107 E12.03854
G1 X77.261 Y139.489 E12.06762
G1 X77.102 Y138.944 E12.09225
G1 X76.979 Y138.802 E12.1004
G1 X76.483 Y138.578 E12.12403
G1 X76.163 Y138.403 E12.13985
G1 X75.751 Y138.135 E12.16122
G1 X75.265 Y137.748 E12.18816
G1 X74.908 Y137.402 E12.20974
G1 X74.658 Y137.12 E12.22611
G1 X74.351 Y136.712 E12.24829
G1 X74.078 Y136.272 E12.27074
G1 X73.794 Y135.687 E12.29897
G1 X73.646 Y135.288 E12.31747
G1 X73.503 Y134.762 E12.34113
G1 X73.397 Y134.085 E12.37087
G1 X73.295 Y133.93 E12.37893
G1 X72.836 Y133.64 E12.4025
G1 X72.445 Y133.34 E12.4239
G1 X72.173 Y133.099 E12.43969
G1 X71.738 Y132.638 E12.46718
G1 X71.439 Y132.255 E12.48828
G1 X71.231 Y131.941 E12.50463
G1 X70.983 Y131.494 E12.52682
G1 X70.774 Y131.021 E12.54927
G1 X70.575 Y130.403 E12.57746
G1 X70.465 Y129.876 E12.60079
G1 X70.415 Y129.449 E12.61946
G1 X70.405 Y128.76 E12.64939
G1 X70.324 Y128.59 E12.65754
G1 X70.005 Y128.326 E12.67555
G1 X69.652 Y127.983 E12.6969
G1 X69.251 Y127.511 E12.72378
G1 X68.969 Y127.106 E12.7452
G1 X68.781 Y126.787 E12.76127
G1 X68.505 Y126.209 E12.78908
G1 X68.337 Y125.741 E12.81068
G1 X68.234 Y125.362 E12.82773
G1 X68.122 Y124.721 E12.85598
G1 X68.087 Y124.184 E12.87933
