; HEADER_BLOCK_START
; generated by AnycubicSlicerNext 1.3.3.1 on 2025-03-08 at 14:30:04
; total layer number: 20
; filament_density: 1.24
; filament_diameter: 1.75
; max_z_height: 4.04
; exclude_object: 0
; model_instances: 1
; HEADER_BLOCK_END

; THUMBNAIL_BLOCK_START
; THUMBNAIL_BLOCK_END

; external perimeters extrusion width = 0.42mm
; perimeters extrusion width = 0.45mm
; infill extrusion width = 0.45mm
; solid infill extrusion width = 0.42mm
; top infill extrusion width = 0.42mm
; support material extrusion width = 0.40mm
; first layer extrusion width = 0.50mm

; EXECUTABLE_BLOCK_START
M201 X2000 Y2000 Z800 E2000
M203 X300 Y300 Z8 E100
M204 P2000 R2000 T2000
M205 X10.00 Y10.00 Z2.00 E5.00 ; sets the jerk limits, mm/sec
;TYPE:Custom
G90 ; use absolute coordinates
M83 ; extruder relative mode
M104 S220 ; set extruder temp
M140 S60 ; set bed temp
M190 S60 ; wait for bed temp
M109 S220 ; wait for extruder temp
G28                                        ; move X/Y/Z to min endstops
G1 Z0.28                                   ; lift nozzle a bit 
G92 E0 
G1 Y3 F1800                                    ; zero the extruded length 
G1 X60  E25 F500                       ; Extrude 25mm of filament in a 5cm line. 
G92 E0                                     ; zero the extruded length again 
G1 E-2 F500                                ; Retract a little 
G1 X70 F4000                              ; Quickly wipe away from the filament line
M117
G90
G21
M83 ; use relative distances for extrusion
; filament start gcode
M106 S0
;LAYER_CHANGE
;Z:0.24
;HEIGHT:0.24
; BEFORE_LAYER_CHANGE 0 @ 0.24mm
G92 E0
G1 E-2.5 F6000
; AFTER_LAYER_CHANGE 0 @ 0.24mm
M204 P500
; printing object "Cyclo4Cap.stl" id:2698411661568 copy 0
M204 T500
G1 X86.316 Y75.263 F18000
G1 Z.24
G1 E2.5 F6000
;TYPE:Brim
;WIDTH:0.5
;MM3_PER_MM:0.107639
G1 F3000
G1 X86.8 Y74.768 E.03004
G1 X87.316 Y74.307 E.03004
G1 X87.861 Y73.88 E.03004
G1 X88.433 Y73.491 E.03004
G1 X89.029 Y73.14 E.03004
G1 X89.648 Y72.83 E.03004
G1 X90.286 Y72.562 E.03003
G1 X90.95 Y72.334 E.03049
G1 X91.608 Y72.155 E.0296
G1 X92.287 Y72.019 E.03004
G1 X92.973 Y71.928 E.03004
G1 X93.664 Y71.882 E.03008
G1 X94.161 Y71.878 E.02156
G1 X94.847 Y71.912 E.02983
G1 X95.39 Y71.97 E.02368
G1 X95.878 Y72.048 E.02148
G1 X96.552 Y72.195 E.0299
G1 X97.217 Y72.387 E.03007
G1 X97.731 Y72.568 E.02364
G1 X98.37 Y72.838 E.03012
G1 X98.809 Y73.055 E.02127
G1 X99.414 Y73.395 E.03012
G1 X99.872 Y73.691 E.02369
G1 X100.271 Y73.978 E.0213
G1 X100.81 Y74.414 E.03012
G1 X101.213 Y74.781 E.02364
G1 X101.696 Y75.277 E.03007
G1 X102.145 Y75.804 E.03006
G1 X102.503 Y76.282 E.02593
G1 X102.626 Y76.365 E.00641
G1 X102.725 Y76.368 E.00432
G1 X104.281 Y76.068 E.06877
G1 X105.553 Y75.878 E.05585
G1 X106.322 Y75.787 E.03361
G1 X108.138 Y75.64 E.07907
G1 X109.985 Y75.59 E.08023
G1 X111.805 Y75.637 E.07899
G1 X113.647 Y75.783 E.08023
G1 X115.451 Y76.024 E.07899
G1 X117.276 Y76.367 E.08063
G1 X117.422 Y76.346 E.00641
G1 X117.497 Y76.282 E.00428
G1 X117.85 Y75.81 E.02556
G1 X118.198 Y75.395 E.02353
G1 X118.535 Y75.031 E.02151
G1 X118.923 Y74.652 E.02355
G1 X119.295 Y74.324 E.02152
G1 X119.722 Y73.983 E.02373
G1 X120.12 Y73.696 E.0213
G1 X120.706 Y73.324 E.03012
G1 X121.182 Y73.059 E.02368
G1 X121.629 Y72.839 E.0216
G1 X122.124 Y72.625 E.02341
G1 X122.776 Y72.389 E.03008
G1 X123.441 Y72.196 E.03008
G1 X123.919 Y72.087 E.0213
G1 X124.468 Y71.99 E.02419
G1 X124.943 Y71.931 E.02079
G1 X125.847 Y71.878 E.03928
G1 X126.675 Y71.899 E.03594
G1 X127.362 Y71.966 E.02996
G1 X128.241 Y72.121 E.03878
G1 X129.052 Y72.335 E.03639
G1 X129.705 Y72.559 E.02996
G1 X130.525 Y72.912 E.03878
G1 X131.264 Y73.306 E.03635
G1 X132.014 Y73.79 E.03875
G1 X132.678 Y74.301 E.03635
G1 X133.338 Y74.903 E.03878
G1 X133.811 Y75.405 E.02996
G1 X134.339 Y76.056 E.03639
G1 X134.843 Y76.794 E.03878
G1 X135.188 Y77.392 E.02996
G1 X135.552 Y78.149 E.03647
G1 X135.756 Y78.654 E.02366
G1 X135.916 Y79.119 E.02133
G1 X136.069 Y79.644 E.02374
G1 X136.182 Y80.121 E.0213
G1 X136.304 Y80.804 E.03012
G1 X136.368 Y81.346 E.02369
G1 X136.401 Y81.837 E.02133
G1 X136.41 Y82.382 E.02368
G1 X136.381 Y83.071 E.02993
G1 X136.332 Y83.564 E.02149
G1 X136.25 Y84.104 E.02373
G1 X136.153 Y84.586 E.02133
G1 X136.02 Y85.11 E.02347
G1 X135.874 Y85.585 E.02158
G1 X135.689 Y86.093 E.02345
G1 X135.452 Y86.649 E.02622
G1 X135.442 Y86.796 E.00641
G1 X135.49 Y86.886 E.00442
G1 X136.057 Y87.526 E.03712
G1 X136.745 Y88.348 E.04652
G1 X137.852 Y89.793 E.07903
G1 X138.687 Y90.996 E.06357
G1 X139.377 Y92.082 E.05587
G1 X139.773 Y92.748 E.03362
G1 X140.543 Y94.151 E.06948
G1 X141.117 Y95.31 E.05612
G1 X141.434 Y96 E.03298
G1 X142.059 Y97.497 E.07039
G1 X142.504 Y98.704 E.05586
G1 X142.763 Y99.482 E.03559
G1 X142.853 Y99.599 E.00641
G1 X142.949 Y99.633 E.00443
G1 X143.533 Y99.703 E.02554
G1 X144.221 Y99.829 E.03033
G1 X144.886 Y99.998 E.02977
G1 X145.544 Y100.212 E.03007
G1 X146.061 Y100.415 E.02409
G1 X146.68 Y100.701 E.02962
G1 X147.297 Y101.038 E.03049
G1 X147.872 Y101.404 E.02959
G1 X148.43 Y101.813 E.03004
G1 X148.961 Y102.259 E.03009
G1 X149.317 Y102.595 E.02126
G1 X149.794 Y103.098 E.03009
G1 X150.235 Y103.631 E.03004
G1 X150.64 Y104.193 E.03004
G1 X151.007 Y104.779 E.03004
G1 X151.334 Y105.39 E.03007
G1 X151.563 Y105.885 E.02368
G1 X151.746 Y106.341 E.0213
G1 X151.968 Y106.998 E.03012
G1 X152.112 Y107.524 E.02369
G1 X152.217 Y108.004 E.0213
G1 X152.327 Y108.689 E.03012
G1 X152.382 Y109.231 E.02364
G1 X152.41 Y109.924 E.03012
G1 X152.402 Y110.414 E.02126
G1 X152.351 Y111.105 E.03008
G1 X152.255 Y111.791 E.03008
G1 X152.147 Y112.326 E.02369
G1 X152.026 Y112.801 E.0213
G1 X151.818 Y113.462 E.03008
G1 X151.566 Y114.108 E.03008
G1 X151.338 Y114.602 E.02364
G1 X151.011 Y115.213 E.03007
G1 X150.645 Y115.8 E.03004
G1 X150.24 Y116.362 E.03004
G1 X149.799 Y116.895 E.03003
G1 X149.328 Y117.394 E.02978
G1 X148.816 Y117.868 E.0303
G1 X148.277 Y118.305 E.03009
G1 X147.879 Y118.591 E.0213
G1 X147.421 Y118.887 E.02369
G1 X146.818 Y119.228 E.03007
G1 X146.194 Y119.528 E.03004
G1 X145.552 Y119.786 E.03004
G1 X144.894 Y120 E.03004
G1 X144.223 Y120.17 E.03004
G1 X143.542 Y120.295 E.03006
G1 X142.949 Y120.367 E.02591
G1 X142.817 Y120.431 E.00641
G1 X142.763 Y120.518 E.00442
G1 X142.505 Y121.293 E.03544
G1 X142.06 Y122.5 E.05585
G1 X141.442 Y123.981 E.06966
G1 X140.718 Y125.508 E.07336
G1 X140.4 Y126.122 E.03
G1 X139.775 Y127.249 E.05592
G1 X139.379 Y127.915 E.03365
G1 X138.689 Y129.001 E.05586
G1 X137.771 Y130.319 E.06972
G1 X137.306 Y130.939 E.03364
G1 X136.504 Y131.946 E.05586
G1 X135.489 Y133.116 E.06725
G1 X135.434 Y133.253 E.00641
G1 X135.452 Y133.351 E.00432
G1 X135.684 Y133.893 E.02559
G1 X135.871 Y134.406 E.02371
G1 X136.016 Y134.875 E.0213
G1 X136.183 Y135.548 E.03009
G1 X136.304 Y136.23 E.03007
G1 X136.368 Y136.772 E.02369
G1 X136.401 Y137.262 E.02134
G1 X136.41 Y137.809 E.02373
G1 X136.394 Y138.3 E.02133
G1 X136.349 Y138.844 E.02369
G1 X136.251 Y139.525 E.02986
G1 X136.153 Y140.012 E.02155
G1 X136.019 Y140.542 E.02374
G1 X135.874 Y141.01 E.0213
G1 X135.633 Y141.661 E.03012
G1 X135.413 Y142.159 E.02361
G1 X135.024 Y142.902 E.03642
G1 X134.547 Y143.656 E.03875
G1 X134.041 Y144.324 E.03635
G1 X133.444 Y144.99 E.03883
G1 X133.094 Y145.332 E.02125
G1 X132.686 Y145.692 E.02365
G1 X132.021 Y146.205 E.03643
G1 X131.272 Y146.69 E.03875
G1 X130.533 Y147.084 E.03635
G1 X129.712 Y147.439 E.03883
G1 X129.251 Y147.603 E.02125
G1 X128.729 Y147.759 E.02365
G1 X127.911 Y147.946 E.03643
G1 X127.025 Y148.072 E.03883
G1 X126.537 Y148.109 E.02125
G1 X125.992 Y148.123 E.02365
G1 X125.154 Y148.088 E.03643
G1 X124.268 Y147.978 E.03874
G1 X123.441 Y147.804 E.0367
G1 X122.922 Y147.658 E.02338
G1 X122.458 Y147.502 E.02125
G1 X121.631 Y147.162 E.03882
G1 X120.882 Y146.778 E.03653
G1 X120.126 Y146.308 E.03865
G1 X119.729 Y146.022 E.02125
G1 X119.303 Y145.683 E.02365
G1 X118.682 Y145.117 E.03643
G1 X118.075 Y144.464 E.03872
G1 X117.495 Y143.715 E.04111
G1 X117.371 Y143.635 E.00641
G1 X117.273 Y143.633 E.00426
G1 X116.51 Y143.789 E.03378
G1 X115.242 Y144.009 E.05586
G1 X113.649 Y144.216 E.06975
G1 X112.878 Y144.29 E.03362
G1 X111.594 Y144.374 E.05586
G1 X109.989 Y144.41 E.06967
G1 X108.14 Y144.36 E.08029
G1 X106.326 Y144.214 E.07902
G1 X105.557 Y144.122 E.0336
G1 X104.284 Y143.932 E.05586
G1 X102.725 Y143.632 E.06893
G1 X102.579 Y143.654 E.00641
G1 X102.503 Y143.718 E.00432
G1 X102.15 Y144.19 E.02558
G1 X101.799 Y144.608 E.02371
G1 X101.465 Y144.969 E.02133
G1 X101.074 Y145.351 E.02373
G1 X100.706 Y145.675 E.0213
G1 X100.161 Y146.104 E.03012
G1 X99.712 Y146.416 E.02369
G1 X99.295 Y146.676 E.02133
G1 X98.818 Y146.941 E.02373
G1 X98.377 Y147.158 E.02134
G1 X97.875 Y147.375 E.02373
G1 X97.415 Y147.547 E.0213
G1 X96.753 Y147.753 E.03012
G1 X96.223 Y147.883 E.02369
G1 X95.736 Y147.977 E.02152
G1 X95.201 Y148.054 E.02347
G1 X94.363 Y148.117 E.03647
G1 X93.673 Y148.118 E.02996
G1 X92.781 Y148.051 E.03881
G1 X92.098 Y147.948 E.03
G1 X91.423 Y147.799 E.03
G1 X90.619 Y147.559 E.03644
G1 X89.974 Y147.313 E.02996
G1 X89.165 Y146.932 E.03878
G1 X88.44 Y146.514 E.03635
G1 X87.707 Y146.005 E.03875
G1 X87.061 Y145.473 E.03634
G1 X86.421 Y144.85 E.03874
G1 X85.872 Y144.217 E.03635
G1 X85.345 Y143.497 E.03874
G1 X84.908 Y142.783 E.03635
G1 X84.506 Y141.984 E.03883
G1 X84.316 Y141.533 E.02125
G1 X84.129 Y141.019 E.02374
G1 X83.984 Y140.55 E.0213
G1 X83.817 Y139.878 E.03009
G1 X83.697 Y139.206 E.02964
G1 X83.632 Y138.654 E.02412
G1 X83.599 Y138.163 E.02134
G1 X83.59 Y137.618 E.02368
G1 X83.62 Y136.925 E.03012
G1 X83.668 Y136.436 E.0213
G1 X83.75 Y135.896 E.02373
G1 X83.847 Y135.414 E.02133
G1 X83.981 Y134.884 E.02373
G1 X84.126 Y134.414 E.02133
G1 X84.311 Y133.905 E.02352
G1 X84.548 Y133.351 E.02614
G1 X84.558 Y133.204 E.00641
G1 X84.509 Y133.114 E.00443
G1 X84.018 Y132.561 E.03213
G1 X83.192 Y131.574 E.05585
G1 X82.307 Y130.425 E.06298
G1 X81.764 Y129.668 E.04041
G1 X81.049 Y128.599 E.05583
G1 X80.205 Y127.214 E.07041
G1 X79.832 Y126.553 E.03296
G1 X79.234 Y125.413 E.05586
G1 X78.549 Y123.962 E.06967
G1 X77.844 Y122.252 E.08029
G1 X77.236 Y120.515 E.07988
G1 X77.144 Y120.4 E.00641
G1 X77.051 Y120.367 E.00428
G1 X76.466 Y120.297 E.02555
G1 X75.785 Y120.172 E.03006
G1 X75.114 Y120.002 E.03004
G1 X74.455 Y119.788 E.03007
G1 X73.948 Y119.589 E.02364
G1 X73.32 Y119.299 E.03008
G1 X72.712 Y118.967 E.03004
G1 X72.128 Y118.596 E.03004
G1 X71.57 Y118.187 E.03004
G1 X71.039 Y117.741 E.03008
G1 X70.683 Y117.405 E.02127
G1 X70.206 Y116.902 E.03009
G1 X69.765 Y116.369 E.03004
G1 X69.36 Y115.807 E.03004
G1 X68.993 Y115.22 E.03004
G1 X68.666 Y114.61 E.03007
G1 X68.437 Y114.115 E.02368
G1 X68.254 Y113.659 E.0213
G1 X68.032 Y113.002 E.03012
G1 X67.888 Y112.476 E.02369
G1 X67.783 Y111.996 E.0213
G1 X67.673 Y111.311 E.03012
G1 X67.618 Y110.768 E.02369
G1 X67.593 Y110.278 E.02133
G1 X67.593 Y109.732 E.02369
G1 X67.634 Y109.039 E.03012
G1 X67.691 Y108.552 E.0213
G1 X67.781 Y108.013 E.02373
G1 X67.886 Y107.533 E.02133
G1 X68.03 Y107.006 E.02369
G1 X68.251 Y106.349 E.03012
G1 X68.434 Y105.894 E.02127
G1 X68.728 Y105.267 E.03008
G1 X69.058 Y104.67 E.0296
G1 X69.438 Y104.079 E.03048
G1 X69.85 Y103.523 E.03004
G1 X70.292 Y103.004 E.02961
G1 X70.784 Y102.497 E.03066
G1 X71.295 Y102.037 E.02986
G1 X71.839 Y101.609 E.03004
G1 X72.41 Y101.218 E.03004
G1 X73.011 Y100.863 E.03031
G1 X73.627 Y100.553 E.02996
G1 X74.261 Y100.285 E.02986
G1 X74.92 Y100.056 E.03031
G1 X75.582 Y99.875 E.02977
G1 X76.259 Y99.736 E.03001
G1 X77.053 Y99.633 E.03474
G1 X77.185 Y99.567 E.00641
G1 X77.236 Y99.485 E.00419
G1 X77.844 Y97.751 E.07977
G1 X78.548 Y96.042 E.08024
G1 X79.329 Y94.399 E.07898
G1 X80.212 Y92.774 E.08025
G1 X81.164 Y91.224 E.07897
G1 X82.205 Y89.714 E.07962
G1 X83.19 Y88.429 E.07032
G1 X84.016 Y87.441 E.05587
G1 X84.509 Y86.886 E.03225
G1 X84.565 Y86.749 E.00641
G1 X84.548 Y86.648 E.00444
G1 X84.316 Y86.107 E.02555
G1 X84.083 Y85.454 E.0301
G1 X83.931 Y84.931 E.02364
G1 X83.778 Y84.256 E.03007
G1 X83.669 Y83.572 E.03004
G1 X83.607 Y82.882 E.03009
G1 X83.59 Y82.393 E.02126
G1 X83.606 Y81.699 E.03012
G1 X83.651 Y81.156 E.02364
G1 X83.749 Y80.475 E.02986
G1 X83.847 Y79.989 E.02151
G1 X84.022 Y79.318 E.03013
G1 X84.191 Y78.8 E.02364
G1 X84.445 Y78.155 E.03007
G1 X84.74 Y77.53 E.03004
G1 X85.077 Y76.925 E.03004
G1 X85.453 Y76.344 E.03004
G1 X85.867 Y75.789 E.03004
G1 X86.29 Y75.294 E.0283
G1 X86.632 Y75.585 F18000
G1 F3000
G1 X86.645 Y75.569 E.00089
G1 X87.107 Y75.096 E.02875
G1 X87.6 Y74.654 E.02874
G1 X88.122 Y74.245 E.02874
G1 X88.669 Y73.872 E.02874
G1 X89.24 Y73.537 E.02875
G1 X89.832 Y73.24 E.02875
G1 X90.442 Y72.983 E.02873
G1 X91.078 Y72.764 E.02919
G1 X91.707 Y72.593 E.02831
G1 X92.356 Y72.462 E.02874
G1 X93.013 Y72.375 E.02875
G1 X93.677 Y72.331 E.02891
G1 X94.156 Y72.327 E.02078
G1 X94.819 Y72.36 E.02885
G1 X95.788 Y72.488 E.04242
G1 X96.446 Y72.631 E.02922
G1 X97.076 Y72.813 E.02848
G1 X97.565 Y72.985 E.02248
G1 X98.18 Y73.245 E.02899
G1 X98.604 Y73.453 E.0205
G1 X99.188 Y73.783 E.02913
G1 X99.993 Y74.33 E.04224
G1 X100.515 Y74.752 E.02913
G1 X100.904 Y75.106 E.02283
G1 X101.367 Y75.583 E.02887
G1 X101.792 Y76.081 E.02843
G1 X102.138 Y76.542 E.02501
G1 X102.36 Y76.726 E.01252
G1 X102.626 Y76.812 E.01213
G1 X102.821 Y76.806 E.00847
G1 X104.359 Y76.51 E.06801
G1 X105.611 Y76.323 E.05494
G1 X106.364 Y76.233 E.03293
G1 X108.166 Y76.088 E.07845
G1 X109.982 Y76.038 E.07888
G1 X111.785 Y76.085 E.07827
G1 X113.596 Y76.229 E.07888
G1 X115.383 Y76.468 E.07827
G1 X117.182 Y76.806 E.07946
G1 X117.47 Y76.792 E.01253
G1 X117.728 Y76.674 E.01228
G1 X117.779 Y76.631 E.00291
G1 X118.531 Y75.696 E.05208
G1 X119.234 Y74.976 E.04367
G1 X119.996 Y74.339 E.04314
G1 X120.375 Y74.066 E.02028
G1 X120.932 Y73.712 E.02865
G1 X121.82 Y73.245 E.04355
G1 X122.293 Y73.041 E.02238
G1 X122.91 Y72.817 E.02849
G1 X123.55 Y72.632 E.02891
G1 X124.005 Y72.527 E.02027
G1 X124.976 Y72.379 E.04266
G1 X125.849 Y72.327 E.03793
G1 X126.642 Y72.347 E.03445
G1 X127.306 Y72.412 E.02894
G1 X128.14 Y72.559 E.03677
G1 X128.917 Y72.763 E.03489
G1 X129.548 Y72.979 E.02894
G1 X130.326 Y73.314 E.03676
G1 X131.032 Y73.69 E.03473
G1 X131.751 Y74.154 E.03713
G1 X132.385 Y74.642 E.03473
G1 X133.019 Y75.219 E.03725
G1 X133.47 Y75.697 E.02851
G1 X133.983 Y76.329 E.03532
G1 X134.46 Y77.029 E.03676
G1 X134.793 Y77.606 E.02894
G1 X135.14 Y78.326 E.03469
G1 X135.487 Y79.248 E.04277
G1 X135.744 Y80.216 E.04347
G1 X135.859 Y80.866 E.02865
G1 X135.921 Y81.384 E.02265
G1 X135.961 Y82.381 E.04329
G1 X135.932 Y83.047 E.02895
G1 X135.807 Y84.033 E.04317
G1 X135.59 Y84.983 E.04227
G1 X135.45 Y85.44 E.02075
G1 X135.271 Y85.932 E.02273
G1 X135.044 Y86.462 E.02503
G1 X134.996 Y86.746 E.01251
G1 X135.056 Y87.022 E.01224
G1 X135.162 Y87.191 E.00867
G1 X135.719 Y87.82 E.03644
G1 X136.393 Y88.626 E.04562
G1 X137.492 Y90.06 E.07841
G1 X138.315 Y91.247 E.06269
G1 X138.994 Y92.315 E.05498
G1 X139.383 Y92.968 E.03298
G1 X140.147 Y94.361 E.06896
G1 X140.711 Y95.501 E.05521
G1 X141.022 Y96.178 E.03234
G1 X141.642 Y97.663 E.06986
G1 X142.08 Y98.851 E.05493
G1 X142.334 Y99.613 E.03489
G1 X142.415 Y99.765 E.00747
G1 X142.487 Y99.858 E.00509
G1 X142.718 Y100.027 E.01244
G1 X142.783 Y100.05 E.00299
G1 X143.465 Y100.147 E.0299
G1 X144.129 Y100.269 E.02933
G1 X144.765 Y100.43 E.02848
G1 X145.397 Y100.636 E.02882
G1 X145.888 Y100.829 E.02293
G1 X146.482 Y101.104 E.02842
G1 X147.065 Y101.422 E.02881
G1 X147.622 Y101.777 E.02869
G1 X148.156 Y102.169 E.02875
G1 X148.659 Y102.592 E.02852
G1 X149.003 Y102.915 E.02049
G1 X149.461 Y103.399 E.02891
G1 X149.883 Y103.91 E.02874
G1 X150.27 Y104.447 E.02875
