; HEADER_BLOCK_START
; generated by AnycubicSlicerNext 1.3.3.1 on 2025-03-08 at 14:29:18
; total layer number: 35
; filament_density: 1.24
; filament_diameter: 1.75
; max_z_height: 7.04
; exclude_object: 0
; model_instances: 1
; HEADER_BLOCK_END

; THUMBNAIL_BLOCK_START
; THUMBNAIL_BLOCK_END

; external perimeters extrusion width = 0.42mm
; perimeters extrusion width = 0.45mm
; infill extrusion width = 0.45mm
; solid infill extrusion width = 0.42mm
; top infill extrusion width = 0.42mm
; support material extrusion width = 0.40mm
; first layer extrusion width = 0.50mm

; EXECUTABLE_BLOCK_START
M201 X2000 Y2000 Z800 E2000
M203 X300 Y300 Z8 E100
M204 P2000 R2000 T2000
M205 X10.00 Y10.00 Z2.00 E5.00 ; sets the jerk limits, mm/sec
;TYPE:Custom
G90 ; use absolute coordinates
M83 ; extruder relative mode
M104 S220 ; set extruder temp
M140 S60 ; set bed temp
M190 S60 ; wait for bed temp
M109 S220 ; wait for extruder temp
G28                                        ; move X/Y/Z to min endstops
G1 Z0.28                                   ; lift nozzle a bit 
G92 E0 
G1 Y3 F1800                                    ; zero the extruded length 
G1 X60  E25 F500                       ; Extrude 25mm of filament in a 5cm line. 
G92 E0                                     ; zero the extruded length again 
G1 E-2 F500                                ; Retract a little 
G1 X70 F4000                              ; Quickly wipe away from the filament line
M117
G90
G21
M83 ; use relative distances for extrusion
; filament start gcode
M106 S0
;LAYER_CHANGE
;Z:0.24
;HEIGHT:0.24
; BEFORE_LAYER_CHANGE 0 @ 0.24mm
G92 E0
G1 E-2.5 F6000
; AFTER_LAYER_CHANGE 0 @ 0.24mm
M204 P500
; printing object "Cyclo4Disk.stl" id:2336360017408 copy 0
M204 T500
G1 X89.177 Y90.101 F18000
G1 Z.24
G1 E2.5 F6000
;TYPE:Brim
;WIDTH:0.5
;MM3_PER_MM:0.107639
G1 F3000
G1 X89.776 Y89.556 E.03515
G1 X90.371 Y89.098 E.03257
G1 X90.784 Y88.821 E.0216
G1 X91.196 Y88.574 E.02086
G1 X92.004 Y88.165 E.03929
G1 X92.785 Y87.85 E.03656
G1 X92.882 Y87.776 E.00531
G1 X93.445 Y87.011 E.04122
G1 X94.055 Y86.328 E.03972
G1 X94.403 Y85.99 E.02106
G1 X94.779 Y85.661 E.02173
G1 X95.378 Y85.202 E.03272
G1 X96.06 Y84.764 E.03522
G1 X96.523 Y84.51 E.02288
G1 X96.997 Y84.284 E.02284
G1 X97.706 Y84.002 E.0331
G1 X98.456 Y83.773 E.03404
G1 X99.146 Y83.619 E.03068
G1 X100.04 Y83.496 E.03917
G1 X100.867 Y83.454 E.03596
G1 X100.987 Y83.412 E.0055
G1 X101.425 Y83.096 E.02346
G1 X101.941 Y82.766 E.02659
G1 X102.575 Y82.42 E.03134
G1 X103.014 Y82.214 E.02105
G1 X103.702 Y81.944 E.03211
G1 X104.196 Y81.786 E.02247
G1 X104.703 Y81.654 E.02278
G1 X105.221 Y81.55 E.02294
G1 X105.744 Y81.475 E.02294
G1 X106.268 Y81.429 E.02282
G1 X106.786 Y81.412 E.0225
G1 X107.572 Y81.439 E.03412
G1 X108.058 Y81.489 E.0212
G1 X108.728 Y81.599 E.02949
G1 X109.385 Y81.753 E.02931
G1 X109.936 Y81.918 E.02497
G1 X110.064 Y81.919 E.00553
G1 X110.766 Y81.713 E.03178
G1 X111.648 Y81.531 E.03908
G1 X112.619 Y81.427 E.0424
G1 X113.406 Y81.415 E.03415
G1 X114.17 Y81.465 E.03323
G1 X114.692 Y81.535 E.02286
G1 X115.209 Y81.635 E.02287
G1 X115.991 Y81.842 E.03512
G1 X116.697 Y82.093 E.03251
G1 X117.153 Y82.289 E.02155
G1 X117.583 Y82.5 E.02079
G1 X118.361 Y82.953 E.03909
G1 X119.017 Y83.413 E.03479
G1 X119.133 Y83.454 E.00531
G1 X120.124 Y83.512 E.04308
G1 X120.773 Y83.604 E.02848
G1 X121.242 Y83.699 E.02076
G1 X121.991 Y83.901 E.03366
G1 X122.475 Y84.068 E.02226
G1 X122.96 Y84.264 E.02269
G1 X123.437 Y84.489 E.02289
G1 X123.9 Y84.74 E.02288
G1 X124.552 Y85.153 E.03347
G1 X124.968 Y85.458 E.02241
G1 X125.569 Y85.963 E.03408
G1 X125.92 Y86.301 E.02116
G1 X126.379 Y86.8 E.0294
G1 X126.8 Y87.324 E.0292
G1 X127.117 Y87.772 E.02384
G1 X127.219 Y87.852 E.0056
G1 X127.759 Y88.061 E.02514
G1 X128.32 Y88.317 E.02676
G1 X128.958 Y88.662 E.03147
G1 X129.37 Y88.92 E.02111
G1 X129.973 Y89.353 E.0322
G1 X130.373 Y89.682 E.02248
G1 X130.759 Y90.037 E.02281
G1 X131.128 Y90.416 E.02293
G1 X131.475 Y90.814 E.02294
G1 X131.798 Y91.229 E.0228
G1 X132.092 Y91.654 E.02246
G1 X132.495 Y92.327 E.03405
G1 X132.716 Y92.761 E.02115
G1 X132.987 Y93.381 E.02934
G1 X133.214 Y94.013 E.02918
G1 X133.365 Y94.527 E.02325
G1 X133.435 Y94.635 E.0056
G1 X133.888 Y95.018 E.02571
G1 X134.335 Y95.443 E.02681
G1 X134.826 Y95.978 E.03152
G1 X135.132 Y96.357 E.02113
G1 X135.561 Y96.963 E.03222
G1 X135.831 Y97.403 E.02241
G1 X136.207 Y98.125 E.03533
G1 X136.417 Y98.608 E.02287
G1 X136.599 Y99.103 E.02289
G1 X136.753 Y99.602 E.02267
G1 X136.878 Y100.1 E.02228
G1 X137.008 Y100.816 E.03161
G1 X137.096 Y101.753 E.04086
G1 X137.104 Y102.423 E.02905
G1 X137.08 Y102.944 E.02267
G1 X137.111 Y103.068 E.00552
G1 X137.508 Y103.747 E.03416
G1 X137.899 Y104.565 E.03933
G1 X138.075 Y105.011 E.02085
G1 X138.233 Y105.482 E.02156
G1 X138.434 Y106.249 E.0344
G1 X138.568 Y107.004 E.03328
G1 X138.624 Y107.526 E.0228
G1 X138.654 Y108.34 E.03536
G1 X138.619 Y109.098 E.03293
G1 X138.521 Y109.872 E.03389
G1 X138.379 Y110.56 E.03047
G1 X138.128 Y111.417 E.03876
G1 X137.86 Y112.114 E.03242
G1 X137.85 Y112.24 E.0055
G1 X137.977 Y112.846 E.02688
G1 X138.068 Y113.46 E.02694
G1 X138.125 Y114.186 E.03159
G1 X138.132 Y114.674 E.02117
G1 X138.096 Y115.416 E.03227
G1 X138.036 Y115.931 E.02251
G1 X137.947 Y116.45 E.02282
G1 X137.829 Y116.965 E.02294
G1 X137.683 Y117.472 E.02293
G1 X137.51 Y117.968 E.02276
G1 X137.313 Y118.446 E.02245
G1 X136.966 Y119.147 E.03397
G1 X136.723 Y119.568 E.02107
G1 X136.351 Y120.13 E.02926
G1 X136.073 Y120.5 E.02011
G1 X135.622 Y121.038 E.03048
G1 X135.571 Y121.152 E.00543
G1 X135.463 Y121.96 E.03537
G1 X135.267 Y122.846 E.03939
G1 X135.042 Y123.564 E.03267
G1 X134.766 Y124.251 E.03216
G1 X134.407 Y124.972 E.03497
G1 X134.14 Y125.426 E.02282
G1 X133.847 Y125.865 E.0229
G1 X133.379 Y126.474 E.03336
G1 X132.843 Y127.063 E.03457
G1 X132.482 Y127.41 E.02175
G1 X132.115 Y127.728 E.02108
G1 X131.44 Y128.236 E.03669
G1 X130.605 Y128.754 E.04264
G1 X130.522 Y128.844 E.0053
G1 X130.151 Y129.585 E.03597
G1 X129.675 Y130.36 E.0395
G1 X129.394 Y130.752 E.02092
G1 X129.084 Y131.142 E.02163
G1 X128.548 Y131.728 E.03446
G1 X127.986 Y132.25 E.03331
G1 X127.576 Y132.582 E.02288
G1 X127.149 Y132.89 E.02285
G1 X126.464 Y133.315 E.03503
G1 X125.761 Y133.672 E.03421
G1 X124.924 Y134.011 E.03919
G1 X124.063 Y134.269 E.03901
G1 X123.359 Y134.42 E.03127
G1 X123.248 Y134.48 E.0055
G1 X122.781 Y134.946 E.02863
G1 X122.465 Y135.229 E.01841
G1 X121.944 Y135.647 E.02897
G1 X121.551 Y135.925 E.02093
G1 X120.887 Y136.333 E.03383
G1 X120.431 Y136.573 E.02236
G1 X119.954 Y136.791 E.02274
G1 X119.465 Y136.983 E.02285
G1 X118.727 Y137.216 E.03358
G1 X118.172 Y137.347 E.02474
G1 X117.509 Y137.462 E.02922
G1 X117.007 Y137.517 E.02191
G1 X116.522 Y137.544 E.02109
G1 X115.801 Y137.54 E.03133
G1 X115.19 Y137.495 E.02657
G1 X114.666 Y137.427 E.02295
G1 X114.539 Y137.448 E.00558
G1 X113.935 Y137.742 E.02916
G1 X113.355 Y137.979 E.02718
G1 X112.662 Y138.209 E.03169
G1 X111.961 Y138.384 E.03137
G1 X111.177 Y138.515 E.03452
G1 X110.659 Y138.565 E.02259
G1 X109.837 Y138.586 E.03567
G1 X109.151 Y138.55 E.02982
G1 X108.631 Y138.489 E.02273
G1 X108.125 Y138.401 E.0223
G1 X107.635 Y138.29 E.02179
G1 X107.169 Y138.158 E.02102
G1 X106.309 Y137.846 E.03972
G1 X105.461 Y137.447 E.04071
G1 X105.34 Y137.427 E.0053
G1 X104.475 Y137.524 E.03778
G1 X103.561 Y137.546 E.03968
G1 X103.078 Y137.523 E.02099
G1 X102.581 Y137.474 E.02168
G1 X101.797 Y137.342 E.03454
G1 X101.132 Y137.175 E.02973
G1 X100.583 Y137 E.02504
G1 X100.091 Y136.809 E.02291
G1 X99.398 Y136.486 E.03318
G1 X98.712 Y136.095 E.03426
G1 X97.918 Y135.541 E.04207
G1 X97.236 Y134.96 E.03887
G1 X96.754 Y134.481 E.02951
G1 X96.643 Y134.42 E.0055
G1 X95.96 Y134.274 E.03032
G1 X95.355 Y134.104 E.02729
G1 X94.664 Y133.856 E.03183
G1 X94.213 Y133.661 E.02133
G1 X93.619 Y133.36 E.02894
G1 X93.13 Y133.072 E.02463
G1 X92.692 Y132.779 E.02287
G1 X92.27 Y132.461 E.02295
G1 X91.867 Y132.12 E.02291
G1 X91.485 Y131.76 E.02278
G1 X91.13 Y131.386 E.0224
G1 X90.658 Y130.818 E.03204
G1 X90.373 Y130.428 E.02096
G1 X89.986 Y129.823 E.0312
G1 X89.693 Y129.29 E.02639
G1 X89.481 Y128.847 E.02132
G1 X89.396 Y128.753 E.0055
G1 X88.63 Y128.283 E.03899
G1 X88.065 Y127.872 E.03034
G1 X87.385 Y127.285 E.03901
G1 X86.836 Y126.721 E.03418
G1 X86.349 Y126.132 E.03315
G1 X86.043 Y125.704 E.02285
G1 X85.76 Y125.26 E.02287
G1 X85.373 Y124.547 E.03519
G1 X85.07 Y123.858 E.03266
G1 X84.899 Y123.389 E.02167
G1 X84.757 Y122.928 E.02097
G1 X84.552 Y122.04 E.03953
G1 X84.43 Y121.152 E.03891
G1 X84.38 Y121.039 E.00539
G1 X83.914 Y120.483 E.03148
G1 X83.576 Y120.023 E.02477
G1 X83.299 Y119.602 E.02188
G1 X83.054 Y119.182 E.0211
G1 X82.824 Y118.738 E.02172
G1 X82.613 Y118.271 E.02225
G1 X82.424 Y117.786 E.0226
G1 X82.261 Y117.285 E.02286
G1 X82.125 Y116.775 E.02288
G1 X81.978 Y116.017 E.03353
G1 X81.914 Y115.504 E.02247
G1 X81.87 Y114.716 E.03424
G1 X81.875 Y114.225 E.02131
G1 X81.924 Y113.542 E.02971
G1 X82.02 Y112.868 E.02955
G1 X82.151 Y112.241 E.02783
G1 X82.141 Y112.114 E.00553
G1 X81.9 Y111.493 E.02891
G1 X81.765 Y111.083 E.01873
G1 X81.582 Y110.388 E.03121
G1 X81.487 Y109.914 E.02096
G1 X81.39 Y109.183 E.03201
G1 X81.355 Y108.668 E.02241
G1 X81.348 Y108.144 E.02275
G1 X81.37 Y107.617 E.02292
G1 X81.422 Y107.09 E.02295
G1 X81.502 Y106.57 E.02285
G1 X81.61 Y106.063 E.02252
G1 X81.825 Y105.304 E.03423
G1 X81.99 Y104.842 E.02129
G1 X82.259 Y104.214 E.02967
G1 X82.568 Y103.609 E.0295
G1 X82.89 Y103.069 E.02727
G1 X82.921 Y102.946 E.00553
G1 X82.895 Y102.267 E.0295
G1 X82.914 Y101.584 E.02967
G1 X82.981 Y100.9 E.02981
G1 X83.059 Y100.415 E.02135
G1 X83.236 Y99.644 E.03431
G1 X83.387 Y99.147 E.02256
G1 X83.567 Y98.652 E.02286
G1 X83.775 Y98.166 E.02294
G1 X84.01 Y97.693 E.02291
G1 X84.268 Y97.238 E.02274
G1 X84.546 Y96.804 E.02236
G1 X84.982 Y96.212 E.03192
G1 X85.291 Y95.844 E.02088
G1 X85.784 Y95.326 E.03102
G1 X86.227 Y94.918 E.02613
G1 X86.565 Y94.636 E.01911
G1 X86.636 Y94.528 E.00561
G1 X86.836 Y93.866 E.03004
G1 X87.16 Y93.031 E.03889
G1 X87.596 Y92.165 E.04208
G1 X88.015 Y91.495 E.03428
G1 X88.471 Y90.882 E.03318
G1 X88.813 Y90.482 E.02286
G1 X89.149 Y90.13 E.02114
G1 X89.474 Y90.44 F18000
G1 F3000
G1 X89.494 Y90.419 E.00127
G1 X90.06 Y89.904 E.03323
G1 X90.629 Y89.465 E.03119
G1 X91.022 Y89.202 E.02051
G1 X91.417 Y88.964 E.02003
G1 X92.184 Y88.576 E.0373
G1 X92.944 Y88.27 E.03556
G1 X93.062 Y88.202 E.00593
G1 X93.251 Y88.031 E.01104
G1 X93.79 Y87.299 E.03947
G1 X94.375 Y86.642 E.03818
G1 X95.058 Y86.013 E.0403
G1 X95.641 Y85.567 E.03186
G1 X96.286 Y85.152 E.03329
G1 X96.731 Y84.908 E.02202
G1 X97.181 Y84.693 E.02168
G1 X97.85 Y84.428 E.03122
G1 X98.576 Y84.206 E.03296
G1 X99.231 Y84.06 E.02913
G1 X100.076 Y83.944 E.03704
G1 X100.88 Y83.902 E.03496
G1 X101.019 Y83.875 E.00615
G1 X101.26 Y83.767 E.01144
G1 X101.68 Y83.465 E.02247
G1 X102.166 Y83.155 E.02502
G1 X102.782 Y82.818 E.03045
G1 X103.195 Y82.625 E.01982
G1 X103.849 Y82.368 E.03047
G1 X104.317 Y82.218 E.02133
G1 X104.808 Y82.091 E.02202
G1 X105.301 Y81.992 E.02186
G1 X105.8 Y81.92 E.02186
G1 X106.299 Y81.876 E.02174
G1 X106.79 Y81.861 E.02134
G1 X107.536 Y81.887 E.03242
G1 X108.003 Y81.934 E.02034
G1 X108.645 Y82.04 E.02826
G1 X109.265 Y82.186 E.02767
G1 X109.798 Y82.345 E.02414
G1 X109.939 Y82.366 E.00618
G1 X110.203 Y82.345 E.01149
G1 X110.88 Y82.148 E.03063
G1 X111.711 Y81.976 E.03684
G1 X112.653 Y81.875 E.04112
G1 X113.4 Y81.864 E.03243
G1 X114.129 Y81.912 E.03174
G1 X114.616 Y81.978 E.0213
G1 X115.105 Y82.071 E.02161
G1 X115.864 Y82.273 E.03409
G1 X116.537 Y82.512 E.03104
G1 X117.367 Y82.893 E.03962
G1 X118.114 Y83.329 E.03755
G1 X118.749 Y83.773 E.03364
G1 X118.982 Y83.875 E.01103
G1 X119.116 Y83.902 E.00593
G1 X120.084 Y83.959 E.04212
G1 X120.694 Y84.046 E.02671
G1 X121.143 Y84.136 E.01992
G1 X121.855 Y84.329 E.03198
G1 X122.315 Y84.487 E.02111
G1 X122.783 Y84.677 E.02194
G1 X123.237 Y84.891 E.02181
G1 X123.677 Y85.13 E.02172
G1 X124.303 Y85.526 E.03215
G1 X124.695 Y85.813 E.02109
G1 X125.265 Y86.294 E.03238
G1 X125.602 Y86.618 E.02029
G1 X126.035 Y87.089 E.02778
G1 X126.439 Y87.592 E.02799
G1 X126.743 Y88.02 E.02282
G1 X126.941 Y88.202 E.01165
G1 X127.066 Y88.273 E.00627
G1 X127.588 Y88.476 E.02431
G1 X128.116 Y88.717 E.02517
G1 X128.728 Y89.048 E.03021
G1 X129.124 Y89.295 E.02025
G1 X129.702 Y89.711 E.03094
G1 X130.081 Y90.023 E.02128
G1 X130.444 Y90.357 E.02141
G1 X130.795 Y90.717 E.02185
G1 X131.126 Y91.097 E.02186
G1 X131.438 Y91.497 E.02205
G1 X131.718 Y91.901 E.0213
G1 X132.1 Y92.541 E.03236
G1 X132.309 Y92.95 E.01994
G1 X132.572 Y93.55 E.02846
G1 X132.786 Y94.149 E.02758
G1 X132.93 Y94.64 E.02224
G1 X133.058 Y94.876 E.01165
G1 X133.153 Y94.984 E.00626
G1 X133.591 Y95.354 E.02488
G1 X134.018 Y95.761 E.0256
G1 X134.483 Y96.268 E.02987
G1 X134.772 Y96.624 E.01989
G1 X135.184 Y97.206 E.03095
G1 X135.438 Y97.62 E.02108
G1 X135.804 Y98.323 E.03438
G1 X136.002 Y98.779 E.0216
G1 X136.173 Y99.243 E.02149
G1 X136.32 Y99.719 E.02161
G1 X136.44 Y100.199 E.02147
G1 X136.562 Y100.872 E.02969
G1 X136.648 Y101.783 E.03971
G1 X136.655 Y102.411 E.02729
G1 X136.633 Y102.91 E.02167
G1 X136.675 Y103.171 E.01148
G1 X136.728 Y103.303 E.00617
G1 X137.114 Y103.962 E.03317
G1 X137.485 Y104.739 E.03738
G1 X137.654 Y105.168 E.02002
G1 X137.804 Y105.615 E.02046
G1 X137.997 Y106.35 E.03299
G1 X138.123 Y107.062 E.03138
G1 X138.176 Y107.563 E.02185
G1 X138.205 Y108.343 E.0339
G1 X138.171 Y109.065 E.03134
G1 X138.077 Y109.804 E.03234
G1 X137.942 Y110.456 E.02894
G1 X137.704 Y111.268 E.0367
G1 X137.445 Y111.944 E.03144
G1 X137.414 Y112.082 E.00615
G1 X137.414 Y112.346 E.01144
G1 X137.536 Y112.929 E.02587
G1 X137.622 Y113.515 E.02571
G1 X137.676 Y114.203 E.02994
G1 X137.683 Y114.662 E.01993
G1 X137.649 Y115.375 E.031
G1 X137.592 Y115.864 E.02137
G1 X137.506 Y116.365 E.02207
G1 X137.394 Y116.856 E.02186
G1 X137.254 Y117.34 E.02185
G1 X137.089 Y117.811 E.02169
G1 X136.902 Y118.265 E.02129
G1 X136.569 Y118.939 E.03266
G1 X136.339 Y119.335 E.01983
G1 X135.987 Y119.868 E.02776
G1 X135.72 Y120.224 E.01933
G1 X135.287 Y120.739 E.02918
G1 X135.164 Y120.968 E.01128
G1 X135.126 Y121.102 E.00606
G1 X135.02 Y121.887 E.03437
G1 X134.834 Y122.724 E.03723
G1 X134.621 Y123.408 E.0311
G1 X134.354 Y124.073 E.03107
G1 X134.014 Y124.754 E.03306
G1 X133.762 Y125.184 E.02164
G1 X133.48 Y125.607 E.02205
G1 X133.031 Y126.19 E.03194
G1 X132.516 Y126.756 E.03321
G1 X131.829 Y127.382 E.04034
G1 X131.191 Y127.862 E.03467
G1 X130.376 Y128.367 E.04162
G1 X130.271 Y128.455 E.00592
G1 X130.115 Y128.655 E.01102
G1 X129.755 Y129.371 E.03481
G1 X129.303 Y130.108 E.03751
G1 X129.034 Y130.484 E.02009
G1 X128.739 Y130.854 E.02052
G1 X128.225 Y131.415 E.03305
G1 X127.695 Y131.908 E.03142
G1 X127.307 Y132.223 E.02171
G1 X126.896 Y132.519 E.022
G1 X126.248 Y132.921 E.03308
G1 X125.57 Y133.266 E.03304
G1 X124.769 Y133.589 E.03746
G1 X123.957 Y133.833 E.03682
G1 X123.279 Y133.978 E.03012
G1 X123.038 Y134.085 E.01143
G1 X122.924 Y134.169 E.00614
G1 X122.475 Y134.617 E.02755
G1 X122.177 Y134.884 E.01735
G1 X121.677 Y135.286 E.02785
G1 X121.3 Y135.553 E.02007
G1 X120.661 Y135.945 E.03254
G1 X120.23 Y136.172 E.02113
G1 X119.783 Y136.376 E.02135
G1 X119.319 Y136.558 E.02161
G1 X118.612 Y136.782 E.0322
G1 X118.086 Y136.907 E.02345
G1 X117.439 Y137.018 E.02851
G1 X116.507 Y137.096 E.04061
G1 X115.814 Y137.091 E.03008
G1 X115.239 Y137.049 E.02501
G1 X114.733 Y136.984 E.02215
G1 X114.589 Y136.986 E.00624
G1 X114.33 Y137.051 E.0116
G1 X113.755 Y137.33 E.02774
G1 X113.204 Y137.556 E.02587
G1 X112.532 Y137.779 E.03071
G1 X111.865 Y137.945 E.02987
