; HEADER_BLOCK_START
; generated by AnycubicSlicerNext 1.3.3.1 on 2025-03-08 at 14:29:41
; total layer number: 100
; filament_density: 1.24
; filament_diameter: 1.75
; max_z_height: 20.04
; exclude_object: 0
; model_instances: 1
; HEADER_BLOCK_END

; THUMBNAIL_BLOCK_START
; THUMBNAIL_BLOCK_END

; external perimeters extrusion width = 0.42mm
; perimeters extrusion width = 0.45mm
; infill extrusion width = 0.45mm
; solid infill extrusion width = 0.42mm
; top infill extrusion width = 0.42mm
; support material extrusion width = 0.40mm
; first layer extrusion width = 0.50mm

; EXECUTABLE_BLOCK_START
M201 X2000 Y2000 Z800 E2000
M203 X300 Y300 Z8 E100
M204 P2000 R2000 T2000
M205 X10.00 Y10.00 Z2.00 E5.00 ; sets the jerk limits, mm/sec
;TYPE:Custom
G90 ; use absolute coordinates
M83 ; extruder relative mode
M104 S220 ; set extruder temp
M140 S60 ; set bed temp
M190 S60 ; wait for bed temp
M109 S220 ; wait for extruder temp
G28                                        ; move X/Y/Z to min endstops
G1 Z0.28                                   ; lift nozzle a bit 
G92 E0 
G1 Y3 F1800                                    ; zero the extruded length 
G1 X60  E25 F500                       ; Extrude 25mm of filament in a 5cm line. 
G92 E0                                     ; zero the extruded length again 
G1 E-2 F500                                ; Retract a little 
G1 X70 F4000                              ; Quickly wipe away from the filament line
M117
G90
G21
M83 ; use relative distances for extrusion
; filament start gcode
M106 S0
;LAYER_CHANGE
;Z:0.24
;HEIGHT:0.24
; BEFORE_LAYER_CHANGE 0 @ 0.24mm
G92 E0
G1 E-2.5 F6000
; AFTER_LAYER_CHANGE 0 @ 0.24mm
M204 P500
; printing object "Cyclo4Case.stl" id:2671844806912 copy 0
M204 T500
G1 X92.184 Y67.071 F18000
G1 Z.24
G1 E2.5 F6000
;TYPE:Support
;WIDTH:0.5
;MM3_PER_MM:0.107639
G1 F3000
G3 X97.257 Y71.363 I-.368 J5.578 E.30885
G2 X86.831 Y73.424 I-3.257 J10.924 E.47992
G3 X92.117 Y67.068 I5.205 J-1.047 E.41132
G1 X96.545 Y70.969 F18000
G1 F3000
G2 X96.047 Y69.562 I-2.08 J-.055 E.06628
G1 X96.047 Y70.663 E.04782
G2 X95.548 Y70.586 I-3.923 J23.731 E.02189
G1 X95.548 Y68.955 E.07079
G2 X95.05 Y68.494 I-1.522 J1.143 E.02965
G1 X95.05 Y70.531 E.08844
G2 X94.552 Y70.497 I-1.889 J23.914 E.02168
G1 X94.552 Y68.165 E.10122
G2 X94.054 Y67.908 I-.957 J1.245 E.02447
G1 X94.054 Y70.484 E.11182
G2 X93.555 Y70.493 I.146 J23.507 E.02164
G1 X93.555 Y67.696 E.12142
G2 X93.057 Y67.581 I-.564 J1.317 E.02231
G1 X93.057 Y70.522 E.12766
G2 X92.559 Y70.573 I2.116 J23.309 E.02174
G1 X92.559 Y67.492 E.13373
G1 X92.06 Y67.47 E.02165
G1 X92.054 Y70.645 E.13786
G2 X91.562 Y70.739 I2.019 J11.967 E.02175
G1 X91.562 Y67.492 E.14094
G1 X91.064 Y67.56 E.02183
G1 X91.064 Y70.855 E.14305
G2 X90.565 Y70.995 I3.297 J12.707 E.02247
G1 X90.565 Y67.698 E.14313
G2 X90.067 Y67.866 I.216 J1.458 E.02296
G1 X90.067 Y71.159 E.14293
G2 X89.569 Y71.348 I7.525 J20.639 E.02313
G1 X89.569 Y68.134 E.13948
G2 X89.07 Y68.468 I.67 J1.541 E.02616
G1 X89.063 Y71.566 E.1345
G2 X88.572 Y71.807 I5.203 J11.246 E.02372
G1 X88.572 Y68.886 E.12678
G1 X88.074 Y69.456 E.03286
G1 X88.074 Y72.08 E.11391
G2 X87.575 Y72.386 I9.29 J15.676 E.02539
G1 X87.575 Y69.884 E.1086
G1 E-1.75 F6000
;WIPE_START
G1 F3000
G1 X87.575 Y70.884 E-.75
;WIPE_END
G1 X82.885 Y79.757 F18000
G1 E2.5 F6000
G1 F3000
G2 X83.445 Y86.592 I11.12 J2.529 E.30235
G2 X81.277 Y89.237 I79.736 J67.558 E.14843
G3 X82.914 Y79.635 I2.962 J-4.435 E.53286
G1 X82.9 Y79.692 E.00253
G1 X82.592 Y87.279 F18000
G1 F3000
G1 X82.587 Y85.296 E.08611
G3 X82.377 Y80.234 I11.43 J-3.009 E.22162
G2 X82.094 Y80.366 I.22 J.846 E.01362
G1 X82.094 Y87.57 E.31272
G2 X81.595 Y88.204 I98.028 J77.505 E.03502
G1 X81.595 Y80.634 E.32862
G2 X81.097 Y81.007 I.778 J1.56 E.02716
G1 X81.097 Y88.577 E.3286
G3 X80.599 Y88.105 I1.049 J-1.609 E.02993
G1 X80.599 Y81.478 E.28769
G2 X80.1 Y82.117 I1.513 J1.693 E.03538
G1 X80.1 Y87.466 E.23218
G3 X79.602 Y86.457 I2.53 J-1.878 E.0491
G1 X79.602 Y82.558 E.16927
G1 E-1.75 F6000
;WIPE_START
G1 F3000
G1 X79.602 Y83.558 E-.75
;WIPE_END
G1 X74.856 Y95.147 F18000
G1 E2.5 F6000
G1 F3000
G3 X77.511 Y95.946 I-.991 J8.108 E.12093
G2 X76.451 Y98.706 I31.313 J13.607 E.12839
G2 X69.693 Y102.193 I1.56 J11.315 E.33651
G3 X74.789 Y95.144 I5.141 J-1.65 E.43895
G1 X76.612 Y97.643 F18000
G1 F3000
G1 X76.612 Y95.935 E.07413
G2 X76.114 Y95.745 I-.775 J1.279 E.02329
G1 X76.114 Y98.349 E.11304
G2 X75.615 Y98.44 I3.862 J22.435 E.02199
G1 X75.615 Y95.631 E.12194
G2 X75.117 Y95.563 I-.437 J1.339 E.02195
G1 X75.094 Y98.56 E.1301
G2 X74.619 Y98.692 I3.004 J11.751 E.02142
G1 X74.619 Y95.541 E.13678
G2 X74.12 Y95.584 I-.13 J1.395 E.02183
G1 X74.12 Y98.853 E.14188
G2 X73.622 Y99.039 I4.378 J12.483 E.02309
G1 X73.622 Y95.652 E.14703
G2 X73.124 Y95.811 I.191 J1.454 E.02284
G1 X73.124 Y99.252 E.14933
G2 X72.625 Y99.492 I8.031 J17.299 E.02401
G1 X72.625 Y96.005 E.15137
G1 X72.127 Y96.273 E.02456
G1 X72.127 Y99.762 E.15147
G2 X71.629 Y100.064 I9.391 J16.042 E.0253
G1 X71.629 Y96.636 E.14883
G2 X71.13 Y97.094 I1.014 J1.603 E.02954
G1 X71.13 Y100.402 E.14362
G2 X70.632 Y100.779 I9.97 J13.707 E.02712
G1 X70.632 Y97.713 E.13308
G2 X70.134 Y98.684 I2.427 J1.859 E.04763
G1 X70.134 Y101.473 E.12105
G1 E-1.75 F6000
;WIPE_START
G1 F3000
G1 X70.134 Y100.473 E-.75
;WIPE_END
G1 X68.32 Y103.164 F18000
G1 E2.5 F6000
G1 F3000
G3 X68.844 Y103.209 I.137 J1.466 E.02294
G1 X68.843 Y103.21 E.00006
G2 X67.22 Y113.707 I9.159 J6.79 E.47961
G3 X68.253 Y103.161 I.79 J-5.246 E.69959
G1 X67.642 Y104.775 F18000
G1 F3000
G1 X67.642 Y103.564 E.05256
G1 X67.144 Y103.632 E.02183
G1 X67.144 Y105.368 E.07538
G2 X66.645 Y106.777 I11.548 J4.876 E.06492
G1 X66.645 Y103.75 E.1314
G1 X66.147 Y103.912 E.02274
G1 X66.147 Y113.009 E.39487
G3 X65.649 Y112.756 I.448 J-1.5 E.02439
G1 X65.649 Y104.165 E.3729
G2 X65.15 Y104.472 I.596 J1.526 E.02554
G1 X65.15 Y112.449 E.34627
G1 X64.652 Y112.052 E.02767
G1 X64.652 Y104.869 E.31177
G2 X64.154 Y105.425 I1.282 J1.651 E.03257
G1 X64.154 Y111.496 E.26354
G3 X63.655 Y110.728 I1.867 J-1.757 E.03996
G1 X63.655 Y106.193 E.19686
G2 X63.157 Y110.053 I7.028 J2.869 E.17085
G1 E-1.75 F6000
;WIPE_START
G1 F3000
G1 X63.157 Y109.053 E-.75
;WIPE_END
G1 X78.199 Y108.01 F18000
G1 E2.5 F6000
G1 F3000
G3 X78.132 Y108.007 I-.147 J1.994 E.54243
G1 X79.104 Y111.419 F18000
G1 F3000
G1 X79.104 Y108.849 E.11153
G2 X78.605 Y108.525 I-1.244 J1.366 E.02592
G1 X78.605 Y111.475 E.12806
G3 X78.107 Y111.591 I-.606 J-1.481 E.0223
G1 X78.107 Y108.409 E.1381
G2 X77.609 Y108.454 I-.108 J1.586 E.02181
G1 X77.609 Y111.546 E.13419
G3 X77.11 Y111.323 I.395 J-1.554 E.0238
G1 X77.11 Y108.677 E.11489
G2 X76.612 Y109.216 I.889 J1.322 E.03216
G1 X76.612 Y111.14 E.08353
G1 E-1.75 F6000
;WIPE_START
G1 F3000
G1 X76.612 Y110.14 E-.75
;WIPE_END
G1 X82.425 Y132.198 F18000
G1 E2.5 F6000
G1 F3000
G2 X83.444 Y133.408 I30.009 J-24.246 E.06871
G2 X83.664 Y142.52 I10.571 J4.304 E.40699
G3 X82.383 Y132.146 I.318 J-5.306 E.64051
G1 X82.592 Y142.138 F18000
G1 F3000
G2 X82.207 Y137.215 I-193.983 J12.685 E.21435
G2 X82.495 Y132.921 I-16.135 J-3.238 E.18738
G1 X82.226 Y132.592 E.01845
G1 X82.094 Y132.635 E.00603
G1 X82.094 Y141.764 E.39629
G3 X81.595 Y141.522 I.418 J-1.494 E.02418
G1 X81.595 Y132.877 E.37526
G2 X81.097 Y133.171 I.56 J1.52 E.02524
G1 X81.097 Y141.228 E.34977
G1 X80.599 Y140.831 E.02767
G1 X80.599 Y133.568 E.31527
G2 X80.1 Y134.106 I1.233 J1.642 E.03201
G1 X80.1 Y140.293 E.26855
G3 X79.602 Y139.552 I1.793 J-1.744 E.03898
G1 X79.602 Y134.847 E.2042
G2 X79.104 Y136.214 I4.532 J2.426 E.06336
G1 X79.104 Y138.927 E.11774
G1 E-1.75 F6000
;WIPE_START
G1 F3000
G1 X79.104 Y137.927 E-.75
;WIPE_END
G1 X94.173 Y135.721 F18000
G1 E2.5 F6000
G1 F3000
G3 X94.106 Y135.718 I-.12 J1.996 E.54243
G1 X95.548 Y138.623 F18000
G1 F3000
G2 X95.146 Y136.602 I-2.034 J-.645 E.09335
G1 X95.05 Y136.512 E.00572
G1 X95.05 Y138.913 E.10421
G3 X94.552 Y139.21 I-1.081 J-1.245 E.02532
G1 X94.552 Y136.217 E.12992
G2 X94.054 Y136.12 I-.55 J1.492 E.02213
G1 X94.053 Y139.308 E.13839
G3 X93.555 Y139.245 I.011 J-2.095 E.02183
G1 X93.555 Y136.182 E.13297
G2 X93.057 Y136.426 I.602 J1.858 E.02417
G1 X93.057 Y138.998 E.11167
G3 X92.559 Y138.394 I.945 J-1.287 E.03435
G1 X92.559 Y136.64 E.07614
G1 E-1.75 F6000
;WIPE_START
G1 F3000
G1 X92.559 Y137.64 E-.75
;WIPE_END
G1 X94.613 Y124.005 F18000
G1 E2.5 F6000
G1 F3000
G3 X94.546 Y124.004 I-.065 J1.498 E.40597
G1 X95.548 Y126.262 F18000
G1 F3000
G2 X95.265 Y124.716 I-1.419 J-.538 E.07171
G2 X95.05 Y124.555 I-.808 J.851 E.01168
G1 X95.05 Y126.445 E.08208
G3 X94.552 Y126.593 I-.599 J-1.109 E.02272
G1 X94.552 Y124.407 E.09487
G2 X94.054 Y124.5 I-.051 J1.113 E.0222
G1 X94.05 Y126.498 E.08674
G3 X93.555 Y126.052 I.464 J-1.012 E.02935
G1 X93.555 Y124.612 E.06254
G1 E-1.75 F6000
;WIPE_START
G1 F3000
G1 X93.555 Y125.612 E-.75
;WIPE_END
G1 X101.849 Y146.527 F18000
G1 E2.5 F6000
G1 F3000
G1 X101.935 Y147.478 E.04145
G3 X91.461 Y148.826 I-5.326 J-.021 E.66534
G2 X101.729 Y146.092 I2.538 J-11.115 E.47982
G1 X101.831 Y146.462 E.01668
G1 X101.528 Y148.833 F18000
G1 F3000
G2 X101.473 Y146.849 I-11.054 J-.685 E.08631
G3 X101.03 Y147.194 I-12.067 J-15.031 E.02438
G1 X101.03 Y149.593 E.10415
G3 X100.532 Y150.417 I-2.519 J-.961 E.04202
G1 X100.532 Y147.544 E.12472
G3 X100.033 Y147.857 I-10.021 J-15.37 E.02556
G1 X100.033 Y150.985 E.13576
G3 X99.535 Y151.419 I-1.446 J-1.156 E.02885
G1 X99.535 Y148.137 E.14246
G3 X99.037 Y148.387 I-8.718 J-16.769 E.0242
G1 X99.037 Y151.748 E.1459
G3 X98.538 Y151.983 I-.898 J-1.255 E.02405
G1 X98.538 Y148.608 E.14651
G3 X98.04 Y148.803 I-4.705 J-11.305 E.02323
G1 X98.04 Y152.179 E.14653
G1 X97.542 Y152.292 E.02219
G1 X97.542 Y148.972 E.14414
G3 X97.043 Y149.117 I-6.195 J-20.404 E.02253
G1 X97.043 Y152.365 E.141
G1 X96.545 Y152.387 E.02165
G1 X96.524 Y149.243 E.13649
G3 X96.047 Y149.337 I-2.752 J-12.741 E.02111
G1 X96.047 Y152.348 E.13072
G1 X95.548 Y152.281 E.02183
G1 X95.548 Y149.414 E.12444
G3 X95.05 Y149.469 I-1.556 J-11.823 E.02176
G1 X95.05 Y152.125 E.11532
G3 X94.552 Y151.937 I.269 J-1.467 E.02324
G1 X94.552 Y149.503 E.10567
G3 X94.054 Y149.516 I-.58 J-12.983 E.02164
G1 X94.054 Y151.669 E.09348
G3 X93.555 Y151.312 I.734 J-1.551 E.02675
G1 X93.555 Y149.507 E.07835
G3 X93.057 Y149.478 I.445 J-11.819 E.02167
G1 X93.057 Y150.863 E.0601
G3 X92.559 Y149.224 I.785 J-1.134 E.08021
G1 E-1.75 F6000
;WIPE_START
G1 F3000
G1 X92.559 Y150.224 E-.75
;WIPE_END
G1 X117.083 Y144.815 F18000
G1 E2.5 F6000
G1 F3000
G2 X122.32 Y148.502 I8.919 J-7.106 E.2818
G3 X113.374 Y145.237 I-3.662 J-3.855 E.51223
G2 X117.042 Y144.762 I-18.869 J-159.945 E.16056
G1 X121.462 Y148.927 F18000
G1 F3000
G1 X121.462 Y148.608 E.01382
G3 X120.963 Y148.387 I7.795 J-18.233 E.02367
G1 X120.963 Y149.007 E.02691
G1 X120.465 Y149.22 E.02352
G1 X120.465 Y148.137 E.04699
G3 X119.967 Y147.857 I9.076 J-16.732 E.02482
G1 X119.967 Y149.39 E.06654
G1 X119.468 Y149.504 E.02219
G1 X119.468 Y147.544 E.08508
G3 X118.97 Y147.194 I9.877 J-14.597 E.02643
G1 X118.97 Y149.553 E.10242
G1 X118.472 Y149.575 E.02165
G1 X118.472 Y146.803 E.12035
G3 X117.973 Y146.367 I7.965 J-9.599 E.02875
G1 X117.973 Y149.514 E.13661
G3 X117.475 Y149.429 I-.016 J-1.416 E.02206
G1 X117.475 Y145.876 E.15425
G3 X116.977 Y145.321 I8.554 J-8.19 E.03237
G1 X116.977 Y149.267 E.17128
G3 X116.478 Y149.052 I.343 J-1.481 E.02368
G1 X116.478 Y145.211 E.16674
G3 X115.98 Y145.3 I-3.68 J-19.159 E.02197
G1 X115.98 Y148.784 E.15123
G3 X115.482 Y148.395 I.824 J-1.568 E.0276
G1 X115.482 Y145.381 E.13082
G3 X114.983 Y145.454 I-2.984 J-18.604 E.02186
G1 X114.983 Y147.901 E.10623
G3 X114.485 Y147.228 I1.606 J-1.71 E.03655
G1 X114.485 Y145.521 E.07408
G3 X113.987 Y145.58 I-3.161 J-24.848 E.02178
G1 X113.987 Y146.73 E.04995
G1 E-1.75 F6000
;WIPE_START
G1 F3000
G1 X113.987 Y145.73 E-.75
;WIPE_END
G1 X126.146 Y135.719 F18000
G1 E2.5 F6000
G1 F3000
G3 X126.079 Y135.717 I-.094 J1.997 E.54243
G1 X127.441 Y138.786 F18000
G1 F3000
G1 X127.441 Y137.031 E.07618
G2 X126.943 Y136.426 I-1.459 J.694 E.03437
G1 X126.943 Y138.998 E.11167
G3 X126.445 Y139.245 I-1.12 J-1.635 E.02422
G1 X126.445 Y136.182 E.13298
G2 X125.946 Y136.119 I-.446 J1.54 E.02189
G1 X125.946 Y139.308 E.1384
G3 X125.448 Y139.21 I.074 J-1.698 E.02213
G1 X125.448 Y136.217 E.12992
G2 X124.95 Y136.512 I.566 J1.525 E.02527
G1 X124.95 Y138.913 E.10421
G3 X124.452 Y138.093 I1.053 J-1.201 E.04227
G1 X124.452 Y136.801 E.05612
G1 E-1.75 F6000
;WIPE_START
G1 F3000
G1 X124.452 Y137.801 E-.75
;WIPE_END
G1 X125.613 Y124.005 F18000
G1 E2.5 F6000
G1 F3000
G3 X125.546 Y124.004 I-.065 J1.498 E.40597
G1 X126.445 Y126.387 F18000
G1 F3000
G1 X126.445 Y124.948 E.06244
G2 X125.946 Y124.501 I-.946 J.554 E.02953
G1 X125.946 Y126.499 E.0867
G3 X125.448 Y126.593 I-.482 J-1.18 E.02216
G1 X125.448 Y124.407 E.0949
G2 X124.95 Y124.553 I.11 J1.297 E.0227
G1 X124.95 Y126.447 E.0822
G3 X124.452 Y125.812 I.607 J-.989 E.03578
G1 X124.452 Y124.738 E.04663
G1 E-1.75 F6000
;WIPE_START
G1 F3000
G1 X124.452 Y125.738 E-.75
;WIPE_END
G1 X139.6 Y130.434 F18000
G1 E2.5 F6000
G1 F3000
G3 X137.397 Y137.922 I-4.818 J2.651 E.37673
G2 X136.555 Y133.407 I-11.401 J-.209 E.20076
G2 X139.245 Y129.945 I-26.036 J-23.004 E.19044
G1 X139.561 Y130.38 E.02332
G1 X139.9 Y134.695 F18000
G1 F3000
G2 X139.401 Y130.952 I-6.808 J-.998 E.16604
G1 X139.401 Y135.38 E.19224
G3 X138.903 Y136.171 I-2.427 J-.978 E.04078
G1 X138.903 Y131.129 E.21884
G3 X138.405 Y131.794 I-19.694 J-14.246 E.03606
G1 X138.405 Y136.718 E.21376
G3 X137.906 Y137.139 I-1.407 J-1.163 E.02845
G1 X137.871 Y132.474 E.20248
G3 X137.408 Y133.035 I-36.385 J-29.576 E.03157
G1 X137.408 Y135.605 E.11156
G1 E-1.75 F6000
;WIPE_START
G1 F3000
G1 X137.408 Y134.605 E-.75
;WIPE_END
G1 X151.77 Y117.032 F18000
G1 E2.5 F6000
G1 F3000
G3 X143.046 Y122.69 I-4.993 J1.855 E.62485
G3 X143.692 Y121.273 I2.158 J.128 E.06914
G2 X151.452 Y116.372 I-1.702 J-11.288 E.41
G1 X151.741 Y116.972 E.02888
G1 X151.361 Y121.159 F18000
G1 F3000
G1 X151.345 Y117.21 E.17139
G3 X150.863 Y117.795 I-12.399 J-9.733 E.03289
G1 X150.863 Y121.627 E.16635
G3 X150.365 Y122.261 I-1.995 J-1.056 E.03518
G1 X150.365 Y118.327 E.17076
G3 X149.866 Y118.8 I-8.845 J-8.828 E.02982
G1 X149.866 Y122.737 E.17092
G3 X149.368 Y123.071 I-1.168 J-1.206 E.02617
G1 X149.368 Y119.221 E.16712
G3 X148.87 Y119.598 I-10.423 J-13.264 E.02712
G1 X148.87 Y123.343 E.16256
G1 X148.371 Y123.556 E.02352
G1 X148.371 Y119.936 E.15713
G3 X147.873 Y120.238 I-9.889 J-15.739 E.0253
G1 X147.873 Y123.683 E.14953
G3 X147.375 Y123.784 I-.528 J-1.322 E.02219
G1 X147.375 Y120.508 E.14219
G3 X146.876 Y120.748 I-8.528 J-17.056 E.02401
G1 X146.876 Y123.806 E.13273
G3 X146.378 Y123.795 I-.219 J-1.378 E.02175
G1 X146.378 Y120.961 E.12303
G3 X145.88 Y121.147 I-4.877 J-12.299 E.02309
G1 X145.88 Y123.728 E.11202
G3 X145.381 Y123.602 I.097 J-1.436 E.02243
G1 X145.381 Y121.308 E.09959
G3 X144.883 Y121.446 I-6.349 J-22.035 E.02244
G1 X144.883 Y123.44 E.08659
G3 X144.385 Y123.18 I.47 J-1.503 E.02455
G1 X144.385 Y121.56 E.07032
G3 X143.886 Y121.651 I-4.364 J-22.361 E.02199
G1 X143.886 Y123.121 E.06382
G1 E-1.75 F6000
;WIPE_START
G1 F3000
G1 X143.886 Y122.121 E-.75
;WIPE_END
G1 X142.12 Y108.004 F18000
G1 E2.5 F6000
G1 F3000
G3 X142.053 Y108.003 I-.067 J1.998 E.54243
G1 X143.388 Y111.14 F18000
G1 F3000
G1 X143.388 Y109.215 E.08356
G2 X142.89 Y108.677 I-1.387 J.784 E.03214
G1 X142.89 Y111.323 E.11487
G3 X142.391 Y111.546 I-.893 J-1.332 E.0238
G1 X142.391 Y108.454 E.13419
G2 X141.893 Y108.409 I-.392 J1.551 E.02181
G1 X141.893 Y111.591 E.13811
G3 X141.395 Y111.475 I.108 J-1.597 E.0223
G1 X141.395 Y108.525 E.12806
G2 X140.896 Y108.849 I.749 J1.696 E.02592
G1 X140.896 Y111.419 E.11153
G1 E-1.75 F6000
;WIPE_START
G1 F3000
G1 X140.896 Y110.419 E-.75
;WIPE_END
G1 X147.771 Y96.201 F18000
G1 E2.5 F6000
G1 F3000
G3 X151.92 Y104.384 I-.317 J5.304 E.48059
G2 X143.549 Y98.706 I-9.927 J5.625 E.45491
G3 X143.779 Y97.648 I.589 J-.426 E.05306
G3 X147.704 Y96.198 I3.697 J3.974 E.18645
G1 X152.358 Y102.932 F18000
G1 F3000
G2 X151.86 Y99.338 I-7.801 J-.75 E.15896
G1 X151.86 Y103.512 E.18119
G2 X151.361 Y102.811 I-10.181 J6.712 E.03733
G1 X151.361 Y98.529 E.18587
G2 X150.863 Y97.971 I-1.788 J1.094 E.03267
