; HEADER_BLOCK_START
; generated by AnycubicSlicerNext 1.3.3.1 on 2025-03-01 at 16:08:36
; total layer number: 17
; filament_density: 1.24
; filament_diameter: 1.75
; max_z_height: 3.44
; exclude_object: 0
; model_instances: 1
; HEADER_BLOCK_END

; THUMBNAIL_BLOCK_START
; THUMBNAIL_BLOCK_END

; external perimeters extrusion width = 0.42mm
; perimeters extrusion width = 0.45mm
; infill extrusion width = 0.45mm
; solid infill extrusion width = 0.42mm
; top infill extrusion width = 0.42mm
; first layer extrusion width = 0.50mm

; EXECUTABLE_BLOCK_START
M201 X2000 Y2000 Z800 E2000
M203 X300 Y300 Z8 E100
M204 P2000 R2000 T2000
M205 X10.00 Y10.00 Z2.00 E5.00 ; sets the jerk limits, mm/sec
;TYPE:Custom
G90 ; use absolute coordinates
M83 ; extruder relative mode
M104 S220 ; set extruder temp
M140 S60 ; set bed temp
M190 S60 ; wait for bed temp
M109 S220 ; wait for extruder temp
G28                                        ; move X/Y/Z to min endstops
G1 Z0.28                                   ; lift nozzle a bit 
G92 E0 
G1 Y3 F1800                                    ; zero the extruded length 
G1 X60  E25 F500                       ; Extrude 25mm of filament in a 5cm line. 
G92 E0                                     ; zero the extruded length again 
G1 E-2 F500                                ; Retract a little 
G1 X70 F4000                              ; Quickly wipe away from the filament line
M117
G90
G21
M83 ; use relative distances for extrusion
; filament start gcode
M106 S0
;LAYER_CHANGE
;Z:0.24
;HEIGHT:0.24
; BEFORE_LAYER_CHANGE 0 @ 0.24mm
G92 E0
G1 E-2.5 F6000
; AFTER_LAYER_CHANGE 0 @ 0.24mm
M204 P500
; printing object "CycloidDiskBestClamp.stl" id:1687434563328 copy 0
M204 T500
G1 X86.528 Y75.101 F18000
G1 Z.24
G1 E2.5 F6000
;TYPE:Brim
;WIDTH:0.5
;MM3_PER_MM:0.107639
G1 F3000
G1 X86.944 Y74.671 E.02597
G1 X87.493 Y74.178 E.03202
G1 X87.924 Y73.841 E.02375
G1 X88.397 Y73.515 E.02494
G1 X88.865 Y73.232 E.02374
G1 X89.532 Y72.889 E.03258
G1 X90.059 Y72.663 E.02488
G1 X90.575 Y72.477 E.02379
G1 X91.126 Y72.315 E.02494
G1 X91.659 Y72.193 E.02374
G1 X92.4 Y72.076 E.03257
G1 X92.97 Y72.026 E.02484
G1 X93.72 Y72.014 E.03257
G1 X94.267 Y72.042 E.02374
G1 X94.838 Y72.107 E.02494
G1 X95.377 Y72.2 E.02378
G1 X95.937 Y72.332 E.02494
G1 X96.461 Y72.489 E.02374
G1 X97.163 Y72.753 E.03258
G1 X97.684 Y72.992 E.02488
G1 X98.168 Y73.25 E.02379
G1 X98.656 Y73.55 E.02488
G1 X99.267 Y73.986 E.03257
G1 X99.69 Y74.333 E.02375
G1 X100.111 Y74.724 E.02494
G1 X100.489 Y75.12 E.02379
G1 X100.861 Y75.558 E.02494
G1 X101.189 Y75.997 E.02378
G1 X101.519 Y76.496 E.02597
G1 X101.636 Y76.586 E.00641
G1 X101.756 Y76.591 E.00524
G1 X102.691 Y76.375 E.04162
G1 X103.589 Y76.192 E.03981
G1 X104.492 Y76.033 E.03979
G1 X105.627 Y75.868 E.04977
G1 X107.467 Y75.683 E.08027
G1 X108.596 Y75.618 E.04909
G1 X109.912 Y75.59 E.05716
G1 X111.058 Y75.606 E.04977
G1 X112.034 Y75.65 E.04237
G1 X112.948 Y75.716 E.03978
G1 X114.257 Y75.854 E.05717
G1 X115.393 Y76.015 E.04977
G1 X116.296 Y76.17 E.03978
G1 X117.253 Y76.363 E.04239
G1 X118.243 Y76.592 E.04411
G1 X118.39 Y76.576 E.00641
G1 X118.481 Y76.497 E.00524
G1 X118.804 Y76.006 E.02551
G1 X119.124 Y75.579 E.02315
G1 X119.761 Y74.854 E.0419
G1 X120.153 Y74.474 E.02369
G1 X120.589 Y74.1 E.02494
G1 X121.031 Y73.764 E.0241
G1 X121.502 Y73.448 E.02463
G1 X121.975 Y73.171 E.02379
G1 X122.486 Y72.91 E.02493
G1 X122.989 Y72.691 E.02379
G1 X123.526 Y72.493 E.02483
G1 X124.418 Y72.244 E.04022
G1 X124.98 Y72.135 E.02484
G1 X125.522 Y72.062 E.02374
G1 X126.276 Y72.014 E.03278
G1 X127.018 Y72.025 E.03222
G1 X127.763 Y72.096 E.03249
G1 X128.5 Y72.226 E.03248
G1 X129.224 Y72.414 E.03248
G1 X129.931 Y72.659 E.03247
G1 X130.623 Y72.962 E.03279
G1 X131.275 Y73.312 E.03212
G1 X132.068 Y73.835 E.04125
G1 X132.661 Y74.309 E.03294
G1 X133.32 Y74.937 E.03951
G1 X133.938 Y75.657 E.04117
G1 X134.466 Y76.412 E.04002
G1 X134.93 Y77.239 E.04117
G1 X135.298 Y78.084 E.04002
G1 X135.588 Y78.982 E.04096
G1 X135.754 Y79.715 E.03263
G1 X135.877 Y80.63 E.04007
G1 X135.909 Y81.571 E.04087
G1 X135.848 Y82.498 E.04032
G1 X135.692 Y83.434 E.04117
G1 X135.451 Y84.323 E.04002
G1 X135.113 Y85.21 E.0412
G1 X134.773 Y85.906 E.03362
G1 X134.755 Y86.053 E.00641
G1 X134.811 Y86.158 E.00517
G1 X135.44 Y86.828 E.0399
G1 X136.308 Y87.819 E.05718
G1 X136.931 Y88.58 E.04268
G1 X137.59 Y89.435 E.04688
G1 X138.128 Y90.178 E.0398
G1 X138.678 Y90.983 E.04236
G1 X139.257 Y91.886 E.04653
G1 X139.767 Y92.737 E.04308
G1 X140.22 Y93.542 E.04011
G1 X140.748 Y94.552 E.04946
G1 X141.149 Y95.376 E.03979
G1 X141.618 Y96.422 E.04977
G1 X141.969 Y97.269 E.03978
G1 X142.433 Y98.502 E.05719
G1 X142.746 Y99.426 E.04235
G1 X143.054 Y100.435 E.04578
G1 X143.141 Y100.554 E.00641
G1 X143.255 Y100.593 E.00524
G1 X143.841 Y100.628 E.02546
G1 X144.585 Y100.724 E.03258
G1 X145.121 Y100.832 E.02374
G1 X145.688 Y100.982 E.02544
G1 X146.386 Y101.22 E.03202
G1 X146.89 Y101.432 E.02375
G1 X147.405 Y101.685 E.02488
G1 X148.052 Y102.061 E.03253
G1 X148.668 Y102.489 E.03253
G1 X149.099 Y102.834 E.02395
G1 X149.646 Y103.338 E.03233
G1 X150.039 Y103.755 E.02483
G1 X150.514 Y104.335 E.03258
G1 X150.83 Y104.781 E.0237
G1 X151.221 Y105.421 E.03258
G1 X151.485 Y105.93 E.02488
G1 X151.707 Y106.431 E.02379
G1 X151.909 Y106.969 E.02494
G1 X152.07 Y107.493 E.02379
G1 X152.204 Y108.042 E.02454
G1 X152.353 Y108.963 E.04051
G1 X152.399 Y109.534 E.02483
G1 X152.41 Y110.081 E.02379
G1 X152.387 Y110.656 E.02494
G1 X152.333 Y111.201 E.02379
G1 X152.242 Y111.768 E.02494
G1 X152.127 Y112.289 E.02315
G1 X151.845 Y113.212 E.0419
G1 X151.644 Y113.719 E.02369
G1 X151.401 Y114.239 E.02488
G1 X151.037 Y114.895 E.03258
G1 X150.739 Y115.353 E.02374
G1 X150.398 Y115.816 E.02494
G1 X150.047 Y116.236 E.02374
G1 X149.528 Y116.777 E.03257
G1 X149.103 Y117.162 E.02488
G1 X148.677 Y117.505 E.02375
G1 X148.062 Y117.933 E.03253
G1 X147.414 Y118.31 E.03253
G1 X146.9 Y118.564 E.02488
G1 X146.396 Y118.776 E.02375
G1 X145.686 Y119.019 E.03257
G1 X145.133 Y119.165 E.02484
G1 X144.396 Y119.306 E.03257
G1 X143.853 Y119.371 E.02374
G1 X143.255 Y119.407 E.02599
G1 X143.119 Y119.463 E.00641
G1 X143.054 Y119.565 E.00523
G1 X142.746 Y120.572 E.04569
G1 X142.433 Y121.496 E.04238
G1 X142.116 Y122.356 E.03977
G1 X141.686 Y123.419 E.04978
G1 X141.317 Y124.258 E.03979
G1 X140.749 Y125.447 E.05718
G1 X140.225 Y126.448 E.04906
G1 X139.768 Y127.261 E.04049
G1 X139.266 Y128.099 E.04239
G1 X138.77 Y128.878 E.04012
G1 X138.163 Y129.772 E.04688
G1 X137.591 Y130.563 E.04239
G1 X137.033 Y131.291 E.03978
G1 X136.309 Y132.179 E.04974
G1 X135.441 Y133.17 E.05719
G1 X134.811 Y133.842 E.04
G1 X134.751 Y133.977 E.00641
G1 X134.772 Y134.092 E.00508
G1 X135.189 Y134.967 E.04207
G1 X135.38 Y135.465 E.02315
G1 X135.557 Y136.024 E.02547
G1 X135.69 Y136.556 E.02379
G1 X135.796 Y137.12 E.02494
G1 X135.866 Y137.664 E.02379
G1 X135.904 Y138.237 E.02494
G1 X135.908 Y138.785 E.02379
G1 X135.878 Y139.35 E.02454
G1 X135.756 Y140.275 E.04051
G1 X135.636 Y140.834 E.02484
G1 X135.493 Y141.35 E.02325
G1 X135.302 Y141.906 E.02547
G1 X135.095 Y142.41 E.02369
G1 X134.664 Y143.259 E.04131
G1 X134.267 Y143.892 E.03243
G1 X133.821 Y144.491 E.03243
G1 X133.206 Y145.18 E.04006
G1 X132.507 Y145.822 E.04122
G1 X131.914 Y146.276 E.03243
G1 X131.285 Y146.681 E.03247
G1 X130.616 Y147.041 E.03299
G1 X129.778 Y147.399 E.03952
G1 X128.874 Y147.684 E.04117
G1 X127.97 Y147.873 E.04007
G1 X127.229 Y147.96 E.03239
G1 X126.28 Y147.986 E.04125
G1 X125.535 Y147.939 E.03238
G1 X124.621 Y147.799 E.04012
G1 X123.897 Y147.622 E.03238
G1 X122.999 Y147.313 E.04121
G1 X122.16 Y146.928 E.04007
G1 X121.512 Y146.558 E.03239
G1 X120.733 Y146.014 E.04125
G1 X120.162 Y145.534 E.03238
G1 X119.511 Y144.88 E.04007
G1 X118.912 Y144.143 E.04121
G1 X118.48 Y143.502 E.03358
G1 X118.362 Y143.413 E.00641
G1 X118.243 Y143.408 E.00515
G1 X117.255 Y143.637 E.04402
G1 X116.298 Y143.829 E.04239
G1 X115.395 Y143.985 E.03979
G1 X114.26 Y144.146 E.04977
G1 X113.349 Y144.247 E.0398
G1 X112.035 Y144.35 E.05718
G1 X111.061 Y144.394 E.04235
G1 X109.914 Y144.41 E.04976
G1 X108.982 Y144.395 E.04048
G1 X107.852 Y144.343 E.04912
G1 X106.938 Y144.274 E.03976
G1 X105.629 Y144.132 E.05718
G1 X104.648 Y143.992 E.043
G1 X103.591 Y143.809 E.04656
G1 X102.693 Y143.626 E.0398
G1 X101.757 Y143.409 E.04171
G1 X101.61 Y143.424 E.00641
G1 X101.52 Y143.502 E.00516
G1 X101.095 Y144.135 E.03308
G1 X100.496 Y144.871 E.04121
G1 X99.843 Y145.53 E.04027
G1 X99.115 Y146.13 E.04092
G1 X98.349 Y146.643 E.04007
G1 X97.695 Y147.002 E.03238
G1 X96.824 Y147.382 E.04121
G1 X95.947 Y147.665 E.04001
G1 X95.02 Y147.865 E.04117
G1 X94.104 Y147.969 E.04002
G1 X93.155 Y147.982 E.04121
G1 X92.398 Y147.924 E.03294
G1 X91.501 Y147.774 E.03952
G1 X90.585 Y147.526 E.04117
G1 X89.722 Y147.197 E.04007
G1 X89.051 Y146.871 E.03243
G1 X88.401 Y146.488 E.03273
G1 X87.793 Y146.061 E.03223
G1 X87.217 Y145.584 E.03248
G1 X86.681 Y145.063 E.03243
G1 X86.066 Y144.348 E.04096
G1 X85.628 Y143.734 E.03272
G1 X85.243 Y143.093 E.03249
G1 X84.91 Y142.421 E.03253
G1 X84.701 Y141.916 E.02374
G1 X84.514 Y141.373 E.02494
G1 X84.367 Y140.845 E.02378
G1 X84.247 Y140.291 E.02459
G1 X84.123 Y139.367 E.04047
G1 X84.092 Y138.796 E.02484
G1 X84.096 Y138.248 E.02379
G1 X84.133 Y137.675 E.02494
G1 X84.202 Y137.131 E.02379
G1 X84.306 Y136.573 E.02464
G1 X84.44 Y136.035 E.02407
G1 X84.612 Y135.487 E.02495
G1 X84.807 Y134.977 E.02368
G1 X85.228 Y134.093 E.04251
G1 X85.244 Y133.946 E.00641
G1 X85.189 Y133.843 E.00505
G1 X84.523 Y133.13 E.04236
G1 X83.877 Y132.398 E.0424
G1 X83.29 Y131.694 E.03977
G1 X82.582 Y130.792 E.04978
G1 X82.038 Y130.055 E.03979
G1 X81.291 Y128.97 E.05718
G1 X80.683 Y128.017 E.04906
G1 X80.205 Y127.215 E.04049
G1 X79.729 Y126.363 E.04239
G1 X79.301 Y125.544 E.04011
G1 X78.803 Y124.519 E.04946
G1 X78.336 Y123.472 E.04976
G1 X77.989 Y122.624 E.03978
G1 X77.529 Y121.39 E.05719
G1 X77.219 Y120.465 E.04235
G1 X76.947 Y119.566 E.04078
G1 X76.86 Y119.446 E.00641
G1 X76.745 Y119.407 E.00526
G1 X76.158 Y119.372 E.02554
G1 X75.615 Y119.308 E.02374
G1 X74.878 Y119.168 E.03258
G1 X74.324 Y119.022 E.02483
G1 X73.614 Y118.78 E.03257
G1 X73.104 Y118.566 E.02401
G1 X72.44 Y118.231 E.03227
G1 X71.948 Y117.939 E.02483
G1 X71.332 Y117.511 E.03257
G1 X70.906 Y117.17 E.0237
G1 X70.354 Y116.662 E.03257
G1 X69.961 Y116.245 E.02483
G1 X69.486 Y115.665 E.03257
G1 X69.17 Y115.219 E.0237
G1 X68.779 Y114.579 E.03258
G1 X68.516 Y114.07 E.02488
G1 X68.293 Y113.569 E.02379
G1 X68.091 Y113.031 E.02494
G1 X67.93 Y112.507 E.02379
G1 X67.795 Y111.956 E.02464
G1 X67.696 Y111.41 E.02407
G1 X67.627 Y110.84 E.02495
G1 X67.594 Y110.293 E.02379
G1 X67.594 Y109.718 E.02493
G1 X67.626 Y109.171 E.02379
G1 X67.694 Y108.602 E.02488
G1 X67.835 Y107.865 E.03257
G1 X67.975 Y107.336 E.02374
G1 X68.152 Y106.797 E.02464
G1 X68.356 Y106.281 E.02407
G1 X68.599 Y105.76 E.02495
G1 X68.86 Y105.278 E.02379
G1 X69.163 Y104.791 E.02493
G1 X69.479 Y104.344 E.02375
G1 X69.954 Y103.763 E.03258
G1 X70.346 Y103.346 E.02483
G1 X70.897 Y102.837 E.03258
G1 X71.324 Y102.494 E.02375
G1 X71.792 Y102.162 E.02493
G1 X72.262 Y101.87 E.024
G1 X72.919 Y101.521 E.03233
G1 X73.443 Y101.288 E.02488
G1 X73.956 Y101.096 E.02379
G1 X74.505 Y100.927 E.02493
G1 X75.038 Y100.797 E.02379
G1 X75.603 Y100.694 E.02493
G1 X76.147 Y100.629 E.02378
G1 X76.745 Y100.593 E.02602
G1 X76.882 Y100.537 E.00641
G1 X76.947 Y100.434 E.00526
G1 X77.218 Y99.538 E.04067
G1 X77.529 Y98.612 E.04239
G1 X77.843 Y97.751 E.03978
G1 X78.269 Y96.686 E.04978
G1 X78.635 Y95.846 E.03979
G1 X79.2 Y94.656 E.05717
G1 X79.72 Y93.653 E.04906
G1 X80.204 Y92.786 E.04308
G1 X80.681 Y91.986 E.04043
G1 X81.29 Y91.032 E.04915
G1 X81.805 Y90.274 E.03978
G1 X82.478 Y89.345 E.04977
G1 X83.038 Y88.62 E.03979
G1 X83.876 Y87.603 E.05718
G1 X84.521 Y86.871 E.04237
G1 X85.189 Y86.157 E.04245
G1 X85.249 Y86.022 E.00641
G1 X85.226 Y85.903 E.00525
G1 X84.962 Y85.378 E.0255
G1 X84.747 Y84.875 E.02374
G1 X84.499 Y84.167 E.03258
G1 X84.349 Y83.615 E.02483
G1 X84.204 Y82.879 E.03257
G1 X84.134 Y82.336 E.02374
G1 X84.096 Y81.763 E.02494
G1 X84.092 Y81.215 E.02379
G1 X84.122 Y80.642 E.02488
G1 X84.214 Y79.898 E.03257
G1 X84.318 Y79.361 E.02375
G1 X84.461 Y78.804 E.02493
G1 X84.628 Y78.284 E.02374
G1 X84.907 Y77.587 E.03257
G1 X85.156 Y77.07 E.02488
G1 X85.423 Y76.593 E.02374
G1 X85.833 Y75.965 E.03257
G1 X86.18 Y75.508 E.02489
G1 X86.502 Y75.132 E.02151
G1 X86.843 Y75.423 F18000
G1 F3000
G1 X86.863 Y75.4 E.00133
G1 X87.252 Y74.997 E.02432
G1 X87.778 Y74.525 E.03067
G1 X88.186 Y74.205 E.02253
G1 X88.637 Y73.894 E.02377
G1 X89.088 Y73.621 E.02287
G1 X89.719 Y73.297 E.03081
G1 X90.22 Y73.082 E.02365
G1 X90.718 Y72.903 E.02297
G1 X91.243 Y72.749 E.02378
G1 X91.749 Y72.633 E.02252
G1 X92.459 Y72.521 E.03122
G1 X92.998 Y72.474 E.02347
G1 X93.717 Y72.463 E.03121
G1 X94.234 Y72.49 E.02246
G1 X94.778 Y72.551 E.02378
G1 X95.292 Y72.641 E.02262
G1 X95.825 Y72.767 E.02378
G1 X96.321 Y72.916 E.02252
G1 X96.986 Y73.166 E.03081
G1 X97.481 Y73.393 E.02365
G1 X97.941 Y73.638 E.02263
G1 X98.413 Y73.927 E.024
G1 X98.99 Y74.339 E.03081
G1 X99.397 Y74.674 E.02287
G1 X99.793 Y75.041 E.02343
G1 X100.158 Y75.424 E.02297
G1 X100.512 Y75.841 E.02377
G1 X100.825 Y76.258 E.02261
G1 X101.138 Y76.734 E.02471
G1 X101.255 Y76.86 E.00747
G1 X101.347 Y76.93 E.00502
G1 X101.636 Y77.035 E.01336
G1 X101.727 Y77.039 E.00395
G1 X101.867 Y77.026 E.00608
G1 X102.784 Y76.813 E.04088
G1 X103.674 Y76.632 E.03944
G1 X104.565 Y76.476 E.03925
G1 X105.684 Y76.313 E.0491
G1 X107.505 Y76.13 E.07943
G1 X108.616 Y76.066 E.0483
G1 X109.916 Y76.038 E.05646
G1 X111.043 Y76.054 E.04893
G1 X112.009 Y76.097 E.04198
G1 X112.91 Y76.163 E.03921
G1 X114.2 Y76.299 E.05631
G1 X115.321 Y76.457 E.04915
G1 X116.212 Y76.611 E.03923
G1 X117.16 Y76.801 E.042
G1 X118.131 Y77.026 E.04325
G1 X118.418 Y77.024 E.01245
G1 X118.7 Y76.901 E.01336
G1 X118.769 Y76.841 E.00395
G1 X118.861 Y76.736 E.00608
G1 X119.169 Y76.267 E.02436
G1 X119.469 Y75.866 E.02174
G1 X120.09 Y75.159 E.04081
G1 X120.458 Y74.803 E.02226
G1 X120.868 Y74.451 E.02342
G1 X121.295 Y74.127 E.02328
G1 X121.737 Y73.83 E.02312
G1 X122.187 Y73.566 E.02263
G1 X122.682 Y73.314 E.02412
G1 X123.16 Y73.106 E.02263
G1 X123.659 Y72.922 E.02307
G1 X124.517 Y72.682 E.03867
G1 X125.049 Y72.578 E.02354
G1 X125.561 Y72.509 E.02246
G1 X126.281 Y72.463 E.03131
G1 X126.998 Y72.474 E.03114
G1 X127.708 Y72.542 E.03094
G1 X128.409 Y72.666 E.03093
G1 X129.099 Y72.845 E.03093
G1 X129.772 Y73.079 E.03092
G1 X130.421 Y73.364 E.03077
G1 X131.039 Y73.695 E.03044
G1 X131.799 Y74.195 E.03948
G1 X132.37 Y74.651 E.03171
G1 X132.998 Y75.251 E.03772
G1 X133.587 Y75.937 E.03924
G1 X134.089 Y76.657 E.03808
G1 X134.53 Y77.445 E.03923
G1 X134.881 Y78.25 E.03808
G1 X135.157 Y79.107 E.03909
G1 X135.313 Y79.801 E.03088
G1 X135.429 Y80.675 E.03827
G1 X135.459 Y81.558 E.03835
G1 X135.402 Y82.44 E.03837
G1 X135.255 Y83.331 E.03922
G1 X135.026 Y84.178 E.03808
G1 X134.704 Y85.026 E.03937
G1 X134.375 Y85.699 E.03251
G1 X134.326 Y85.864 E.00747
G1 X134.312 Y85.979 E.00503
G1 X134.367 Y86.275 E.01306
G1 X134.492 Y86.475 E.01025
G1 X135.109 Y87.132 E.03911
G1 X135.967 Y88.111 E.05652
G1 X136.581 Y88.86 E.04205
G1 X137.229 Y89.702 E.04613
G1 X137.762 Y90.437 E.03941
G1 X138.306 Y91.233 E.04181
G1 X138.874 Y92.12 E.04577
G1 X139.38 Y92.964 E.04268
G1 X139.826 Y93.758 E.03955
G1 X140.348 Y94.756 E.04888
G1 X140.743 Y95.568 E.0392
G1 X141.207 Y96.602 E.04918
G1 X141.552 Y97.436 E.03918
G1 X142.01 Y98.651 E.05636
G1 X142.319 Y99.566 E.04192
G1 X142.622 Y100.555 E.04491
G1 X142.699 Y100.709 E.00747
G1 X142.767 Y100.802 E.00502
G1 X143.015 Y100.985 E.01336
G1 X143.101 Y101.014 E.00394
G1 X143.238 Y101.041 E.00607
G1 X143.803 Y101.075 E.02458
G1 X144.507 Y101.167 E.03081
G1 X145.023 Y101.27 E.02285
G1 X145.562 Y101.413 E.0242
G1 X146.222 Y101.638 E.03027
G1 X146.708 Y101.842 E.02287
G1 X147.197 Y102.082 E.02364
G1 X147.816 Y102.443 E.03109
G1 X148.396 Y102.846 E.03065
G1 X148.802 Y103.171 E.02261
G1 X149.327 Y103.654 E.03097
G1 X149.698 Y104.047 E.02346
G1 X150.154 Y104.604 E.03122
G1 X150.452 Y105.024 E.02236
G1 X150.827 Y105.637 E.03122
G1 X151.078 Y106.121 E.02365
