; HEADER_BLOCK_START
; generated by AnycubicSlicerNext 1.3.2 on 2025-02-22 at 15:48:30
; total layer number: 5
; filament_density: 1.24
; filament_diameter: 1.75
; max_z_height: 1.04
; exclude_object: 0
; model_instances: 9
; HEADER_BLOCK_END

; THUMBNAIL_BLOCK_START

;
; THUMBNAIL_BLOCK_END

; external perimeters extrusion width = 0.42mm
; perimeters extrusion width = 0.45mm
; infill extrusion width = 0.45mm
; solid infill extrusion width = 0.42mm
; top infill extrusion width = 0.42mm
; first layer extrusion width = 0.50mm

; external perimeters extrusion width = 0.42mm
; perimeters extrusion width = 0.45mm
; infill extrusion width = 0.45mm
; solid infill extrusion width = 0.42mm
; top infill extrusion width = 0.42mm
; first layer extrusion width = 0.50mm

; external perimeters extrusion width = 0.42mm
; perimeters extrusion width = 0.45mm
; infill extrusion width = 0.45mm
; solid infill extrusion width = 0.42mm
; top infill extrusion width = 0.42mm
; first layer extrusion width = 0.50mm

; external perimeters extrusion width = 0.42mm
; perimeters extrusion width = 0.45mm
; infill extrusion width = 0.45mm
; solid infill extrusion width = 0.42mm
; top infill extrusion width = 0.42mm
; first layer extrusion width = 0.50mm

; external perimeters extrusion width = 0.42mm
; perimeters extrusion width = 0.45mm
; infill extrusion width = 0.45mm
; solid infill extrusion width = 0.42mm
; top infill extrusion width = 0.42mm
; first layer extrusion width = 0.50mm

; external perimeters extrusion width = 0.42mm
; perimeters extrusion width = 0.45mm
; infill extrusion width = 0.45mm
; solid infill extrusion width = 0.42mm
; top infill extrusion width = 0.42mm
; first layer extrusion width = 0.50mm

; external perimeters extrusion width = 0.42mm
; perimeters extrusion width = 0.45mm
; infill extrusion width = 0.45mm
; solid infill extrusion width = 0.42mm
; top infill extrusion width = 0.42mm
; first layer extrusion width = 0.50mm

; external perimeters extrusion width = 0.42mm
; perimeters extrusion width = 0.45mm
; infill extrusion width = 0.45mm
; solid infill extrusion width = 0.42mm
; top infill extrusion width = 0.42mm
; first layer extrusion width = 0.50mm

; external perimeters extrusion width = 0.42mm
; perimeters extrusion width = 0.45mm
; infill extrusion width = 0.45mm
; solid infill extrusion width = 0.42mm
; top infill extrusion width = 0.42mm
; first layer extrusion width = 0.50mm

; EXECUTABLE_BLOCK_START
M201 X2000 Y2000 Z800 E2000
M203 X300 Y300 Z8 E100
M204 P2000 R2000 T2000
M205 X10.00 Y10.00 Z2.00 E5.00 ; sets the jerk limits, mm/sec
;TYPE:Custom
G90 ; use absolute coordinates
M83 ; extruder relative mode
M104 S220 ; set extruder temp
M140 S60 ; set bed temp
M190 S60 ; wait for bed temp
M109 S220 ; wait for extruder temp
G28                                        ; move X/Y/Z to min endstops
G1 Z0.28                                   ; lift nozzle a bit 
G92 E0 
G1 Y3 F1800                                    ; zero the extruded length 
G1 X60  E25 F500                       ; Extrude 25mm of filament in a 5cm line. 
G92 E0                                     ; zero the extruded length again 
G1 E-2 F500                                ; Retract a little 
G1 X70 F4000                              ; Quickly wipe away from the filament line
M117
G90
G21
M82 ; use absolute distances for extrusion
G92 E0
; filament start gcode
M106 S0
;LAYER_CHANGE
;Z:0.24
;HEIGHT:0.24
; BEFORE_LAYER_CHANGE 0 @ 0.24mm
G1 E-2.5 F6000
G92 E0
; AFTER_LAYER_CHANGE 0 @ 0.24mm
;_SET_FAN_SPEED_CHANGING_LAYER
M204 P500
; printing object "AxisSpacer1mm4mm.stl" id:1447363859712 copy 0
M204 T500
G1 X125.127 Y118.438 F18000
G1 Z.24
G1 E2.5 F6000
;TYPE:Outer wall
;WIDTH:0.5
G1 F3000
G3 X124.01 Y118.325 I-1.126 J5.561 E3.99873
G1 X124.283 Y118.332 E4.01059
G3 X125.068 Y118.426 I-.282 J5.667 E4.04494
G1 X125.038 Y118.878 F18000
;TYPE:Inner wall
G1 F3000
G3 X124.008 Y118.774 I-1.038 J5.121 E5.42513
G1 X124.261 Y118.78 E5.43611
G3 X124.979 Y118.866 I-.261 J5.219 E5.46755
G1 E3.71755 F6000
;WIPE_START
G1 F3000
G1 X125.544 Y119.007 E3.28087
G1 X125.937 Y119.15 E2.96755
;WIPE_END
G92 E0
G1 X124.25 Y120.58 F18000
G1 E2.5 F6000
;TYPE:Outer wall
G1 F3000
G1 X125.23 Y119.733 E2.55622
G3 X128.052 Y122.223 I-1.353 J4.379 E2.72458
G3 X128.395 Y123.408 I-4.696 J1.999 E2.77826
G1 X127.42 Y124.25 E2.83417
G1 X128.265 Y125.227 E2.89024
G3 X124.592 Y128.395 I-4.313 J-1.288 E3.11257
G1 X123.75 Y127.42 E3.16848
G1 X122.773 Y128.265 E3.22455
G3 X119.605 Y124.592 I1.288 J-4.313 E3.44688
G1 X120.58 Y123.75 E3.50279
G1 X119.733 Y122.77 E3.55901
G3 X122.023 Y120.041 I4.388 J1.357 E3.71782
G3 X123.058 Y119.676 I2.037 J4.13 E3.76559
G1 X123.408 Y119.605 E3.78107
G1 X124.21 Y120.534 E3.83437
G1 X124.296 Y119.947 F18000
;TYPE:Inner wall
G1 F3000
G1 X125.141 Y119.217 E3.88286
G3 X126.596 Y119.875 I-2.343 J7.114 E3.95232
G3 X128.761 Y122.96 I-2.66 J4.169 E4.12017
G1 X128.887 Y123.575 E4.14742
G1 X128.053 Y124.296 E4.19526
G1 X128.778 Y125.136 E4.24343
G3 X127.854 Y126.984 I-6.09 J-1.892 E4.33352
G3 X125.039 Y128.761 I-3.908 J-3.07 E4.48087
G1 X124.424 Y128.887 E4.50811
G1 X123.704 Y128.053 E4.55596
G1 X122.864 Y128.778 E4.60412
G3 X120.921 Y127.778 I1.854 J-5.989 E4.69948
G3 X119.238 Y125.039 I3.167 J-3.832 E4.84155
G1 X119.113 Y124.425 E4.8688
G1 X119.947 Y123.704 E4.91664
G1 X119.217 Y122.859 E4.96513
G3 X119.921 Y121.333 I6.834 J2.228 E5.03823
G3 X122.96 Y119.238 I4.125 J2.733 E5.20244
G1 X123.575 Y119.113 E5.22969
G1 X124.257 Y119.902 E5.27493
; stop printing object AxisSpacer1mm4mm.stl id:1447363859712 copy 0
; printing object "AxisSpacer1mm4mm.stl" id:4585210127083352260 copy 0
G1 E3.52493 F6000
;WIPE_START
G1 F3000
G1 X125.047 Y119.289 E2.77493
;WIPE_END
G92 E0
G1 X124.848 Y90.389 F18000
G1 E2.5 F6000
;TYPE:Outer wall
G1 F3000
G3 X124.01 Y90.326 I-.847 J5.61 E4.01105
G1 X124.283 Y90.333 E4.02291
G3 X124.788 Y90.38 I-.282 J5.667 E4.04495
G1 X124.78 Y90.839 F18000
;TYPE:Inner wall
G1 F3000
G1 X125.038 Y90.878 E4.05629
G3 X124.008 Y90.774 I-1.038 J5.121 E5.43647
G1 X124.261 Y90.781 E5.44745
G3 X124.522 Y90.8 I-.261 J5.219 E5.45881
G1 X124.72 Y90.83 E5.46754
G1 E3.71754 F6000
;WIPE_START
G1 F3000
G1 X125.038 Y90.878 E3.47661
G1 X125.544 Y91.007 E3.08481
G1 X125.691 Y91.061 E2.96754
;WIPE_END
G92 E0
G1 X127.317 Y95.131 F18000
G1 E2.5 F6000
;TYPE:Outer wall
G1 F3000
G1 X128.432 Y95.783 E2.55607
G3 X126.47 Y99.672 I-4.479 J.179 E2.7535
G1 X125.987 Y99.972 E2.77818
G1 X124.869 Y99.318 E2.8344
G1 X124.217 Y100.433 E2.89047
G3 X120.328 Y98.471 I-.179 J-4.479 E3.0879
G1 X120.029 Y97.988 E3.11258
G1 X120.682 Y96.87 E3.1688
G1 X119.567 Y96.218 E3.22487
G3 X122.016 Y92.031 I4.533 J-.158 E3.44699
G1 X123.131 Y92.683 E3.50306
G1 X123.459 Y92.122 E3.53126
G1 X123.784 Y91.565 E3.55928
G3 X127.185 Y92.928 I.127 J4.604 E3.72282
G3 X127.971 Y94.013 I-4.7 J4.235 E3.7811
G1 X127.348 Y95.079 E3.83472
G1 X127.931 Y94.97 F18000
;TYPE:Inner wall
G1 F3000
G1 X128.889 Y95.53 E3.88288
G3 X128.649 Y97.463 I-6.529 J.171 E3.96772
G3 X126.719 Y100.046 I-4.672 J-1.479 E4.11035
G1 X125.994 Y100.495 E4.14736
G1 X125.03 Y99.931 E4.19584
G1 X124.47 Y100.889 E4.24401
G3 X122.538 Y100.65 I-.171 J-6.529 E4.32884
G3 X119.955 Y98.719 I1.479 J-4.672 E4.47148
G1 X119.505 Y97.995 E4.50849
G1 X120.069 Y97.03 E4.55697
G1 X119.111 Y96.47 E4.60514
G3 X119.356 Y94.52 I6.509 J-.172 E4.69079
G3 X121.379 Y91.891 I4.664 J1.496 E4.83765
G1 X122.012 Y91.509 E4.86977
G1 X122.97 Y92.069 E4.91793
G1 X123.072 Y91.896 E4.92667
G1 X123.534 Y91.105 E4.96642
G3 X124.638 Y91.168 I.045 J8.879 E5.01447
G3 X128.045 Y93.282 I-.658 J4.863 E5.19374
G1 X128.495 Y94.006 E5.23076
G1 X127.961 Y94.919 E5.27664
; stop printing object AxisSpacer1mm4mm.stl id:4585210127083352260 copy 0
; printing object "AxisSpacer1mm4mm.stl" id:1447363870208 copy 0
G1 E3.52664 F6000
;WIPE_START
G1 F3000
G1 X128.796 Y95.469 E2.77664
;WIPE_END
G92 E0
G1 X124.848 Y104.389 F18000
G1 E2.5 F6000
;TYPE:Outer wall
G1 F3000
G3 X124.01 Y104.325 I-.847 J5.61 E4.01105
G1 X124.283 Y104.332 E4.02291
G3 X124.788 Y104.38 I-.282 J5.667 E4.04495
G1 X124.78 Y104.839 F18000
;TYPE:Inner wall
G1 F3000
G1 X125.038 Y104.878 E4.05629
G3 X124.008 Y104.774 I-1.038 J5.121 E5.43647
G1 X124.261 Y104.78 E5.44745
G3 X124.521 Y104.8 I-.261 J5.219 E5.45881
G1 X124.72 Y104.83 E5.46754
G1 E3.71754 F6000
;WIPE_START
G1 F3000
G1 X125.038 Y104.878 E3.47661
G1 X125.544 Y105.007 E3.08481
G1 X125.691 Y105.061 E2.96754
;WIPE_END
G92 E0
G1 X127.317 Y109.131 F18000
G1 E2.5 F6000
;TYPE:Outer wall
G1 F3000
G1 X128.432 Y109.783 E2.55607
G3 X126.47 Y113.672 I-4.479 J.179 E2.7535
G1 X125.987 Y113.971 E2.77818
G1 X124.869 Y113.318 E2.8344
G1 X124.217 Y114.433 E2.89047
G3 X120.328 Y112.47 I-.179 J-4.479 E3.0879
G1 X120.028 Y111.987 E3.11258
G1 X120.682 Y110.869 E3.1688
G1 X119.567 Y110.217 E3.22487
G3 X122.015 Y106.031 I4.533 J-.158 E3.44699
G1 X123.13 Y106.683 E3.50306
G1 X123.458 Y106.122 E3.53126
G1 X123.784 Y105.565 E3.55928
G3 X127.185 Y106.928 I.127 J4.604 E3.72282
G3 X127.971 Y108.013 I-4.7 J4.235 E3.7811
G1 X127.347 Y109.079 E3.83472
G1 X127.931 Y108.97 F18000
;TYPE:Inner wall
G1 F3000
G1 X128.889 Y109.53 E3.88288
G3 X128.649 Y111.462 I-6.529 J.171 E3.96772
G3 X126.718 Y114.045 I-4.672 J-1.479 E4.11035
G1 X125.994 Y114.495 E4.14736
G1 X125.03 Y113.931 E4.19584
G1 X124.47 Y114.889 E4.24401
G3 X122.537 Y114.649 I-.171 J-6.529 E4.32884
G3 X119.955 Y112.719 I1.479 J-4.672 E4.47148
G1 X119.505 Y111.994 E4.50849
G1 X120.069 Y111.03 E4.55697
G1 X119.111 Y110.47 E4.60514
G3 X119.356 Y108.52 I6.509 J-.172 E4.69079
G3 X121.378 Y105.891 I4.664 J1.496 E4.83765
G1 X122.012 Y105.509 E4.86977
G1 X122.97 Y106.069 E4.91793
G1 X123.071 Y105.895 E4.92667
G1 X123.534 Y105.105 E4.96642
G3 X124.638 Y105.168 I.045 J8.879 E5.01447
G3 X128.045 Y107.281 I-.658 J4.863 E5.19374
G1 X128.495 Y108.006 E5.23076
G1 X127.961 Y108.918 E5.27664
; stop printing object AxisSpacer1mm4mm.stl id:1447363870208 copy 0
; printing object "AxisSpacer1mm4mm.stl" id:1447363876864 copy 0
G1 E3.52664 F6000
;WIPE_START
G1 F3000
G1 X128.796 Y109.469 E2.77664
;WIPE_END
G92 E0
G1 X110.33 Y104.335 F18000
G1 E2.5 F6000
;TYPE:Outer wall
G1 F3000
G3 X110.131 Y104.327 I-.327 J5.665 E4.03894
G1 X110.27 Y104.332 E4.04495
G1 X110.302 Y104.782 F18000
;TYPE:Inner wall
G1 F3000
G3 X110.123 Y104.775 I-.3 J5.217 E5.46237
G1 X110.242 Y104.78 E5.46755
G1 E3.71755 F6000
;WIPE_START
G1 F3000
G1 X110.565 Y104.804 E3.47463
G1 X111.081 Y104.887 E3.08288
G1 X111.229 Y104.926 E2.96755
;WIPE_END
G92 E0
G1 X106.575 Y110.179 F18000
G1 E2.5 F6000
;TYPE:Outer wall
G1 F3000
G1 X105.616 Y109.314 E2.55607
G3 X108.861 Y105.71 I4.471 J.763 E2.77819
G1 X109.821 Y106.575 E2.83428
G1 X110.399 Y105.934 E2.87176
G1 X110.686 Y105.615 E2.89035
G3 X114.292 Y108.859 I-.79 J4.504 E3.11226
G1 X113.425 Y109.821 E3.16848
G1 X114.384 Y110.686 E3.22455
G3 X111.675 Y114.096 I-4.423 J-.733 E3.42198
G1 X111.141 Y114.292 E3.44666
G1 X110.179 Y113.425 E3.50288
G1 X109.314 Y114.384 E3.55895
G3 X105.905 Y111.677 I.734 J-4.425 E3.75626
G1 X105.708 Y111.141 E3.78105
G1 X106.535 Y110.223 E3.83467
G1 X105.942 Y110.212 F18000
;TYPE:Inner wall
G1 F3000
G1 X105.117 Y109.469 E3.88283
G3 X105.744 Y107.625 I6.429 J1.156 E3.96767
G3 X108.248 Y105.452 I4.273 J2.394 E4.11452
G1 X108.963 Y105.198 E4.14744
G1 X109.788 Y105.942 E4.19566
G1 X110.066 Y105.633 E4.21367
G1 X110.531 Y105.117 E4.24382
G3 X112.476 Y105.802 I-1.12 J6.288 E4.33373
G3 X114.511 Y108.153 I-2.502 J4.221 E4.47104
G1 X114.806 Y108.958 E4.50829
G1 X114.058 Y109.788 E4.55678
G1 X114.883 Y110.531 E4.60494
G3 X114.256 Y112.374 I-6.429 J-1.156 E4.68978
G3 X111.842 Y114.512 I-4.275 J-2.396 E4.83241
G1 X111.041 Y114.806 E4.86942
G1 X110.212 Y114.058 E4.91791
G1 X109.469 Y114.883 E4.96607
G3 X107.625 Y114.256 I1.156 J-6.429 E5.05091
G3 X105.489 Y111.847 I2.397 J-4.277 E5.1933
G1 X105.194 Y111.041 E5.23055
G1 X105.902 Y110.256 E5.27643
; stop printing object AxisSpacer1mm4mm.stl id:1447363876864 copy 0
; printing object "AxisSpacer1mm4mm.stl" id:1447363869952 copy 0
G1 E3.52643 F6000
;WIPE_START
G1 F3000
G1 X105.196 Y109.548 E2.77643
;WIPE_END
G92 E0
G1 X110.306 Y118.333 F18000
G1 E2.5 F6000
;TYPE:Outer wall
G1 F3000
G3 X110.108 Y118.326 I-.304 J5.666 E4.03894
G1 X110.246 Y118.331 E4.04495
G1 X110.28 Y118.781 F18000
;TYPE:Inner wall
G1 F3000
G3 X110.101 Y118.775 I-.278 J5.218 E5.46237
G1 X110.22 Y118.779 E5.46755
G1 E3.71755 F6000
;WIPE_START
G1 F3000
G1 X110.543 Y118.802 E3.47463
G1 X111.059 Y118.882 E3.08282
G1 X111.208 Y118.921 E2.96755
;WIPE_END
G92 E0
G1 X113.42 Y124.25 F18000
G1 E2.5 F6000
;TYPE:Outer wall
G1 F3000
G1 X114.267 Y125.23 E2.55622
G3 X111.977 Y127.959 I-4.388 J-1.357 E2.71503
G3 X110.592 Y128.395 I-2.27 J-4.792 E2.77825
G1 X109.75 Y127.42 E2.83417
G1 X108.77 Y128.267 E2.89037
G3 X105.605 Y124.592 I1.342 J-4.356 E3.11237
G1 X106.58 Y123.75 E3.16828
G1 X105.733 Y122.77 E3.2245
G3 X108.122 Y119.993 I4.422 J1.388 E3.38799
G3 X109.073 Y119.673 I1.942 J4.201 E3.43163
G1 X109.408 Y119.605 E3.44645
G1 X110.25 Y120.579 E3.50236
G1 X111.23 Y119.733 E3.55858
G3 X113.959 Y122.023 I-1.39 J4.427 E3.7173
G3 X114.395 Y123.408 I-4.792 J2.27 E3.78052
G1 X113.466 Y124.21 E3.83383
G1 X114.053 Y124.296 F18000
;TYPE:Inner wall
G1 F3000
G1 X114.783 Y125.141 E3.88231
G3 X114.069 Y126.683 I-6.812 J-2.219 E3.95624
G3 X111.039 Y128.761 I-4.096 J-2.723 E4.11968
G1 X110.425 Y128.887 E4.14693
G1 X109.704 Y128.053 E4.19477
G1 X108.859 Y128.783 E4.24323
G3 X107.333 Y128.079 I2.245 J-6.877 E4.31634
G3 X105.238 Y125.039 I2.733 J-4.125 E4.48056
G1 X105.113 Y124.424 E4.5078
G1 X105.947 Y123.704 E4.55565
G1 X105.217 Y122.859 E4.60413
G3 X105.931 Y121.317 I6.812 J2.219 E4.67806
G3 X108.979 Y119.235 I4.114 J2.75 E4.84225
G1 X109.575 Y119.113 E4.86869
G1 X110.296 Y119.947 E4.91654
G1 X111.141 Y119.217 E4.96502
G3 X112.165 Y119.633 I-2.826 J8.415 E5.01305
G3 X114.761 Y122.96 I-2.212 J4.402 E5.20235
G1 X114.887 Y123.575 E5.22959
G1 X114.098 Y124.257 E5.27484
; stop printing object AxisSpacer1mm4mm.stl id:1447363869952 copy 0
; printing object "AxisSpacer1mm4mm.stl" id:4716654428648453833 copy 0
G1 E3.52484 F6000
;WIPE_START
G1 F3000
G1 X114.71 Y125.047 E2.77484
;WIPE_END
G92 E0
G1 X96.306 Y118.333 F18000
G1 E2.5 F6000
;TYPE:Outer wall
G1 F3000
G3 X96.108 Y118.326 I-.304 J5.666 E4.03894
G1 X96.246 Y118.331 E4.04495
G1 X96.28 Y118.781 F18000
;TYPE:Inner wall
G1 F3000
G3 X96.101 Y118.775 I-.278 J5.218 E5.46237
G1 X96.22 Y118.779 E5.46755
G1 E3.71755 F6000
;WIPE_START
G1 F3000
G1 X96.543 Y118.802 E3.47463
G1 X97.06 Y118.882 E3.08282
G1 X97.208 Y118.921 E2.96755
;WIPE_END
G92 E0
G1 X99.421 Y124.25 F18000
G1 E2.5 F6000
;TYPE:Outer wall
G1 F3000
G1 X100.267 Y125.23 E2.55622
G3 X97.977 Y127.959 I-4.388 J-1.357 E2.71503
G3 X96.592 Y128.395 I-2.27 J-4.792 E2.77825
G1 X95.75 Y127.42 E2.83417
G1 X94.77 Y128.267 E2.89037
G3 X91.605 Y124.592 I1.342 J-4.356 E3.11237
G1 X92.58 Y123.75 E3.16828
G1 X91.733 Y122.77 E3.2245
G3 X94.122 Y119.993 I4.422 J1.388 E3.38799
G3 X95.073 Y119.673 I1.942 J4.201 E3.43163
G1 X95.408 Y119.605 E3.44645
G1 X96.25 Y120.579 E3.50236
G1 X97.23 Y119.733 E3.55858
G3 X99.959 Y122.023 I-1.39 J4.427 E3.7173
G3 X100.395 Y123.408 I-4.792 J2.27 E3.78052
G1 X99.466 Y124.21 E3.83383
G1 X100.053 Y124.296 F18000
;TYPE:Inner wall
G1 F3000
G1 X100.783 Y125.141 E3.88231
G3 X100.069 Y126.683 I-6.812 J-2.219 E3.95624
G3 X97.04 Y128.761 I-4.096 J-2.723 E4.11968
G1 X96.425 Y128.887 E4.14693
G1 X95.704 Y128.053 E4.19477
G1 X94.859 Y128.783 E4.24323
G3 X93.333 Y128.079 I2.245 J-6.877 E4.31634
G3 X91.239 Y125.039 I2.733 J-4.125 E4.48056
