; HEADER_BLOCK_START
; generated by AnycubicSlicerNext 1.3.2 on 2025-02-17 at 20:00:54
; total layer number: 35
; filament_density: 1.24
; filament_diameter: 1.75
; max_z_height: 7.04
; exclude_object: 0
; model_instances: 1
; HEADER_BLOCK_END

; THUMBNAIL_BLOCK_START

;
; THUMBNAIL_BLOCK_END

; external perimeters extrusion width = 0.42mm
; perimeters extrusion width = 0.45mm
; infill extrusion width = 0.45mm
; solid infill extrusion width = 0.42mm
; top infill extrusion width = 0.42mm
; first layer extrusion width = 0.50mm

; EXECUTABLE_BLOCK_START
M201 X2000 Y2000 Z800 E2000
M203 X300 Y300 Z8 E100
M204 P2000 R2000 T2000
M205 X10.00 Y10.00 Z2.00 E5.00 ; sets the jerk limits, mm/sec
;TYPE:Custom
G90 ; use absolute coordinates
M83 ; extruder relative mode
M104 S220 ; set extruder temp
M140 S60 ; set bed temp
M190 S60 ; wait for bed temp
M109 S220 ; wait for extruder temp
G28                                        ; move X/Y/Z to min endstops
G1 Z0.28                                   ; lift nozzle a bit 
G92 E0 
G1 Y3 F1800                                    ; zero the extruded length 
G1 X60  E25 F500                       ; Extrude 25mm of filament in a 5cm line. 
G92 E0                                     ; zero the extruded length again 
G1 E-2 F500                                ; Retract a little 
G1 X70 F4000                              ; Quickly wipe away from the filament line
M117
G90
G21
M82 ; use absolute distances for extrusion
G92 E0
; filament start gcode
M106 S0
;LAYER_CHANGE
;Z:0.24
;HEIGHT:0.24
; BEFORE_LAYER_CHANGE 0 @ 0.24mm
G1 E-2.5 F6000
G92 E0
; AFTER_LAYER_CHANGE 0 @ 0.24mm
;_SET_FAN_SPEED_CHANGING_LAYER
M204 P500
; printing object "GetriebeM4.stl" id:7881137038708797440 copy 0
M204 T500
G1 X81.643 Y84.346 F18000
G1 Z.24
G1 E2.5 F6000
;TYPE:Brim
;WIDTH:0.5
G1 F3000
G1 X82.051 Y83.993 E2.5234
G1 X82.493 Y83.682 E2.54686
G1 X82.863 Y83.468 E2.56542
G1 X83.233 Y83.295 E2.58313
G1 X83.338 Y83.192 E2.58955
G1 X83.592 Y82.681 E2.61429
G1 X83.88 Y82.226 E2.63768
G1 X84.212 Y81.801 E2.6611
G1 X84.585 Y81.411 E2.6845
G1 X84.994 Y81.062 E2.70786
G1 X85.532 Y80.695 E2.73614
G1 X86.008 Y80.442 E2.75954
G1 X86.402 Y80.276 E2.7781
G1 X86.791 Y80.151 E2.79583
G1 X86.909 Y80.061 E2.80225
G1 X87.219 Y79.594 E2.82658
G1 X87.642 Y79.09 E2.85515
G1 X88.033 Y78.718 E2.87859
G1 X88.367 Y78.452 E2.89713
G1 X88.819 Y78.155 E2.92058
G1 X89.296 Y77.905 E2.94399
G1 X89.797 Y77.703 E2.9674
G1 X90.315 Y77.553 E2.99082
G1 X90.715 Y77.477 E3.00849
G1 X90.843 Y77.403 E3.0149
G1 X91.215 Y76.973 E3.03959
G1 X91.607 Y76.603 E3.06299
G1 X92.127 Y76.211 E3.09126
G1 X92.59 Y75.937 E3.11462
G1 X93.087 Y75.706 E3.13841
G1 X93.588 Y75.531 E3.16146
G1 X94.113 Y75.404 E3.1849
G1 X94.536 Y75.341 E3.20345
G1 X94.943 Y75.317 E3.22115
G1 X95.079 Y75.26 E3.22757
G1 X95.502 Y74.879 E3.25227
G1 X95.938 Y74.562 E3.27567
G1 X96.503 Y74.238 E3.30394
G1 X96.996 Y74.023 E3.3273
G1 X97.51 Y73.858 E3.35071
G1 X98.037 Y73.746 E3.37412
G1 X98.574 Y73.686 E3.39757
G1 X99.008 Y73.677 E3.41643
G1 X99.409 Y73.703 E3.43385
G1 X99.551 Y73.663 E3.44027
G1 X100.024 Y73.336 E3.46524
G1 X100.592 Y73.03 E3.49323
G1 X101.092 Y72.828 E3.51662
G1 X101.5 Y72.704 E3.53516
G1 X102.029 Y72.594 E3.55861
G1 X102.565 Y72.537 E3.58202
G1 X103.105 Y72.534 E3.60543
G1 X103.642 Y72.585 E3.62885
G1 X104.042 Y72.662 E3.64653
G1 X104.188 Y72.64 E3.65295
G1 X104.693 Y72.376 E3.67768
G1 X105.193 Y72.178 E3.70102
G1 X105.821 Y72.005 E3.7293
G1 X106.352 Y71.92 E3.75265
G1 X106.899 Y71.888 E3.77645
G1 X107.429 Y71.91 E3.79949
G1 X107.964 Y71.985 E3.82293
G1 X108.38 Y72.083 E3.84149
G1 X108.769 Y72.209 E3.85921
G1 X108.916 Y72.206 E3.86563
G1 X109.45 Y72.008 E3.89035
G1 X109.972 Y71.873 E3.91374
G1 X110.511 Y71.79 E3.93741
G1 X111.155 Y71.763 E3.9654
G1 X111.691 Y71.798 E3.98874
G1 X112.223 Y71.888 E4.01214
G1 X112.753 Y72.033 E4.03599
G1 X113.148 Y72.179 E4.05426
G1 X113.515 Y72.353 E4.07189
G1 X113.661 Y72.369 E4.0783
G1 X114.222 Y72.238 E4.10328
G1 X114.862 Y72.163 E4.13126
G1 X115.401 Y72.159 E4.15465
G1 X115.827 Y72.194 E4.1732
G1 X116.359 Y72.286 E4.19664
G1 X116.878 Y72.431 E4.22005
G1 X117.387 Y72.63 E4.24376
G1 X117.864 Y72.873 E4.26699
G1 X118.206 Y73.091 E4.28459
G1 X118.35 Y73.125 E4.29101
G1 X118.918 Y73.065 E4.31582
G1 X119.455 Y73.064 E4.3391
G1 X119.99 Y73.117 E4.36247
G1 X120.627 Y73.251 E4.39074
G1 X121.147 Y73.423 E4.41448
G1 X121.632 Y73.638 E4.43753
G1 X122.101 Y73.905 E4.46097
G1 X122.452 Y74.149 E4.47951
G1 X122.767 Y74.41 E4.49725
G1 X122.905 Y74.462 E4.50367
G1 X123.475 Y74.474 E4.52839
G1 X124.015 Y74.541 E4.55203
G1 X124.642 Y74.691 E4.58003
G1 X125.149 Y74.872 E4.60337
G1 X125.636 Y75.104 E4.62677
G1 X126.104 Y75.388 E4.65057
G1 X126.53 Y75.707 E4.67366
G1 X126.847 Y75.992 E4.6922
G1 X127.127 Y76.291 E4.70995
G1 X127.258 Y76.36 E4.71637
G1 X127.822 Y76.443 E4.74113
G1 X128.45 Y76.61 E4.76934
G1 X128.849 Y76.76 E4.78782
G1 X129.336 Y76.994 E4.81128
G1 X129.796 Y77.276 E4.83469
G1 X130.225 Y77.601 E4.85809
G1 X130.621 Y77.968 E4.8815
G1 X130.978 Y78.373 E4.90493
G1 X131.216 Y78.703 E4.92261
G1 X131.338 Y78.787 E4.92903
G1 X131.886 Y78.941 E4.95374
G1 X132.393 Y79.141 E4.9774
G1 X132.963 Y79.442 E5.00539
G1 X133.408 Y79.743 E5.02873
G1 X133.823 Y80.089 E5.05214
G1 X134.201 Y80.473 E5.07555
G1 X134.539 Y80.895 E5.09901
G1 X134.775 Y81.25 E5.11754
G1 X134.972 Y81.609 E5.1353
G1 X135.082 Y81.708 E5.14171
G1 X135.607 Y81.929 E5.16643
G1 X136.079 Y82.187 E5.18982
G1 X136.523 Y82.492 E5.21318
G1 X137.017 Y82.917 E5.24146
G1 X137.384 Y83.31 E5.26481
G1 X137.71 Y83.739 E5.28822
G1 X137.993 Y84.2 E5.31168
G1 X138.183 Y84.583 E5.33023
G1 X138.333 Y84.963 E5.34796
G1 X138.43 Y85.074 E5.35438
G1 X138.922 Y85.359 E5.37906
G1 X139.445 Y85.746 E5.40732
G1 X139.841 Y86.112 E5.43073
G1 X140.127 Y86.429 E5.44926
G1 X140.452 Y86.861 E5.4727
G1 X140.728 Y87.315 E5.49579
G1 X140.964 Y87.808 E5.51949
G1 X141.147 Y88.316 E5.54296
G1 X141.248 Y88.711 E5.56065
G1 X141.33 Y88.834 E5.56706
G1 X141.783 Y89.179 E5.59178
G1 X142.177 Y89.547 E5.61518
G1 X142.531 Y89.952 E5.63854
G1 X142.903 Y90.486 E5.66681
G1 X143.161 Y90.959 E5.69017
G1 X143.371 Y91.456 E5.71358
G1 X143.53 Y91.97 E5.73695
G1 X143.618 Y92.382 E5.75526
G1 X143.67 Y92.795 E5.77332
G1 X143.735 Y92.928 E5.77973
G1 X144.142 Y93.326 E5.80446
G1 X144.485 Y93.74 E5.82779
G1 X144.841 Y94.279 E5.85581
G1 X145.089 Y94.762 E5.87941
G1 X145.286 Y95.265 E5.90285
G1 X145.431 Y95.782 E5.92617
G1 X145.524 Y96.31 E5.94944
G1 X145.561 Y96.741 E5.96822
G1 X145.56 Y97.151 E5.986
G1 X145.609 Y97.29 E5.99242
G1 X145.963 Y97.737 E6.01714
G1 X146.252 Y98.192 E6.04054
G1 X146.495 Y98.672 E6.0639
G1 X146.723 Y99.282 E6.09217
G1 X146.855 Y99.804 E6.11553
G1 X146.934 Y100.337 E6.13893
G1 X146.96 Y100.877 E6.16239
G1 X146.942 Y101.304 E6.18093
G1 X146.891 Y101.709 E6.19867
G1 X146.921 Y101.853 E6.20508
G1 X147.215 Y102.34 E6.22976
G1 X147.446 Y102.828 E6.25321
G1 X147.627 Y103.336 E6.27662
G1 X147.756 Y103.859 E6.29997
G1 X147.842 Y104.504 E6.32825
G1 X147.854 Y105.042 E6.35161
G1 X147.812 Y105.581 E6.37506
G1 X147.741 Y106.003 E6.39362
G1 X147.639 Y106.398 E6.41135
G1 X147.651 Y106.545 E6.41777
G1 X147.882 Y107.065 E6.44244
G1 X148.078 Y107.686 E6.47071
G1 X148.183 Y108.214 E6.49411
G1 X148.228 Y108.639 E6.51265
G1 X148.237 Y109.179 E6.53611
G1 X148.192 Y109.717 E6.55952
G1 X148.094 Y110.247 E6.58292
G1 X147.944 Y110.765 E6.60635
G1 X147.793 Y111.144 E6.62401
G1 X147.787 Y111.291 E6.63043
G1 X147.951 Y111.836 E6.65512
G1 X148.053 Y112.366 E6.67856
G1 X148.102 Y112.902 E6.70192
G1 X148.089 Y113.553 E6.7302
G1 X148.02 Y114.087 E6.75355
G1 X147.898 Y114.612 E6.77695
G1 X147.723 Y115.123 E6.80042
G1 X147.549 Y115.514 E6.81898
G1 X147.352 Y115.871 E6.83669
G1 X147.327 Y116.017 E6.8431
G1 X147.422 Y116.578 E6.8678
G1 X147.457 Y117.117 E6.89124
G1 X147.438 Y117.654 E6.91458
G1 X147.345 Y118.293 E6.9426
G1 X147.208 Y118.819 E6.9662
G1 X147.021 Y119.324 E6.98955
G1 X146.786 Y119.805 E7.01282
G1 X146.563 Y120.176 E7.0316
G1 X146.322 Y120.507 E7.04938
G1 X146.279 Y120.648 E7.05579
G1 X146.302 Y121.217 E7.08052
G1 X146.27 Y121.754 E7.10385
G1 X146.16 Y122.39 E7.13187
G1 X146.01 Y122.912 E7.15547
G1 X145.809 Y123.414 E7.17891
G1 X145.56 Y123.892 E7.20232
G1 X145.264 Y124.344 E7.22578
G1 X144.999 Y124.679 E7.2443
G1 X144.718 Y124.976 E7.26205
G1 X144.658 Y125.111 E7.26846
G1 X144.61 Y125.678 E7.29314
G1 X144.51 Y126.208 E7.31659
G1 X144.358 Y126.725 E7.33998
G1 X144.158 Y127.218 E7.36307
G1 X143.904 Y127.7 E7.38672
G1 X143.538 Y128.24 E7.41504
G1 X143.188 Y128.65 E7.43845
G1 X142.883 Y128.95 E7.45699
G1 X142.568 Y129.209 E7.47471
G1 X142.491 Y129.335 E7.48113
G1 X142.372 Y129.892 E7.50583
G1 X142.166 Y130.509 E7.53409
G1 X141.94 Y130.999 E7.55749
G1 X141.727 Y131.369 E7.57603
G1 X141.417 Y131.812 E7.59949
G1 X141.065 Y132.22 E7.62289
G1 X140.669 Y132.596 E7.6466
G1 X140.245 Y132.923 E7.66983
G1 X139.903 Y133.14 E7.68739
G1 X139.811 Y133.255 E7.69381
G1 X139.624 Y133.792 E7.7185
G1 X139.396 Y134.28 E7.74189
G1 X139.056 Y134.836 E7.77017
G1 X138.727 Y135.262 E7.79353
G1 X138.357 Y135.654 E7.81694
G1 X137.949 Y136.007 E7.84034
G1 X137.507 Y136.318 E7.8638
G1 X137.137 Y136.532 E7.88235
G1 X136.767 Y136.705 E7.90007
G1 X136.662 Y136.808 E7.90649
G1 X136.408 Y137.319 E7.93123
G1 X136.12 Y137.774 E7.95462
G1 X135.788 Y138.199 E7.97804
G1 X135.415 Y138.589 E8.00144
G1 X135.006 Y138.938 E8.0248
G1 X134.468 Y139.305 E8.05308
G1 X133.992 Y139.558 E8.07648
G1 X133.598 Y139.724 E8.09504
G1 X133.209 Y139.849 E8.11277
G1 X133.091 Y139.939 E8.11918
G1 X132.777 Y140.412 E8.14384
G1 X132.362 Y140.906 E8.17185
G1 X131.968 Y141.282 E8.19549
G1 X131.633 Y141.548 E8.21407
G1 X131.181 Y141.845 E8.23752
G1 X130.704 Y142.095 E8.26093
G1 X130.203 Y142.297 E8.28434
G1 X129.685 Y142.447 E8.30776
G1 X129.285 Y142.523 E8.32543
G1 X129.157 Y142.597 E8.33184
G1 X128.785 Y143.027 E8.35653
G1 X128.393 Y143.397 E8.37993
G1 X127.873 Y143.789 E8.4082
G1 X127.41 Y144.063 E8.43156
G1 X126.913 Y144.294 E8.45535
G1 X126.412 Y144.469 E8.4784
G1 X125.887 Y144.596 E8.50184
G1 X125.464 Y144.659 E8.52039
G1 X125.057 Y144.683 E8.53809
G1 X124.921 Y144.74 E8.54451
G1 X124.498 Y145.121 E8.56921
G1 X124.062 Y145.438 E8.59261
G1 X123.497 Y145.762 E8.62088
G1 X123.004 Y145.977 E8.64424
G1 X122.49 Y146.142 E8.66765
G1 X121.963 Y146.254 E8.69106
G1 X121.426 Y146.314 E8.71451
G1 X120.992 Y146.323 E8.73337
G1 X120.591 Y146.297 E8.75079
G1 X120.449 Y146.337 E8.75721
G1 X119.982 Y146.661 E8.78188
G1 X119.408 Y146.97 E8.81015
G1 X118.909 Y147.172 E8.83356
G1 X118.5 Y147.296 E8.8521
G1 X117.971 Y147.406 E8.87555
G1 X117.435 Y147.463 E8.89896
G1 X116.889 Y147.466 E8.92267
G1 X116.356 Y147.415 E8.9459
G1 X115.958 Y147.338 E8.96347
G1 X115.812 Y147.36 E8.96989
G1 X115.307 Y147.623 E8.99462
G1 X114.807 Y147.822 E9.01796
G1 X114.179 Y147.995 E9.04623
G1 X113.648 Y148.08 E9.06959
G1 X113.101 Y148.112 E9.09339
G1 X112.571 Y148.09 E9.11643
G1 X112.036 Y148.015 E9.13987
G1 X111.62 Y147.917 E9.15842
G1 X111.231 Y147.791 E9.17615
G1 X111.084 Y147.794 E9.18257
G1 X110.55 Y147.992 E9.20729
G1 X110.028 Y148.127 E9.23068
G1 X109.496 Y148.209 E9.25405
G1 X108.846 Y148.237 E9.28231
G1 X108.3 Y148.2 E9.30606
G1 X107.776 Y148.112 E9.32911
G1 X107.255 Y147.97 E9.35254
G1 X106.855 Y147.821 E9.3711
G1 X106.485 Y147.647 E9.38883
G1 X106.339 Y147.631 E9.39524
G1 X105.778 Y147.762 E9.42022
G1 X105.138 Y147.837 E9.4482
G1 X104.599 Y147.841 E9.47159
G1 X104.173 Y147.806 E9.49014
G1 X103.641 Y147.714 E9.51358
G1 X103.122 Y147.569 E9.53699
G1 X102.613 Y147.37 E9.5607
G1 X102.136 Y147.127 E9.58393
G1 X101.794 Y146.909 E9.60153
G1 X101.65 Y146.875 E9.60795
G1 X101.082 Y146.935 E9.63276
G1 X100.545 Y146.936 E9.65604
G1 X100.01 Y146.883 E9.67941
G1 X99.372 Y146.749 E9.70768
G1 X98.861 Y146.581 E9.73104
G1 X98.361 Y146.358 E9.75483
G1 X97.898 Y146.095 E9.77792
G1 X97.548 Y145.851 E9.79645
G1 X97.233 Y145.59 E9.81419
G1 X97.095 Y145.538 E9.8206
G1 X96.525 Y145.526 E9.84533
G1 X95.985 Y145.459 E9.86897
G1 X95.358 Y145.309 E9.89697
G1 X94.851 Y145.128 E9.92031
G1 X94.364 Y144.896 E9.94371
G1 X93.896 Y144.612 E9.96751
G1 X93.47 Y144.293 E9.9906
G1 X93.153 Y144.008 E10.00913
G1 X92.873 Y143.709 E10.02689
G1 X92.742 Y143.64 E10.03331
G1 X92.178 Y143.557 E10.05807
G1 X91.55 Y143.39 E10.08627
G1 X91.151 Y143.24 E10.10476
G1 X90.664 Y143.006 E10.12822
G1 X90.204 Y142.724 E10.15163
G1 X89.775 Y142.399 E10.17503
G1 X89.379 Y142.032 E10.19844
G1 X89.022 Y141.627 E10.22187
G1 X88.784 Y141.297 E10.23955
G1 X88.662 Y141.213 E10.24597
G1 X88.114 Y141.059 E10.27069
G1 X87.612 Y140.862 E10.29409
G1 X87.134 Y140.616 E10.31744
G1 X86.591 Y140.256 E10.34572
G1 X86.177 Y139.911 E10.36908
G1 X85.799 Y139.527 E10.39249
G1 X85.462 Y139.107 E10.41586
G1 X85.229 Y138.756 E10.43416
G1 X85.028 Y138.391 E10.45223
G1 X84.919 Y138.292 E10.45864
G1 X84.393 Y138.071 E10.48337
G1 X83.921 Y137.813 E10.50676
G1 X83.477 Y137.508 E10.53013
G1 X82.983 Y137.083 E10.5584
G1 X82.616 Y136.69 E10.58175
G1 X82.29 Y136.261 E10.60517
G1 X82.007 Y135.8 E10.62862
G1 X81.817 Y135.418 E10.64718
G1 X81.667 Y135.038 E10.66491
G1 X81.57 Y134.926 E10.67132
G1 X81.078 Y134.641 E10.696
G1 X80.555 Y134.254 E10.72426
G1 X80.159 Y133.888 E10.74767
G1 X79.873 Y133.571 E10.76621
G1 X79.548 Y133.139 E10.78964
G1 X79.272 Y132.685 E10.81273
G1 X79.036 Y132.192 E10.83644
G1 X78.853 Y131.684 E10.8599
G1 X78.752 Y131.289 E10.87759
G1 X78.67 Y131.166 E10.88401
G1 X78.217 Y130.821 E10.90873
G1 X77.823 Y130.453 E10.93213
G1 X77.469 Y130.048 E10.95548
G1 X77.097 Y129.514 E10.98375
G1 X76.839 Y129.041 E11.00711
G1 X76.629 Y128.544 E11.03052
G1 X76.47 Y128.03 E11.05389
G1 X76.382 Y127.618 E11.0722
G1 X76.33 Y127.205 E11.09027
G1 X76.265 Y127.072 E11.09668
G1 X75.858 Y126.674 E11.12141
G1 X75.515 Y126.26 E11.14473
G1 X75.159 Y125.721 E11.17275
G1 X74.911 Y125.238 E11.19635
G1 X74.714 Y124.735 E11.21979
G1 X74.569 Y124.218 E11.24311
G1 X74.476 Y123.69 E11.26639
G1 X74.439 Y123.259 E11.28517
G1 X74.44 Y122.849 E11.30294
G1 X74.391 Y122.71 E11.30936
G1 X74.037 Y122.263 E11.33408
G1 X73.748 Y121.808 E11.35748
G1 X73.505 Y121.328 E11.38084
G1 X73.277 Y120.718 E11.40911
G1 X73.145 Y120.196 E11.43248
G1 X73.066 Y119.663 E11.45587
G1 X73.04 Y119.123 E11.47934
G1 X73.058 Y118.696 E11.49787
G1 X73.109 Y118.291 E11.51562
G1 X73.079 Y118.147 E11.52203
G1 X72.785 Y117.66 E11.5467
G1 X72.554 Y117.172 E11.57015
G1 X72.373 Y116.664 E11.59356
G1 X72.244 Y116.141 E11.61691
G1 X72.158 Y115.496 E11.64519
G1 X72.146 Y114.958 E11.66856
G1 X72.188 Y114.421 E11.69191
G1 X72.258 Y114.005 E11.71023
G1 X72.361 Y113.602 E11.7283
G1 X72.349 Y113.455 E11.73471
G1 X72.118 Y112.935 E11.75939
G1 X71.922 Y112.314 E11.78765
G1 X71.817 Y111.786 E11.81105
G1 X71.772 Y111.361 E11.8296
G1 X71.763 Y110.821 E11.85305
G1 X71.808 Y110.283 E11.87646
G1 X71.906 Y109.753 E11.89987
G1 X72.056 Y109.235 E11.92329
G1 X72.207 Y108.856 E11.94097
G1 X72.213 Y108.708 E11.94739
G1 X72.049 Y108.163 E11.97212
G1 X71.947 Y107.634 E11.99551
G1 X71.898 Y107.098 E12.01887
G1 X71.911 Y106.447 E12.04714
G1 X71.98 Y105.913 E12.0705
G1 X72.102 Y105.388 E12.0939
G1 X72.277 Y104.877 E12.11737
G1 X72.451 Y104.486 E12.13593
G1 X72.648 Y104.129 E12.15364
G1 X72.673 Y103.983 E12.16005
G1 X72.578 Y103.422 E12.18474
G1 X72.543 Y102.883 E12.20818
G1 X72.562 Y102.346 E12.23152
G1 X72.655 Y101.707 E12.25954
G1 X72.792 Y101.181 E12.28314
G1 X72.979 Y100.676 E12.3065
G1 X73.214 Y100.195 E12.32977
G1 X73.437 Y99.824 E12.34855
G1 X73.678 Y99.493 E12.36633
G1 X73.721 Y99.352 E12.37274
G1 X73.698 Y98.783 E12.39747
G1 X73.731 Y98.245 E12.42086
