; HEADER_BLOCK_START
; generated by AnycubicSlicerNext 1.3.2 on 2025-02-22 at 19:11:31
; total layer number: 300
; filament_density: 1.24
; filament_diameter: 1.75
; max_z_height: 60.04
; exclude_object: 0
; model_instances: 1
; HEADER_BLOCK_END

; THUMBNAIL_BLOCK_START

;
; THUMBNAIL_BLOCK_END

; external perimeters extrusion width = 0.42mm
; perimeters extrusion width = 0.45mm
; infill extrusion width = 0.45mm
; solid infill extrusion width = 0.42mm
; top infill extrusion width = 0.42mm
; first layer extrusion width = 0.50mm

; EXECUTABLE_BLOCK_START
M201 X2000 Y2000 Z800 E2000
M203 X300 Y300 Z8 E100
M204 P2000 R2000 T2000
M205 X10.00 Y10.00 Z2.00 E5.00 ; sets the jerk limits, mm/sec
;TYPE:Custom
G90 ; use absolute coordinates
M83 ; extruder relative mode
M104 S220 ; set extruder temp
M140 S60 ; set bed temp
M190 S60 ; wait for bed temp
M109 S220 ; wait for extruder temp
G28                                        ; move X/Y/Z to min endstops
G1 Z0.28                                   ; lift nozzle a bit 
G92 E0 
G1 Y3 F1800                                    ; zero the extruded length 
G1 X60  E25 F500                       ; Extrude 25mm of filament in a 5cm line. 
G92 E0                                     ; zero the extruded length again 
G1 E-2 F500                                ; Retract a little 
G1 X70 F4000                              ; Quickly wipe away from the filament line
M117
G90
G21
M82 ; use absolute distances for extrusion
G92 E0
; filament start gcode
M106 S0
;LAYER_CHANGE
;Z:0.24
;HEIGHT:0.24
; BEFORE_LAYER_CHANGE 0 @ 0.24mm
G1 E-2.5 F6000
G92 E0
; AFTER_LAYER_CHANGE 0 @ 0.24mm
;_SET_FAN_SPEED_CHANGING_LAYER
M204 P500
; printing object "Axis60mm4mm.stl" id:1507139619840 copy 0
M204 T500
G1 X103.386 Y104.922 F18000
G1 Z.24
G1 E2.5 F6000
;TYPE:Brim
;WIDTH:0.5
G1 F3000
G1 X103.87 Y104.505 E2.52773
G1 X104.271 Y104.218 E2.54913
G1 X104.649 Y103.686 E2.57746
G1 X105.09 Y103.228 E2.60505
G1 X105.594 Y102.84 E2.63268
G1 X106.2 Y102.498 E2.66288
G1 X106.878 Y102.192 E2.69518
G1 X107.466 Y101.982 E2.72225
G1 X108.219 Y101.781 E2.75609
G1 X108.782 Y101.68 E2.78095
G1 X109.405 Y101.612 E2.80812
G1 X110.325 Y101.596 E2.84808
G1 X110.782 Y101.627 E2.86796
G1 X111.402 Y101.709 E2.89512
G1 X112.166 Y101.874 E2.92902
G1 X112.567 Y101.991 E2.94716
G1 X113.107 Y102.186 E2.97208
G1 X113.541 Y102.372 E2.99258
G1 X114.051 Y102.631 E3.01744
G1 X114.596 Y102.973 E3.04533
G1 X115.078 Y103.387 E3.07292
G1 X115.496 Y103.87 E3.10065
G1 X115.782 Y104.271 E3.12204
G1 X116.314 Y104.649 E3.15036
G1 X116.772 Y105.09 E3.17795
G1 X117.16 Y105.594 E3.20559
G1 X117.502 Y106.201 E3.2358
G1 X117.762 Y106.765 E3.26276
G1 X118.019 Y107.468 E3.29528
G1 X118.249 Y108.37 E3.33566
G1 X118.348 Y108.989 E3.36287
G1 X118.4 Y109.615 E3.39016
G1 X118.404 Y110.312 E3.42041
G1 X118.373 Y110.782 E3.44085
G1 X118.291 Y111.402 E3.46801
G1 X118.126 Y112.165 E3.5019
G1 X118.009 Y112.566 E3.52004
G1 X117.814 Y113.107 E3.54497
G1 X117.628 Y113.541 E3.56547
G1 X117.369 Y114.051 E3.59032
G1 X117.028 Y114.595 E3.61821
G1 X116.614 Y115.078 E3.6458
G1 X116.13 Y115.495 E3.67353
G1 X115.785 Y115.726 E3.69158
G1 X115.725 Y115.784 E3.69516
G1 X115.37 Y116.292 E3.72209
G1 X114.932 Y116.753 E3.74969
G1 X114.429 Y117.145 E3.77736
G1 X113.938 Y117.431 E3.80202
G1 X113.124 Y117.807 E3.84093
G1 X112.536 Y118.017 E3.86807
G1 X111.63 Y118.249 E3.90865
G1 X111.012 Y118.348 E3.93582
G1 X110.263 Y118.405 E3.96842
G1 X109.639 Y118.401 E3.99549
G1 X108.863 Y118.333 E4.02933
G1 X108.297 Y118.235 E4.05425
G1 X107.837 Y118.127 E4.07475
G1 X107.286 Y117.959 E4.09975
G1 X106.844 Y117.795 E4.12025
G1 X106.318 Y117.56 E4.14525
G1 X105.902 Y117.343 E4.16562
G1 X105.362 Y116.996 E4.19349
G1 X104.884 Y116.576 E4.22108
G1 X104.472 Y116.087 E4.24882
G1 X104.277 Y115.789 E4.26433
G1 X104.219 Y115.729 E4.26794
G1 X103.686 Y115.351 E4.29628
G1 X103.228 Y114.91 E4.32388
G1 X102.84 Y114.406 E4.35151
G1 X102.498 Y113.799 E4.38173
G1 X102.238 Y113.235 E4.40868
G1 X101.981 Y112.532 E4.4412
G1 X101.751 Y111.63 E4.48159
G1 X101.652 Y111.011 E4.5088
G1 X101.6 Y110.385 E4.53608
G1 X101.596 Y109.688 E4.56633
G1 X101.627 Y109.218 E4.58677
G1 X101.709 Y108.598 E4.61393
G1 X101.874 Y107.835 E4.64783
G1 X101.991 Y107.434 E4.66596
G1 X102.186 Y106.893 E4.69089
G1 X102.372 Y106.459 E4.71139
G1 X102.631 Y105.949 E4.73625
G1 X102.972 Y105.405 E4.76413
G1 X103.36 Y104.953 E4.78999
G1 X103.698 Y105.247 F18000
G1 F3000
G1 X104.143 Y104.862 E4.81552
G1 X104.523 Y104.59 E4.8358
G1 X104.644 Y104.469 E4.84324
G1 X105.002 Y103.966 E4.87006
G1 X105.383 Y103.571 E4.89386
G1 X105.851 Y103.211 E4.9195
G1 X106.398 Y102.902 E4.94678
G1 X107.041 Y102.61 E4.97744
G1 X107.604 Y102.409 E5.00339
G1 X108.311 Y102.221 E5.03514
G1 X108.851 Y102.123 E5.05896
G1 X109.439 Y102.06 E5.08462
G1 X110.319 Y102.046 E5.12285
G1 X110.742 Y102.074 E5.14123
G1 X111.32 Y102.15 E5.16655
G1 X112.06 Y102.31 E5.19939
G1 X112.431 Y102.419 E5.2162
G1 X112.946 Y102.605 E5.23996
G1 X113.355 Y102.78 E5.25926
G1 X113.825 Y103.019 E5.28216
G1 X114.321 Y103.329 E5.30754
G1 X114.753 Y103.699 E5.33221
G1 X115.138 Y104.143 E5.35774
G1 X115.41 Y104.523 E5.37802
G1 X115.531 Y104.644 E5.38546
G1 X116.034 Y105.002 E5.41226
G1 X116.429 Y105.383 E5.43607
G1 X116.789 Y105.851 E5.46171
G1 X117.099 Y106.4 E5.48909
G1 X117.349 Y106.941 E5.51493
G1 X117.587 Y107.595 E5.54516
G1 X117.808 Y108.455 E5.58369
G1 X117.902 Y109.038 E5.60932
G1 X117.952 Y109.64 E5.63557
G1 X117.955 Y110.303 E5.66434
G1 X117.926 Y110.742 E5.68343
G1 X117.85 Y111.32 E5.70874
G1 X117.69 Y112.059 E5.74158
G1 X117.581 Y112.431 E5.75838
G1 X117.395 Y112.946 E5.78214
G1 X117.22 Y113.354 E5.80145
G1 X116.981 Y113.825 E5.82434
G1 X116.671 Y114.32 E5.84972
G1 X116.302 Y114.753 E5.8744
G1 X115.864 Y115.132 E5.89954
G1 X115.543 Y115.349 E5.91637
G1 X115.418 Y115.459 E5.92358
G1 X115.026 Y116.001 E5.95263
G1 X114.637 Y116.413 E5.97722
G1 X114.184 Y116.767 E6.00218
G1 X113.736 Y117.03 E6.02473
G1 X112.96 Y117.389 E6.06185
G1 X112.41 Y117.586 E6.0872
G1 X111.545 Y117.808 E6.12597
G1 X110.965 Y117.901 E6.15148
G1 X110.253 Y117.956 E6.18248
G1 X109.666 Y117.953 E6.20795
G1 X108.915 Y117.886 E6.24066
G1 X108.39 Y117.796 E6.26378
G1 X107.95 Y117.692 E6.28343
G1 X107.434 Y117.535 E6.30685
G1 X107.017 Y117.381 E6.32612
G1 X106.517 Y117.158 E6.34992
G1 X106.132 Y116.958 E6.36872
G1 X105.641 Y116.642 E6.39407
G1 X105.213 Y116.268 E6.41874
G1 X104.838 Y115.825 E6.44395
G1 X104.656 Y115.55 E6.45824
G1 X104.547 Y115.424 E6.46551
G1 X103.98 Y115.009 E6.49599
G1 X103.571 Y114.617 E6.52059
G1 X103.211 Y114.149 E6.54623
G1 X102.901 Y113.6 E6.57361
G1 X102.651 Y113.059 E6.59946
G1 X102.413 Y112.405 E6.62968
G1 X102.192 Y111.545 E6.66821
G1 X102.098 Y110.962 E6.69384
G1 X102.048 Y110.36 E6.72009
G1 X102.045 Y109.697 E6.74886
G1 X102.074 Y109.258 E6.76795
G1 X102.15 Y108.68 E6.79326
G1 X102.31 Y107.941 E6.8261
G1 X102.419 Y107.569 E6.84291
G1 X102.605 Y107.054 E6.86666
G1 X102.78 Y106.646 E6.88597
G1 X103.019 Y106.175 E6.90886
G1 X103.329 Y105.68 E6.93424
G1 X103.672 Y105.278 E6.95718
G1 X104.011 Y105.572 F18000
G1 F3000
G1 X104.416 Y105.219 E6.9805
G1 X104.846 Y104.901 E7.00371
G1 X105.014 Y104.722 E7.01437
G1 X105.355 Y104.246 E7.03979
G1 X105.675 Y103.913 E7.05984
G1 X106.107 Y103.581 E7.08349
G1 X106.596 Y103.305 E7.10784
G1 X107.205 Y103.029 E7.13686
G1 X107.743 Y102.836 E7.16169
G1 X108.403 Y102.66 E7.19135
G1 X108.92 Y102.567 E7.21412
G1 X109.473 Y102.508 E7.23826
G1 X110.314 Y102.495 E7.27477
G1 X110.701 Y102.522 E7.29165
G1 X111.238 Y102.592 E7.31514
G1 X111.954 Y102.746 E7.34692
G1 X112.296 Y102.847 E7.36239
G1 X112.785 Y103.024 E7.38498
G1 X113.168 Y103.189 E7.4031
G1 X113.599 Y103.407 E7.42404
G1 X114.046 Y103.687 E7.44695
G1 X114.429 Y104.011 E7.46871
G1 X114.782 Y104.416 E7.49203
G1 X115.099 Y104.846 E7.51523
G1 X115.279 Y105.014 E7.5259
G1 X115.754 Y105.355 E7.5513
G1 X116.087 Y105.675 E7.57136
G1 X116.419 Y106.107 E7.595
G1 X116.697 Y106.6 E7.61955
G1 X116.935 Y107.117 E7.64428
G1 X117.16 Y107.734 E7.67279
G1 X117.367 Y108.54 E7.7089
G1 X117.455 Y109.087 E7.73294
G1 X117.503 Y109.665 E7.75814
G1 X117.506 Y110.294 E7.78543
G1 X117.478 Y110.702 E7.80317
G1 X117.408 Y111.238 E7.82664
G1 X117.254 Y111.953 E7.85842
G1 X117.153 Y112.295 E7.87389
G1 X116.976 Y112.785 E7.89648
G1 X116.811 Y113.168 E7.9146
G1 X116.593 Y113.598 E7.93554
G1 X116.313 Y114.046 E7.95844
G1 X115.989 Y114.428 E7.98021
G1 X115.597 Y114.77 E8.00278
G1 X115.298 Y114.972 E8.01845
G1 X115.131 Y115.114 E8.02797
G1 X114.684 Y115.709 E8.06028
G1 X114.341 Y116.073 E8.08197
G1 X113.938 Y116.39 E8.10421
G1 X113.533 Y116.628 E8.12462
G1 X112.795 Y116.971 E8.15995
G1 X112.284 Y117.155 E8.18352
G1 X111.459 Y117.367 E8.22048
G1 X110.918 Y117.455 E8.24431
G1 X110.242 Y117.507 E8.27372
G1 X109.693 Y117.504 E8.29757
G1 X108.968 Y117.44 E8.32916
G1 X108.484 Y117.357 E8.35047
G1 X108.062 Y117.258 E8.36927
G1 X107.581 Y117.111 E8.39113
G1 X107.191 Y116.967 E8.40917
G1 X106.715 Y116.755 E8.43177
G1 X106.363 Y116.572 E8.449
G1 X105.92 Y116.288 E8.47185
G1 X105.541 Y115.959 E8.49362
G1 X105.203 Y115.562 E8.51629
G1 X105.035 Y115.309 E8.52945
G1 X104.894 Y115.14 E8.53903
G1 X104.274 Y114.669 E8.57282
G1 X103.913 Y114.324 E8.59448
G1 X103.581 Y113.893 E8.61811
G1 X103.303 Y113.4 E8.64266
G1 X103.065 Y112.883 E8.66739
G1 X102.84 Y112.266 E8.6959
G1 X102.633 Y111.46 E8.732
G1 X102.545 Y110.913 E8.75605
G1 X102.497 Y110.335 E8.78124
G1 X102.494 Y109.706 E8.80854
G1 X102.522 Y109.298 E8.82628
G1 X102.592 Y108.762 E8.84975
G1 X102.746 Y108.047 E8.88153
G1 X102.847 Y107.705 E8.897
G1 X103.024 Y107.215 E8.91959
G1 X103.189 Y106.832 E8.9377
G1 X103.407 Y106.402 E8.95865
G1 X103.687 Y105.954 E8.98155
G1 X103.985 Y105.602 E9.00158
G1 X104.325 Y105.895 F18000
G1 F3000
G1 X104.7 Y105.566 E9.02323
G1 X105.179 Y105.2 E9.04941
G1 X105.383 Y104.977 E9.06256
G1 X105.707 Y104.526 E9.08664
G1 X105.968 Y104.255 E9.10298
G1 X106.348 Y103.962 E9.1238
G1 X106.794 Y103.708 E9.14608
G1 X107.368 Y103.447 E9.17345
G1 X107.882 Y103.264 E9.19715
G1 X108.496 Y103.1 E9.22473
G1 X108.988 Y103.011 E9.24644
G1 X109.506 Y102.956 E9.26904
G1 X110.307 Y102.944 E9.30383
G1 X110.661 Y102.969 E9.31921
G1 X111.156 Y103.034 E9.34089
G1 X111.848 Y103.183 E9.37161
G1 X112.624 Y103.443 E9.40714
G1 X112.982 Y103.597 E9.42406
G1 X113.373 Y103.796 E9.44309
G1 X113.773 Y104.045 E9.46354
G1 X114.105 Y104.325 E9.48242
G1 X114.434 Y104.7 E9.50407
G1 X114.8 Y105.179 E9.53024
G1 X115.024 Y105.383 E9.54339
G1 X115.473 Y105.707 E9.56746
G1 X115.745 Y105.968 E9.58379
G1 X116.038 Y106.348 E9.60462
G1 X116.295 Y106.799 E9.62716
G1 X116.522 Y107.293 E9.65077
G1 X116.733 Y107.874 E9.67756
G1 X116.926 Y108.626 E9.71127
G1 X117.009 Y109.136 E9.73372
G1 X117.055 Y109.69 E9.75786
G1 X117.057 Y110.285 E9.78366
G1 X117.031 Y110.661 E9.80005
G1 X116.967 Y111.156 E9.82169
G1 X116.817 Y111.847 E9.85241
G1 X116.557 Y112.624 E9.88794
G1 X116.403 Y112.982 E9.90486
G1 X116.204 Y113.372 E9.92389
G1 X115.955 Y113.772 E9.94434
G1 X115.675 Y114.105 E9.96322
G1 X115.329 Y114.409 E9.98321
G1 X115.052 Y114.597 E9.99775
G1 X114.851 Y114.763 E10.00906
G1 X114.343 Y115.416 E10.04496
G1 X114.044 Y115.734 E10.0639
G1 X113.692 Y116.013 E10.08343
G1 X113.318 Y116.234 E10.10225
G1 X112.63 Y116.553 E10.13521
G1 X112.146 Y116.727 E10.15753
G1 X111.374 Y116.926 E10.19214
G1 X110.87 Y117.008 E10.2143
G1 X110.231 Y117.058 E10.24211
G1 X109.719 Y117.056 E10.26434
G1 X109.02 Y116.994 E10.29479
G1 X108.577 Y116.918 E10.3143
G1 X108.175 Y116.823 E10.33225
G1 X107.364 Y116.553 E10.36934
G1 X106.597 Y116.189 E10.40621
G1 X106.198 Y115.934 E10.42678
G1 X105.869 Y115.65 E10.44565
G1 X105.566 Y115.297 E10.46579
G1 X105.412 Y115.066 E10.47786
G1 X105.243 Y114.858 E10.48951
G1 X104.571 Y114.332 E10.52655
G1 X104.255 Y114.031 E10.5455
G1 X103.962 Y113.652 E10.56628
G1 X103.705 Y113.201 E10.58882
G1 X103.478 Y112.707 E10.61242
G1 X103.267 Y112.126 E10.63922
G1 X103.074 Y111.374 E10.67293
G1 X102.991 Y110.864 E10.69538
G1 X102.945 Y110.31 E10.71951
G1 X102.943 Y109.715 E10.74531
G1 X102.969 Y109.339 E10.76171
G1 X103.033 Y108.844 E10.78335
G1 X103.183 Y108.153 E10.81407
G1 X103.443 Y107.376 E10.8496
G1 X103.597 Y107.018 E10.86652
G1 X103.796 Y106.628 E10.88555
G1 X104.045 Y106.228 E10.906
G1 X104.299 Y105.926 E10.92314
G1 X104.639 Y106.218 F18000
G1 F3000
G1 X104.986 Y105.912 E10.94321
G1 X105.518 Y105.495 E10.97255
G1 X105.751 Y105.233 E10.98777
G1 X106.047 Y104.822 E11.00974
G1 X106.262 Y104.597 E11.02326
G1 X106.605 Y104.331 E11.04211
G1 X106.993 Y104.111 E11.06145
G1 X107.531 Y103.866 E11.08715
G1 X108.021 Y103.691 E11.10971
G1 X108.588 Y103.539 E11.13521
G1 X109.056 Y103.455 E11.15585
G1 X109.539 Y103.404 E11.17691
G1 X110.301 Y103.393 E11.20999
G1 X111.074 Y103.475 E11.24373
G1 X111.736 Y103.618 E11.27313
G1 X112.473 Y103.866 E11.30688
G1 X113.157 Y104.19 E11.33973
G1 X113.5 Y104.403 E11.35727
G1 X113.782 Y104.64 E11.37325
G1 X114.088 Y104.986 E11.39333
G1 X114.506 Y105.518 E11.42267
G1 X114.767 Y105.751 E11.43788
G1 X115.178 Y106.047 E11.45984
G1 X115.403 Y106.262 E11.47336
G1 X115.669 Y106.605 E11.49221
G1 X115.892 Y106.999 E11.51188
G1 X116.109 Y107.469 E11.53433
G1 X116.306 Y108.012 E11.55941
G1 X116.485 Y108.712 E11.59075
G1 X116.563 Y109.186 E11.61159
G1 X116.607 Y109.715 E11.63466
G1 X116.608 Y110.275 E11.65896
G1 X116.525 Y111.074 E11.69382
G1 X116.382 Y111.736 E11.72322
G1 X116.134 Y112.473 E11.75697
G1 X115.81 Y113.157 E11.78982
G1 X115.597 Y113.5 E11.80736
G1 X115.36 Y113.782 E11.82335
G1 X115.06 Y114.048 E11.84076
G1 X114.576 Y114.409 E11.86697
G1 X114.005 Y115.12 E11.90656
G1 X113.747 Y115.395 E11.92294
G1 X113.444 Y115.637 E11.93974
G1 X113.103 Y115.839 E11.95695
G1 X112.465 Y116.135 E11.98752
G1 X112.008 Y116.3 E12.00859
G1 X111.288 Y116.485 E12.04087
G1 X110.822 Y116.561 E12.06136
G1 X110.22 Y116.609 E12.08757
G1 X109.745 Y116.608 E12.10817
G1 X109.069 Y116.548 E12.13764
G1 X108.291 Y116.389 E12.17209
G1 X107.525 Y116.133 E12.20719
G1 X106.808 Y115.791 E12.24166
G1 X106.474 Y115.578 E12.25883
G1 X106.195 Y115.339 E12.27481
G1 X105.924 Y115.024 E12.29284
G1 X105.593 Y114.579 E12.31689
G1 X104.87 Y113.996 E12.35724
G1 X104.596 Y113.736 E12.37361
G1 X104.331 Y113.394 E12.39238
G1 X104.108 Y113.001 E12.41204
G1 X103.891 Y112.531 E12.4345
G1 X103.694 Y111.988 E12.45958
G1 X103.515 Y111.288 E12.49091
G1 X103.437 Y110.814 E12.51176
G1 X103.393 Y110.285 E12.53482
G1 X103.392 Y109.725 E12.55913
G1 X103.475 Y108.926 E12.59398
G1 X103.618 Y108.264 E12.62338
G1 X103.866 Y107.527 E12.65714
G1 X104.19 Y106.843 E12.68999
G1 X104.403 Y106.5 E12.70752
G1 X104.614 Y106.249 E12.72177
G1 X104.938 Y106.571 F18000
G1 F3000
G1 X105.028 Y106.48 E12.72733
G1 X105.387 Y106.198 E12.74713
G1 X105.749 Y106.006 E12.7649
G1 X105.878 Y105.961 E12.77086
G1 X105.96 Y105.881 E12.77582
G1 X106.013 Y105.736 E12.78251
G1 X106.282 Y105.266 E12.80601
G1 X106.67 Y104.847 E12.83078
G1 X107.003 Y104.617 E12.84836
G1 X107.612 Y104.319 E12.8778
G1 X108.287 Y104.081 E12.90886
G1 X109.05 Y103.911 E12.94282
G1 X109.568 Y103.85 E12.96545
G1 X110.504 Y103.86 E13.00608
G1 X111.508 Y104.022 E13.05023
G1 X111.981 Y104.161 E13.07164
G1 X112.442 Y104.34 E13.09306
G1 X112.994 Y104.616 E13.11989
G1 X113.381 Y104.89 E13.14047
G1 X113.521 Y105.029 E13.149
G1 X113.803 Y105.387 E13.1688
G1 X113.994 Y105.749 E13.18657
G1 X114.04 Y105.878 E13.19252
G1 X114.12 Y105.96 E13.19748
G1 X114.263 Y106.013 E13.20412
G1 X114.737 Y106.283 E13.22782
G1 X115.064 Y106.573 E13.24679
G1 X115.391 Y107.021 E13.27087
G1 X115.696 Y107.647 E13.30107
G1 X115.925 Y108.304 E13.33127
