; HEADER_BLOCK_START
; generated by AnycubicSlicerNext 1.3.3.1 on 2025-03-04 at 22:01:18
; total layer number: 80
; filament_density: 1.24
; filament_diameter: 1.75
; max_z_height: 16.04
; exclude_object: 0
; model_instances: 1
; HEADER_BLOCK_END

; THUMBNAIL_BLOCK_START
; THUMBNAIL_BLOCK_END

; external perimeters extrusion width = 0.42mm
; perimeters extrusion width = 0.45mm
; infill extrusion width = 0.45mm
; solid infill extrusion width = 0.42mm
; top infill extrusion width = 0.42mm
; support material extrusion width = 0.40mm
; first layer extrusion width = 0.50mm

; EXECUTABLE_BLOCK_START
M201 X2000 Y2000 Z800 E2000
M203 X300 Y300 Z8 E100
M204 P2000 R2000 T2000
M205 X10.00 Y10.00 Z2.00 E5.00 ; sets the jerk limits, mm/sec
;TYPE:Custom
G90 ; use absolute coordinates
M83 ; extruder relative mode
M104 S220 ; set extruder temp
M140 S60 ; set bed temp
M190 S60 ; wait for bed temp
M109 S220 ; wait for extruder temp
G28                                        ; move X/Y/Z to min endstops
G1 Z0.28                                   ; lift nozzle a bit 
G92 E0 
G1 Y3 F1800                                    ; zero the extruded length 
G1 X60  E25 F500                       ; Extrude 25mm of filament in a 5cm line. 
G92 E0                                     ; zero the extruded length again 
G1 E-2 F500                                ; Retract a little 
G1 X70 F4000                              ; Quickly wipe away from the filament line
M117
G90
G21
M83 ; use relative distances for extrusion
; filament start gcode
M106 S0
;LAYER_CHANGE
;Z:0.24
;HEIGHT:0.24
; BEFORE_LAYER_CHANGE 0 @ 0.24mm
G92 E0
G1 E-2.5 F6000
; AFTER_LAYER_CHANGE 0 @ 0.24mm
M204 P500
; printing object "Cyclo2Case33.stl" id:19703750885310553 copy 0
M204 T500
G1 X93.686 Y76.265 F18000
G1 Z.24
G1 E2.5 F6000
;TYPE:Support
;WIDTH:0.5
;MM3_PER_MM:0.107639
G1 F3000
G3 X97.61 Y78.169 I-.565 J6.16 E.19348
G2 X88.55 Y83.418 I12.435 J31.91 E.4563
G3 X93.619 Y76.262 I5.097 J-1.763 E.44447
G1 X96.545 Y78.385 F18000
G1 F3000
G2 X96.047 Y77.362 I-.587 J-.347 E.05842
G1 X96.041 Y78.383 E.04432
G2 X95.548 Y78.607 I12.68 J28.613 E.02349
G1 X95.548 Y77.104 E.06522
G1 X95.05 Y76.891 E.02352
G1 X95.05 Y78.841 E.08464
G2 X94.552 Y79.084 I8.497 J18.059 E.02407
G1 X94.552 Y76.776 E.10019
G2 X94.054 Y76.686 I-.497 J1.328 E.0221
G1 X94.054 Y79.338 E.11514
G2 X93.555 Y79.603 I10.783 J20.938 E.02449
G1 X93.555 Y76.664 E.12758
G2 X93.057 Y76.685 I-.189 J1.384 E.02177
G1 X93.032 Y79.891 E.13916
G2 X92.559 Y80.164 I15.479 J27.382 E.02372
G1 X92.559 Y76.753 E.14808
G2 X92.06 Y76.89 I.128 J1.442 E.02255
G1 X91.995 Y80.499 E.15672
G2 X91.562 Y80.768 I41.898 J67.979 E.02212
G1 X91.562 Y77.057 E.16109
G1 X91.064 Y77.325 E.02456
G1 X90.997 Y81.132 E.16527
G2 X90.565 Y81.423 I13.596 J20.687 E.0226
G1 X90.565 Y77.657 E.16345
G2 X90.067 Y78.073 I.898 J1.581 E.02834
G1 X89.99 Y81.821 E.16272
G2 X89.569 Y82.125 I50.012 J69.756 E.02254
G1 X89.569 Y78.644 E.15111
G2 X89.07 Y79.481 I11.983 J7.702 E.04229
G1 X89.07 Y82.752 E.142
G1 E-1.75 F6000
;WIPE_START
G1 F3000
G1 X89.07 Y81.752 E-.75
;WIPE_END
G1 X76.211 Y104.996 F18000
G1 E2.5 F6000
G1 F3000
G2 X76.269 Y115.382 I33.855 J5.003 E.45258
G3 X76.223 Y104.916 I.913 J-5.237 E.64325
G1 X76.221 Y104.93 E.00058
G1 X75.615 Y115.017 F18000
G1 F3000
G1 X75.615 Y105.487 E.41366
G2 X75.117 Y105.668 I.248 J1.463 E.02313
G1 X75.117 Y114.624 E.38877
G1 X74.619 Y114.356 E.02457
G1 X74.619 Y105.936 E.36549
G2 X74.12 Y106.284 I.709 J1.547 E.02652
G1 X74.12 Y114.008 E.33528
G3 X73.622 Y113.57 I.957 J-1.592 E.02895
G1 X73.622 Y106.722 E.29728
G2 X73.124 Y107.31 I1.372 J1.667 E.03365
G1 X73.124 Y112.982 E.24621
G3 X72.625 Y112.069 I2.266 J-1.83 E.0454
G1 X72.625 Y107.751 E.18745
G1 E-1.75 F6000
;WIPE_START
G1 F3000
G1 X72.625 Y108.751 E-.75
;WIPE_END
G1 X88.648 Y136.661 F18000
G1 E2.5 F6000
G1 F3000
G2 X97.458 Y141.77 I21.354 J-26.674 E.4437
G3 X88.421 Y136.477 I-4.037 J-3.467 E.64271
G1 X88.596 Y136.619 E.00976
G1 X96.545 Y142.379 F18000
G1 F3000
G1 X96.477 Y141.805 E.02506
G3 X96.047 Y141.619 I13.232 J-31.12 E.02033
G1 X96.047 Y142.466 E.03675
G3 X95.548 Y142.756 I-1.048 J-1.228 E.02516
G1 X95.529 Y141.386 E.05948
G3 X95.05 Y141.16 I9.814 J-21.442 E.02297
G1 X95.05 Y142.969 E.07851
G3 X94.552 Y143.111 I-.642 J-1.302 E.02262
G1 X94.533 Y140.907 E.09569
G3 X94.054 Y140.662 I31.274 J-61.919 E.02336
G1 X94.054 Y143.225 E.11124
G3 X93.555 Y143.249 I-.315 J-1.361 E.02177
G1 X93.555 Y140.398 E.12377
G1 X93.057 Y140.123 E.0247
G1 X93.057 Y143.252 E.13583
G1 X92.559 Y143.184 E.02183
G1 X92.548 Y139.831 E.14556
G3 X92.06 Y139.54 I11.06 J-19.058 E.02467
G1 X92.06 Y143.073 E.1534
G1 X91.562 Y142.912 E.02274
G1 X91.562 Y139.232 E.15973
G3 X91.064 Y138.911 I36.969 J-58.012 E.02572
G1 X91.064 Y142.667 E.16304
G3 X90.565 Y142.371 I.567 J-1.521 E.0253
G1 X90.565 Y138.578 E.16463
G3 X90.067 Y138.233 I13.988 J-20.73 E.02631
G1 X90.067 Y141.973 E.16236
G3 X89.569 Y141.432 I1.243 J-1.644 E.03212
G1 X89.569 Y137.874 E.15446
G3 X89.07 Y137.501 I10.824 J-15 E.02701
G1 X89.07 Y140.685 E.13822
G3 X88.572 Y136.859 I5.833 J-2.705 E.17013
G1 E-1.75 F6000
;WIPE_START
G1 F3000
G1 X88.572 Y137.859 E-.75
;WIPE_END
G1 X131.348 Y137.699 F18000
G1 E2.5 F6000
G1 F3000
G3 X130.356 Y141.827 I-5.355 J.897 E.18931
G3 X121.978 Y141.988 I-4.252 J-3.182 E.41915
G2 X131.113 Y136.849 I-11.952 J-31.937 E.45678
G1 X131.33 Y137.634 E.03534
G1 X130.93 Y140.357 F18000
G1 F3000
G1 X130.847 Y137.566 E.1212
G3 X130.431 Y137.875 I-52.066 J-69.503 E.02248
G1 X130.431 Y140.966 E.13419
G3 X129.933 Y141.722 I-4.686 J-2.546 E.03935
G1 X129.933 Y138.233 E.15146
G3 X129.435 Y138.577 I-12.078 J-16.951 E.02629
G1 X129.435 Y142.249 E.1594
G3 X128.936 Y142.655 I-1.367 J-1.17 E.02805
G1 X128.936 Y138.911 E.16255
G3 X128.438 Y139.232 I-18.824 J-28.666 E.02573
G1 X128.438 Y142.984 E.16288
G1 X127.94 Y143.197 E.02352
G1 X127.94 Y139.54 E.15875
G3 X127.441 Y139.836 I-10.627 J-17.322 E.02516
G1 X127.441 Y143.373 E.15354
G1 X126.943 Y143.487 E.02219
G1 X126.943 Y140.123 E.14602
G3 X126.445 Y140.397 I-12.139 J-21.444 E.0247
G1 X126.445 Y143.541 E.13647
G1 X125.946 Y143.564 E.02165
G1 X125.946 Y140.662 E.12598
G3 X125.448 Y140.916 I-10.869 J-20.694 E.02428
G1 X125.448 Y143.507 E.11249
G3 X124.95 Y143.428 I-.031 J-1.413 E.02202
G1 X124.95 Y141.159 E.0985
G3 X124.452 Y141.393 I-7.382 J-15.042 E.02391
G1 X124.452 Y143.266 E.08129
G3 X123.953 Y143.057 I.326 J-1.477 E.02358
G1 X123.953 Y141.619 E.06243
G3 X123.455 Y141.834 I-10.132 J-22.809 E.02356
G1 X123.455 Y142.789 E.04146
G3 X122.957 Y141.822 I.385 J-.811 E.05073
G1 E-1.75 F6000
;WIPE_START
G1 F3000
G1 X122.957 Y142.407 E-.43865
G1 X123.286 Y142.66 E-.31135
;WIPE_END
G1 X144.508 Y104.851 F18000
G1 E2.5 F6000
G1 F3000
G3 X143.766 Y115.152 I-1.75 J5.051 E.60759
G2 X143.74 Y104.676 I-33.729 J-5.153 E.45656
G1 X144.442 Y104.837 E.03127
G1 X147.375 Y112.308 F18000
G1 F3000
G1 X147.375 Y107.992 E.18734
G2 X146.876 Y107.104 I-2.695 J.929 E.04443
G1 X146.876 Y112.73 E.24422
G3 X146.378 Y113.337 I-1.919 J-1.07 E.03425
G1 X146.378 Y106.498 E.29685
G2 X145.88 Y106.037 I-1.521 J1.142 E.02964
G1 X145.88 Y113.798 E.33692
G1 X145.381 Y114.127 E.02592
G1 X145.381 Y105.708 E.36548
G2 X144.883 Y105.451 I-.956 J1.245 E.02446
G1 X144.883 Y114.384 E.38776
G1 X144.385 Y114.597 E.02352
G1 X144.385 Y105.03 E.41526
G1 E-1.75 F6000
;WIPE_START
G1 F3000
G1 X144.385 Y106.03 E-.75
;WIPE_END
G1 X127.007 Y76.398 F18000
G1 E2.5 F6000
G1 F3000
G3 X131.658 Y83.587 I-.476 J5.407 E.42827
G2 X122.633 Y78.265 I-21.667 J26.432 E.45662
G3 X126.94 Y76.395 I4.329 J4.074 E.20953
G1 X131.428 Y83.141 F18000
G1 F3000
G1 X131.428 Y80.465 E.11618
G2 X130.93 Y79.217 I-3.69 J.75 E.05865
G1 X130.93 Y82.499 E.14247
G2 X130.431 Y82.126 I-11.322 J14.627 E.02701
G1 X130.431 Y78.515 E.15677
G2 X129.933 Y78.02 I-1.613 J1.127 E.03064
G1 X129.933 Y81.767 E.16263
G2 X129.435 Y81.422 I-14.488 J20.387 E.02631
G1 X129.435 Y77.637 E.16428
G2 X128.936 Y77.327 I-1.106 J1.219 E.02563
G1 X128.882 Y81.053 E.16177
G2 X128.438 Y80.768 I-38.557 J59.65 E.02289
G1 X128.438 Y77.113 E.15865
G2 X127.94 Y76.953 I-.692 J1.294 E.02285
G1 X127.882 Y80.425 E.15073
G2 X127.441 Y80.163 I-41.105 J68.594 E.02226
G1 X127.441 Y76.839 E.14427
G2 X126.943 Y76.799 I-.562 J3.848 E.02172
G1 X126.943 Y79.877 E.13363
G1 X126.445 Y79.602 E.0247
G1 X126.445 Y76.78 E.12253
G1 X125.946 Y76.847 E.02183
G1 X125.946 Y79.338 E.10812
G2 X125.448 Y79.084 I-54.025 J105.487 E.02427
G1 X125.448 Y76.941 E.09302
G1 X124.95 Y77.103 E.02274
G1 X124.924 Y78.827 E.07487
G2 X124.452 Y78.605 I-32.431 J68.423 E.02265
G1 X124.452 Y77.328 E.05545
G2 X123.953 Y77.601 I.504 J1.51 E.0248
G1 X123.953 Y78.381 E.03384
G1 X123.455 Y78.166 E.02355
G1 X123.455 Y77.74 E.0185
G1 E-1.75 F6000
;WIPE_START
G1 F3000
G1 X123.455 Y78.166 E-.31961
G1 X123.953 Y78.381 E-.40694
G1 X123.953 Y78.35 E-.02344
;WIPE_END
G1 X122.773 Y79.402 F18000
G1 E2.5 F6000
;TYPE:Brim
G1 F3000
G1 X123.392 Y79.656 E.029
G1 X124.92 Y80.377 E.07335
G1 X126.277 Y81.1 E.06675
G1 X127.667 Y81.929 E.07027
G1 X128.88 Y82.73 E.0631
G1 X130.307 Y83.775 E.07676
G1 X131.441 Y84.693 E.06334
G1 X132.646 Y85.766 E.07003
G1 X133.905 Y87.007 E.07674
G1 X134.545 Y87.691 E.04066
G1 X135.154 Y88.381 E.03995
G1 X136.176 Y89.63 E.07007
G1 X137.137 Y90.928 E.07009
G1 X138.032 Y92.271 E.07004
G1 X138.861 Y93.655 E.07004
G1 X139.622 Y95.078 E.07004
G1 X140.313 Y96.536 E.07005
G1 X140.926 Y98.012 E.0694
G1 X141.423 Y99.384 E.06334
G1 X141.965 Y101.148 E.08008
G1 X142.306 Y102.487 E.06
G1 X142.661 Y104.224 E.07695
G1 X142.913 Y105.89 E.07315
G1 X143.067 Y107.419 E.06667
G1 X143.154 Y109.035 E.07027
G1 X143.165 Y110.428 E.06049
G1 X143.101 Y112.103 E.07276
G1 X142.96 Y113.71 E.07003
G1 X142.74 Y115.309 E.07004
G1 X142.411 Y117.045 E.07669
G1 X142.07 Y118.464 E.06339
G1 X141.62 Y120.014 E.07005
G1 X141.096 Y121.54 E.07006
G1 X140.498 Y123.039 E.07002
G1 X139.76 Y124.644 E.07671
G1 X139.087 Y125.94 E.06339
G1 X138.277 Y127.336 E.07004
G1 X137.4 Y128.692 E.0701
G1 X136.871 Y129.445 E.03996
G1 X136.226 Y130.305 E.04666
G1 X135.207 Y131.557 E.07007
G1 X134.234 Y132.646 E.06338
G1 X132.988 Y133.909 E.07704
G1 X132.309 Y134.545 E.04038
G1 X131.619 Y135.155 E.03997
G1 X130.381 Y136.167 E.06941
G1 X129.21 Y137.039 E.06339
G1 X127.737 Y138.027 E.07698
G1 X126.357 Y138.854 E.06984
G1 X125.073 Y139.545 E.0633
G1 X123.472 Y140.309 E.07698
G1 X121.987 Y140.926 E.06981
G1 X120.616 Y141.423 E.06333
G1 X118.852 Y141.965 E.08008
G1 X117.513 Y142.306 E.06
G1 X115.776 Y142.661 E.07696
G1 X114.11 Y142.913 E.07315
G1 X112.581 Y143.067 E.06667
G1 X110.965 Y143.154 E.07027
G1 X109.572 Y143.165 E.06048
G1 X107.897 Y143.101 E.07275
G1 X106.29 Y142.96 E.07004
G1 X104.691 Y142.741 E.07003
G1 X102.956 Y142.411 E.07669
G1 X101.381 Y142.029 E.07033
G1 X99.986 Y141.62 E.06311
G1 X98.46 Y141.096 E.07005
G1 X96.961 Y140.497 E.07007
G1 X95.689 Y139.922 E.06057
G1 X94.249 Y139.189 E.07017
G1 X92.847 Y138.388 E.07008
G1 X91.936 Y137.818 E.04664
G1 X91.172 Y137.306 E.03995
G1 X89.693 Y136.225 E.0795
G1 X88.559 Y135.307 E.06334
G1 X87.354 Y134.234 E.07004
G1 X86.095 Y132.993 E.07676
G1 X84.955 Y131.746 E.07331
G1 X83.824 Y130.37 E.07736
G1 X82.863 Y129.072 E.07008
G1 X81.968 Y127.729 E.07004
G1 X81.139 Y126.345 E.07004
G1 X80.379 Y124.924 E.06998
G1 X79.687 Y123.464 E.07011
G1 X79.074 Y121.988 E.0694
G1 X78.576 Y120.615 E.06336
G1 X78.097 Y119.075 E.07003
G1 X77.66 Y117.363 E.07669
G1 X77.339 Y115.776 E.07029
G1 X77.087 Y114.109 E.07316
G1 X76.933 Y112.581 E.06667
G1 X76.846 Y110.965 E.07027
G1 X76.835 Y109.572 E.06049
G1 X76.899 Y107.897 E.07276
G1 X77.04 Y106.29 E.07003
G1 X77.26 Y104.691 E.07004
G1 X77.556 Y103.105 E.07004
G1 X77.93 Y101.535 E.07004
G1 X78.38 Y99.986 E.07003
G1 X78.904 Y98.46 E.07005
G1 X79.502 Y96.961 E.07002
G1 X80.24 Y95.356 E.07671
G1 X80.913 Y94.06 E.06339
G1 X81.723 Y92.664 E.07004
G1 X82.6 Y91.308 E.0701
G1 X83.129 Y90.555 E.03996
G1 X83.774 Y89.695 E.04666
G1 X84.793 Y88.443 E.07007
G1 X85.766 Y87.354 E.06337
G1 X87.012 Y86.091 E.07704
G1 X87.691 Y85.455 E.04038
G1 X88.381 Y84.845 E.03997
G1 X89.619 Y83.833 E.06941
G1 X90.79 Y82.961 E.06339
G1 X92.263 Y81.973 E.07698
G1 X93.643 Y81.146 E.06984
G1 X94.927 Y80.455 E.0633
G1 X96.528 Y79.691 E.07698
G1 X98.013 Y79.074 E.06981
G1 X99.385 Y78.576 E.06335
G1 X100.925 Y78.097 E.07004
G1 X102.638 Y77.659 E.07676
G1 X104.224 Y77.339 E.07022
G1 X105.89 Y77.087 E.07316
G1 X107.419 Y76.933 E.06669
G1 X108.877 Y76.851 E.06341
G1 X110.429 Y76.835 E.06737
G1 X111.887 Y76.886 E.06332
G1 X112.961 Y76.964 E.04675
G1 X113.877 Y77.059 E.03996
G1 X115.536 Y77.297 E.07278
G1 X117.269 Y77.638 E.07667
G1 X118.835 Y78.03 E.07005
G1 X120.234 Y78.45 E.06339
G1 X121.756 Y78.985 E.07004
G1 X122.736 Y79.387 E.046
G1 X122.566 Y79.802 F18000
G1 F3000
G1 X123.207 Y80.065 E.03008
G1 X124.715 Y80.776 E.07238
G1 X126.053 Y81.49 E.06582
G1 X127.426 Y82.307 E.06936
G1 X128.627 Y83.1 E.06245
G1 X130.03 Y84.128 E.07553
G1 X131.153 Y85.037 E.0627
G1 X132.342 Y86.096 E.0691
G1 X133.582 Y87.318 E.07558
G1 X134.212 Y87.992 E.04003
G1 X134.811 Y88.669 E.03927
G1 X135.82 Y89.903 E.06919
G1 X136.768 Y91.184 E.06914
G1 X137.651 Y92.508 E.06909
G1 X138.469 Y93.873 E.06909
G1 X139.22 Y95.277 E.06909
G1 X139.901 Y96.715 E.0691
G1 X140.507 Y98.172 E.06849
G1 X140.999 Y99.53 E.06269
G1 X141.534 Y101.272 E.07912
G1 X141.869 Y102.591 E.05906
G1 X142.219 Y104.299 E.07569
G1 X142.467 Y105.943 E.07218
G1 X142.62 Y107.45 E.06574
G1 X142.705 Y109.046 E.06937
G1 X142.717 Y110.419 E.05959
G1 X142.654 Y112.072 E.07181
G1 X142.514 Y113.663 E.06936
G1 X142.297 Y115.24 E.06907
G1 X141.973 Y116.947 E.07544
G1 X141.635 Y118.353 E.06274
G1 X141.191 Y119.882 E.06913
G1 X140.674 Y121.387 E.06911
G1 X140.084 Y122.865 E.06906
G1 X139.358 Y124.444 E.07545
G1 X138.695 Y125.721 E.06247
G1 X137.896 Y127.098 E.06911
G1 X137.026 Y128.443 E.06951
G1 X136.506 Y129.183 E.03927
G1 X135.874 Y130.027 E.04576
G1 X134.868 Y131.264 E.06921
G1 X133.905 Y132.341 E.06273
G1 X132.677 Y133.586 E.07591
G1 X132.008 Y134.212 E.03975
G1 X131.33 Y134.811 E.0393
G1 X130.108 Y135.812 E.06857
G1 X128.948 Y136.674 E.06274
G1 X127.5 Y137.646 E.07572
G1 X126.138 Y138.463 E.06891
G1 X124.867 Y139.147 E.06266
G1 X123.293 Y139.897 E.07572
G1 X121.827 Y140.507 E.06888
G1 X120.47 Y140.999 E.06268
G1 X118.728 Y141.534 E.07911
G1 X117.409 Y141.869 E.05906
G1 X115.701 Y142.219 E.0757
G1 X114.057 Y142.467 E.07218
G1 X112.55 Y142.62 E.06574
G1 X110.954 Y142.705 E.06937
G1 X109.582 Y142.717 E.05959
G1 X107.928 Y142.654 E.07181
G1 X106.337 Y142.514 E.06937
G1 X104.76 Y142.297 E.06906
G1 X103.054 Y141.973 E.0754
G1 X101.5 Y141.596 E.0694
G1 X100.119 Y141.192 E.06248
G1 X98.613 Y140.674 E.06914
G1 X97.133 Y140.083 E.06914
G1 X95.881 Y139.516 E.05969
G1 X94.459 Y138.793 E.06926
G1 X93.075 Y138.002 E.06918
G1 X92.182 Y137.442 E.04575
G1 X91.431 Y136.94 E.03922
G1 X89.97 Y135.871 E.07859
G1 X88.847 Y134.963 E.06268
G1 X87.658 Y133.904 E.0691
G1 X86.421 Y132.684 E.07545
G1 X85.292 Y131.449 E.0726
G1 X84.18 Y130.096 E.07605
G1 X83.232 Y128.816 E.06911
G1 X82.349 Y127.492 E.0691
G1 X81.531 Y126.127 E.06909
G1 X80.781 Y124.725 E.06903
G1 X80.099 Y123.285 E.06917
G1 X79.493 Y121.828 E.06848
G1 X79.001 Y120.469 E.06273
G1 X78.528 Y118.949 E.0691
G1 X78.098 Y117.266 E.0754
G1 X77.781 Y115.701 E.06931
G1 X77.533 Y114.057 E.07221
G1 X77.38 Y112.55 E.06573
G1 X77.295 Y110.954 E.06937
G1 X77.283 Y109.581 E.05959
G1 X77.346 Y107.928 E.07181
G1 X77.486 Y106.343 E.06908
G1 X77.703 Y104.76 E.06938
G1 X77.995 Y103.201 E.06881
G1 X78.363 Y101.653 E.06909
G1 X78.807 Y100.124 E.06909
G1 X79.326 Y98.613 E.06939
