; HEADER_BLOCK_START
; generated by AnycubicSlicerNext 1.3.3.1 on 2025-03-02 at 18:32:16
; total layer number: 75
; filament_density: 1.24
; filament_diameter: 1.75
; max_z_height: 15.04
; exclude_object: 0
; model_instances: 1
; HEADER_BLOCK_END

; THUMBNAIL_BLOCK_START
; THUMBNAIL_BLOCK_END

; external perimeters extrusion width = 0.42mm
; perimeters extrusion width = 0.45mm
; infill extrusion width = 0.45mm
; solid infill extrusion width = 0.42mm
; top infill extrusion width = 0.42mm
; support material extrusion width = 0.40mm
; first layer extrusion width = 0.50mm

; EXECUTABLE_BLOCK_START
M201 X2000 Y2000 Z800 E2000
M203 X300 Y300 Z8 E100
M204 P2000 R2000 T2000
M205 X10.00 Y10.00 Z2.00 E5.00 ; sets the jerk limits, mm/sec
;TYPE:Custom
G90 ; use absolute coordinates
M83 ; extruder relative mode
M104 S220 ; set extruder temp
M140 S60 ; set bed temp
M190 S60 ; wait for bed temp
M109 S220 ; wait for extruder temp
G28                                        ; move X/Y/Z to min endstops
G1 Z0.28                                   ; lift nozzle a bit 
G92 E0 
G1 Y3 F1800                                    ; zero the extruded length 
G1 X60  E25 F500                       ; Extrude 25mm of filament in a 5cm line. 
G92 E0                                     ; zero the extruded length again 
G1 E-2 F500                                ; Retract a little 
G1 X70 F4000                              ; Quickly wipe away from the filament line
M117
G90
G21
M83 ; use relative distances for extrusion
; filament start gcode
M106 S0
;LAYER_CHANGE
;Z:0.24
;HEIGHT:0.24
; BEFORE_LAYER_CHANGE 0 @ 0.24mm
G92 E0
G1 E-2.5 F6000
; AFTER_LAYER_CHANGE 0 @ 0.24mm
M204 P500
; printing object "Cyclo2Receiver.stl" id:1932082684160 copy 0
M204 T500
G1 X111.348 Y80.714 F18000
G1 Z.24
G1 E2.5 F6000
;TYPE:Support
;WIDTH:0.5
;MM3_PER_MM:0.107639
G1 F3000
G3 X115.489 Y83.111 I-.662 J5.918 E.21372
G3 X122.325 Y83.884 I2.922 J4.777 E.32158
G3 X126.552 Y87.435 I-.709 J5.136 E.25273
G3 X129.677 Y90.595 I-1.324 J4.434 E.2012
G3 X133.177 Y93.754 I-1.256 J4.912 E.21288
G3 X135.654 Y97.869 I-2.399 J4.246 E.21797
G3 X136.404 Y106.055 I-2.795 J4.384 E.41157
G2 X137.281 Y106.941 I1.304 J-.414 E.05619
G3 X137.616 Y115.147 I-3.207 J4.241 E.40736
G2 X137.413 Y116.297 I.433 J.669 E.05688
G3 X136.241 Y120.309 I-5.114 J.683 E.1868
G3 X134.678 Y123.577 I-4.443 J-.117 E.16197
G3 X132.813 Y126.134 I-5.551 J-2.09 E.13906
G3 X127.239 Y130.004 I-4.539 J-.588 E.33183
G3 X124.286 Y132.429 I-4.273 J-2.192 E.17056
G3 X117.762 Y135.763 I-4.472 J-.7 E.37056
G1 X116.923 Y135.9 E.03691
G3 X112.036 Y138.224 I-3.941 J-1.989 E.25284
G3 X104.332 Y136.795 I-3.158 J-4.459 E.37927
G3 X97.505 Y136.052 I-2.974 J-4.405 E.32406
G3 X93.722 Y133.379 I1.192 J-5.702 E.20681
G3 X90.711 Y128.304 I1.581 J-4.369 E.27756
G3 X88.952 Y126.694 I2.072 J-4.029 E.10473
G3 X84.239 Y121.837 I.362 J-5.066 E.3215
G3 X83.444 Y113.554 I3.108 J-4.478 E.41095
G3 X83.222 Y111.644 I4.229 J-1.458 E.08414
G3 X81.603 Y108.524 I2.864 J-3.467 E.15675
G3 X83.762 Y104.394 I4.972 J-.029 E.21054
G3 X84.348 Y98.545 I3.65 J-2.588 E.27841
G3 X88.21 Y93.979 I4.566 J-.055 E.28304
G3 X95.119 Y87.741 I5.161 J-1.229 E.49287
G3 X99.212 Y86.561 I3.279 J3.686 E.1912
G3 X102.633 Y84.252 I4.101 J2.387 E.18534
G3 X107.649 Y81.929 I3.964 J1.98 E.25912
G3 X111.281 Y80.711 I3.391 J4.09 E.17012
G1 X109.58 Y84.699 F18000
G1 F3000
G3 X109.513 Y84.7 I.438 J25.3 E6.89855
G1 E-1.75 F6000
;WIPE_START
G1 F3000
G1 X108.515 Y84.766 E-.75
;WIPE_END
G1 X138.903 Y113.026 F18000
G1 E2.5 F6000
G1 F3000
G2 X138.891 Y110.162 I-10.162 J-1.388 E.12473
G2 X138.405 Y108.886 I-4.997 J1.171 E.05948
G1 X138.405 Y113.612 E.20515
G3 X137.906 Y114.337 I-2.332 J-1.068 E.03838
G1 X137.906 Y108.117 E.26999
G2 X137.408 Y107.58 I-2.722 J2.028 E.03185
G1 X137.408 Y115.103 E.32652
G1 E-1.75 F6000
;WIPE_START
G1 F3000
G1 X137.408 Y114.103 E-.75
;WIPE_END
G1 X137.408 Y104.386 F18000
G1 E2.5 F6000
G1 F3000
G1 X137.408 Y100.747 E.15796
G2 X136.91 Y99.69 I-6.348 J2.347 E.05078
G1 X136.91 Y104.889 E.22568
G3 X136.411 Y105.52 I-1.737 J-.859 E.03516
G1 X136.411 Y99.025 E.28193
G1 X135.913 Y98.553 E.02979
G1 X135.913 Y120.071 E.93404
G2 X136.411 Y119.442 I-1.287 J-1.532 E.03506
G1 X136.411 Y106.861 E.54615
G3 X136.91 Y107.174 I-.893 J1.972 E.02564
G1 X136.91 Y118.973 E.51214
G1 X135.415 Y122.42 F18000
G1 F3000
G1 X135.415 Y113.87 E.37117
G3 X134.916 Y116.33 I-27.554 J-4.299 E.10902
G1 X134.916 Y122.764 E.27926
G3 X134.418 Y123.266 I-1.394 J-.884 E.03097
G1 X134.418 Y118.036 E.22702
G3 X133.92 Y119.418 I-21.569 J-7.002 E.06375
G1 X133.92 Y124.365 E.21474
G3 X133.421 Y125.074 I-1.961 J-.848 E.0379
G1 X133.421 Y120.599 E.19427
G3 X132.923 Y121.635 I-27.529 J-12.604 E.0499
G1 X132.923 Y125.56 E.17037
G1 X132.425 Y125.964 E.02786
G1 X132.425 Y122.57 E.14733
G3 X131.926 Y123.422 I-45.688 J-26.167 E.04283
G1 X131.926 Y127.567 E.17996
G3 X131.428 Y128.28 I-1.981 J-.853 E.03803
G1 X131.428 Y124.2 E.17712
G3 X130.93 Y124.928 I-27.161 J-18.056 E.0383
G1 X130.93 Y128.768 E.16668
G3 X130.431 Y129.135 I-1.139 J-1.027 E.02704
G1 X130.431 Y125.6 E.15343
G3 X129.933 Y126.234 I-15.52 J-11.681 E.03501
G1 X129.933 Y129.378 E.13647
G3 X129.435 Y129.552 I-.671 J-1.123 E.02307
G1 X129.402 Y126.866 E.11659
G3 X128.936 Y127.387 I-35.307 J-31.078 E.03031
G1 X128.936 Y129.68 E.09953
G3 X128.438 Y129.708 I-.318 J-1.196 E.02182
G1 X128.438 Y127.912 E.07795
G2 X127.94 Y129.705 I.992 J1.241 E.08629
G1 X127.441 Y129.627 E.02189
G1 X127.441 Y128.884 E.03227
G2 X126.943 Y129.712 I.415 J.814 E.04422
G1 X126.445 Y130.541 E.04196
G1 X126.445 Y129.76 E.0339
G2 X125.946 Y131.106 I.47 J.939 E.06861
G3 X125.448 Y131.493 I-1.128 J-.939 E.0276
G1 X125.448 Y130.547 E.04107
G2 X124.95 Y131.778 I.364 J.864 E.06407
G1 X124.452 Y131.976 E.02329
G1 X124.452 Y131.261 E.03104
G2 X123.953 Y132.075 I.268 J.724 E.04465
G1 X123.916 Y132.081 E.00165
G3 X123.455 Y133.763 I-4.172 J-.239 E.07627
G1 X123.455 Y131.905 E.08065
G3 X122.957 Y132.202 I-8.012 J-12.875 E.02518
G1 X122.957 Y134.496 E.09955
G3 X122.458 Y134.993 I-1.413 J-.916 E.0308
G1 X122.458 Y132.487 E.10878
G3 X121.96 Y132.756 I-7.962 J-14.199 E.02457
G1 X121.96 Y135.355 E.11285
G3 X121.462 Y135.588 I-.793 J-1.049 E.02405
G1 X121.462 Y133.012 E.11182
G3 X120.963 Y133.253 I-20.364 J-41.34 E.02404
G1 X120.963 Y135.766 E.10908
G1 X120.465 Y135.871 E.0221
G1 X120.465 Y133.482 E.10371
G3 X119.967 Y133.696 I-8.797 J-19.75 E.02355
G1 X119.967 Y135.901 E.0957
G1 X119.468 Y135.899 E.02163
G1 X119.468 Y133.9 E.08674
G3 X118.97 Y134.09 I-5.47 J-13.59 E.02315
G1 X118.97 Y135.79 E.07377
G3 X118.472 Y135.641 I.098 J-1.238 E.02274
G1 X118.472 Y134.272 E.05945
G1 X117.973 Y134.44 E.02283
G1 X117.973 Y135.415 E.04235
G2 X117.475 Y135.401 I-.26 J.366 E.02294
G1 X117.475 Y134.597 E.0349
G2 X116.977 Y135.483 I.017 J.592 E.05301
G2 X116.478 Y135.878 I-.099 J.387 E.03192
G1 X116.478 Y134.878 E.0434
G3 X115.98 Y135.003 I-4.645 J-17.536 E.0223
G1 X115.98 Y136.573 E.06815
G3 X115.482 Y137.044 I-1.363 J-.943 E.02998
G1 X115.482 Y135.117 E.08365
G3 X114.983 Y135.22 I-4.063 J-18.311 E.02209
G1 X114.983 Y137.397 E.09451
G1 X114.485 Y137.642 E.0241
G1 X114.485 Y135.313 E.1011
G3 X113.987 Y135.397 I-2.763 J-14.934 E.02194
G1 X113.987 Y137.802 E.10441
G1 X113.488 Y137.926 E.0223
G1 X113.488 Y135.47 E.10664
G3 X112.99 Y135.532 I-1.985 J-13.904 E.0218
G1 X112.99 Y137.931 E.10415
G3 X112.492 Y137.911 I-.204 J-1.1 E.02183
G1 X112.492 Y135.587 E.10087
G3 X111.993 Y135.629 I-1.662 J-16.569 E.02171
G1 X111.993 Y137.801 E.09427
G1 X111.495 Y138.097 E.02517
G1 X111.495 Y135.664 E.10563
G3 X110.997 Y135.687 I-.889 J-13.699 E.02166
G1 X110.997 Y138.387 E.11721
G1 X110.498 Y138.6 E.02352
G1 X110.498 Y135.703 E.12576
G3 X110 Y135.708 I-.824 J-57.526 E.02163
G1 X110 Y138.743 E.13175
G1 X109.502 Y138.857 E.02219
G1 X109.502 Y135.701 E.13697
G3 X109.003 Y135.688 I.121 J-13.912 E.02164
G1 X109.003 Y138.881 E.1386
G3 X108.505 Y138.884 I-.258 J-1.371 E.02175
G1 X108.505 Y135.664 E.13979
G3 X108.007 Y135.63 I.787 J-15.094 E.02168
G1 X108.007 Y138.817 E.13835
G3 X107.508 Y138.706 I.056 J-1.428 E.02228
G1 X107.472 Y135.583 E.13557
G3 X107.01 Y135.533 I1.753 J-18.292 E.02017
G1 X107.01 Y138.544 E.13071
G3 X106.512 Y138.3 I.423 J-1.495 E.02422
G1 X106.512 Y135.468 E.12292
G3 X106.013 Y135.397 I2.259 J-17.491 E.02185
G1 X106.013 Y138.004 E.11319
G1 X105.515 Y137.607 E.02767
G1 X105.515 Y135.313 E.09958
G3 X105.017 Y135.22 I2.463 J-14.592 E.02201
G1 X105.017 Y137.066 E.08013
G3 X104.518 Y135.116 I1.51 J-1.425 E.09119
G3 X104.02 Y135.001 I2.94 J-13.853 E.0222
G1 X104.02 Y136.517 E.0658
G3 X103.522 Y136.806 I-1.048 J-1.229 E.02515
G1 X103.522 Y134.878 E.0837
G3 X103.023 Y134.742 I4.279 J-16.638 E.02243
G1 X103.023 Y137.019 E.09884
G3 X102.525 Y137.162 I-.642 J-1.302 E.02262
G1 X102.525 Y134.597 E.11134
G3 X102.027 Y134.438 I4.102 J-13.774 E.0227
G1 X102.027 Y137.275 E.12314
G3 X101.528 Y137.299 I-.315 J-1.362 E.02177
G1 X101.528 Y134.272 E.13139
G3 X101.03 Y134.092 I6.868 J-19.802 E.023
G1 X101.03 Y137.302 E.13933
G1 X100.532 Y137.234 E.02183
G1 X100.532 Y133.9 E.14473
G3 X100.033 Y133.697 I5.975 J-15.383 E.02336
G1 X100.033 Y137.123 E.14871
G1 X99.535 Y136.961 E.02275
G1 X99.498 Y133.465 E.15175
G3 X99.037 Y133.251 I8.307 J-18.5 E.02208
G1 X99.037 Y136.716 E.15042
G3 X98.538 Y136.42 I.569 J-1.522 E.02531
G1 X98.538 Y133.011 E.14797
G3 X98.04 Y132.756 I7.615 J-15.492 E.0243
G1 X98.04 Y136.022 E.1418
G2 X97.542 Y135.648 I-.941 J.735 E.02737
G1 X97.542 Y132.486 E.13729
G3 X97.043 Y132.204 I8.06 J-14.842 E.02485
G1 X97.043 Y135.555 E.14546
G3 X96.545 Y135.378 I.226 J-1.423 E.02309
G1 X96.545 Y131.905 E.15073
G3 X96.047 Y131.59 I7.999 J-13.195 E.0256
G1 X96.047 Y135.162 E.15505
G1 X95.548 Y134.853 E.02544
G1 X95.548 Y131.262 E.15592
G3 X95.05 Y130.913 I9.467 J-14.064 E.0264
G1 X95.05 Y134.444 E.15327
G3 X94.552 Y133.91 I1.18 J-1.601 E.03188
G1 X94.552 Y130.549 E.14591
G3 X94.054 Y130.164 I12.513 J-16.726 E.02733
G1 X94.054 Y133.14 E.1292
G1 X94.007 Y133.048 E.00448
G3 X93.555 Y132.887 I.682 J-2.635 E.02086
G1 X93.555 Y129.76 E.13573
G3 X93.057 Y129.334 I34.852 J-41.206 E.02848
G1 X93.057 Y132.64 E.14351
G3 X92.559 Y132.307 I1.443 J-2.699 E.02606
G1 X92.547 Y128.876 E.14892
G3 X92.06 Y128.412 I12.114 J-13.196 E.0292
G1 X92.06 Y131.826 E.1482
G3 X91.562 Y131.157 I1.428 J-1.584 E.03644
G1 X91.562 Y127.914 E.14077
G3 X91.064 Y127.384 I12.778 J-12.518 E.03158
G1 X91.064 Y130.547 E.13727
G1 E-1.75 F6000
;WIPE_START
G1 F3000
G1 X91.064 Y129.547 E-.75
;WIPE_END
G1 X135.415 Y107.86 F18000
G1 E2.5 F6000
G1 F3000
G1 X135.415 Y98.195 E.41956
G1 X135.271 Y98.101 E.00747
G2 X134.916 Y96.271 I-6.419 J.294 E.08117
G1 X134.916 Y103.67 E.32117
G2 X134.418 Y101.959 I-24.823 J6.301 E.07738
G1 X134.418 Y95.392 E.28505
G2 X133.92 Y94.798 I-1.763 J.972 E.03387
G1 X133.92 Y100.584 E.25114
G2 X133.421 Y99.405 I-21.418 J8.36 E.05556
G1 X133.421 Y94.38 E.21813
G2 X132.923 Y94.074 I-1.027 J1.117 E.02553
G1 X132.923 Y98.366 E.18632
G2 X132.425 Y97.43 I-21.164 J10.664 E.04604
G1 X132.425 Y93.02 E.19143
G2 X131.926 Y92.325 I-1.937 J.861 E.0374
G1 X131.926 Y96.579 E.1847
G2 X131.428 Y95.799 I-20.626 J12.623 E.04019
G1 X131.428 Y91.848 E.17153
G2 X130.93 Y91.489 I-1.12 J1.03 E.02685
G1 X130.93 Y95.073 E.15559
G2 X130.431 Y94.397 I-18.039 J12.787 E.03644
G1 X130.431 Y91.245 E.13683
G2 X129.933 Y91.077 I-.656 J1.125 E.02298
G1 X129.933 Y93.767 E.11674
G2 X129.435 Y93.173 I-15.594 J12.57 E.03367
G1 X129.374 Y90.934 E.0972
G2 X128.936 Y89.837 I-2.891 J.518 E.05161
G1 X128.936 Y92.616 E.1206
G2 X128.438 Y92.086 I-13.281 J11.992 E.03158
G1 X128.438 Y89.111 E.12911
G2 X127.94 Y88.61 I-1.453 J.947 E.03089
G1 X127.94 Y91.588 E.12925
G2 X127.441 Y91.113 I-31.257 J32.321 E.02987
G1 X127.441 Y88.274 E.12324
G2 X126.943 Y88.032 I-.833 J1.08 E.02423
G1 X126.943 Y90.666 E.11436
G2 X126.445 Y90.24 I-35.337 J40.764 E.02848
G1 X126.445 Y87.828 E.1047
G3 X125.946 Y86.993 I.881 J-1.092 E.04307
G1 X125.946 Y89.836 E.1234
G2 X125.448 Y89.451 I-13.021 J16.354 E.02733
G1 X125.448 Y86.161 E.14282
G2 X124.95 Y85.59 I-1.779 J1.048 E.03311
G1 X124.95 Y89.087 E.15182
G2 X124.452 Y88.738 I-9.969 J13.72 E.0264
G1 X124.452 Y85.153 E.15563
G1 X123.953 Y84.845 E.02544
G1 X123.953 Y88.41 E.15476
G2 X123.455 Y88.095 I-8.497 J12.88 E.0256
G1 X123.455 Y84.608 E.15136
G1 X122.957 Y84.415 E.0232
G1 X122.957 Y87.796 E.14678
G2 X122.458 Y87.514 I-8.559 J14.56 E.02485
G1 X122.458 Y84.319 E.1387
G3 X121.96 Y84.093 I-.076 J-.495 E.02513
G1 X121.96 Y87.244 E.13679
G2 X121.462 Y86.989 I-8.113 J15.236 E.0243
G1 X121.462 Y83.638 E.14547
G1 X120.963 Y83.309 E.02592
G1 X120.963 Y86.749 E.14932
G2 X120.465 Y86.518 I-7.812 J16.246 E.02383
G1 X120.465 Y83.058 E.15023
G2 X119.967 Y82.849 I-.825 J1.269 E.02358
G1 X119.967 Y86.303 E.14994
G2 X119.468 Y86.1 I-6.474 J15.182 E.02336
G1 X119.468 Y82.735 E.14607
G2 X118.97 Y82.65 I-.483 J1.33 E.02206
G1 X118.958 Y85.903 E.14122
G2 X118.472 Y85.728 I-7.235 J19.311 E.02243
G1 X118.472 Y82.627 E.13459
G2 X117.973 Y82.654 I-.176 J1.386 E.02178
G1 X117.973 Y85.562 E.12621
G2 X117.475 Y85.403 I-4.6 J13.615 E.0227
G1 X117.475 Y82.722 E.1164
G2 X116.977 Y82.864 I.143 J1.444 E.02262
G1 X116.977 Y85.258 E.10392
G2 X116.478 Y85.122 I-4.77 J16.475 E.02243
G1 X116.478 Y83.037 E.09049
G1 X115.98 Y83.305 E.02456
G1 X115.98 Y84.999 E.07352
G2 X115.482 Y84.884 I-3.442 J13.746 E.0222
G1 X115.482 Y83.574 E.05687
G1 X115.37 Y83.634 E.00552
G1 X114.983 Y83.102 E.02853
G1 X114.983 Y84.78 E.07284
G2 X114.485 Y84.687 I-2.96 J14.497 E.02201
G1 X114.485 Y82.525 E.09385
G2 X113.987 Y82.084 I-1.464 J1.152 E.02904
G1 X113.972 Y84.601 E.10924
G2 X113.488 Y84.532 I-2.543 J16.065 E.02121
G1 X113.488 Y81.755 E.12052
G2 X112.99 Y81.515 I-.912 J1.253 E.02415
G1 X112.99 Y84.467 E.12815
G2 X112.492 Y84.413 I-2.051 J16.81 E.02176
G1 X112.492 Y81.315 E.1345
G1 X111.993 Y81.201 E.02219
G1 X111.993 Y84.37 E.13755
G2 X111.495 Y84.336 I-1.285 J15.06 E.02168
G1 X111.495 Y81.125 E.13938
G1 X110.997 Y81.103 E.02165
G1 X110.997 Y84.312 E.13931
G2 X110.498 Y84.299 I-.62 J13.92 E.02164
G1 X110.498 Y81.138 E.1372
G1 X110 Y81.205 E.02183
G1 X109.986 Y84.292 E.13398
G2 X109.502 Y84.297 I-.001 J23.941 E.02102
G1 X109.502 Y81.356 E.12763
G2 X109.003 Y81.54 I.256 J1.465 E.02317
G1 X109.003 Y84.311 E.12031
G2 X108.505 Y84.337 I.779 J19.865 E.02166
G1 X108.505 Y81.808 E.10979
G2 X108.007 Y82.159 I.719 J1.549 E.02661
G1 X108.007 Y84.37 E.09597
G2 X107.508 Y84.414 I1.155 J16.064 E.02172
G1 X107.508 Y82.311 E.09126
G2 X107.01 Y82.206 I-.495 J1.111 E.02227
G1 X107.01 Y84.468 E.09817
G1 X106.512 Y84.53 E.0218
G1 X106.512 Y82.206 E.10089
G2 X106.013 Y82.239 I-.171 J1.181 E.02184
G1 X105.977 Y84.608 E.10287
G2 X105.515 Y84.688 I2.944 J18.467 E.02036
G1 X105.515 Y82.345 E.10171
G2 X105.017 Y82.527 I.177 J1.255 E.02321
G1 X105.017 Y84.78 E.09778
G2 X104.518 Y84.884 I2.998 J15.623 E.0221
G1 X104.518 Y82.764 E.092
G1 X104.02 Y83.129 E.0268
G1 X103.982 Y85.006 E.08151
G2 X103.522 Y85.122 I4.377 J18.41 E.0206
G1 X103.522 Y83.635 E.06456
G2 X103.023 Y85.259 I1.259 J1.275 E.07683
G2 X102.525 Y85.403 I3.818 J14.078 E.02253
G1 X102.525 Y84.662 E.03216
G2 X102.027 Y84.759 I-.031 J1.18 E.0222
G1 X102.001 Y85.568 E.03517
G2 X101.528 Y85.728 I6.16 J18.983 E.02165
G1 X101.528 Y84.902 E.03588
G1 X101.03 Y85.166 E.02448
G1 X101.03 Y85.91 E.03229
G3 X100.532 Y85.523 I-.273 J-.162 E.04678
G2 X100.033 Y86.523 I.371 J.809 E.05244
G1 X98.538 Y87.215 F18000
G1 F3000
G1 X98.538 Y86.86 E.01542
G2 X98.04 Y86.852 I-.267 J1.128 E.0218
G1 X98.04 Y87.244 E.01705
G2 X97.542 Y87.513 I7.464 J14.467 E.02457
G1 X97.542 Y86.883 E.02733
G1 X97.043 Y87.021 E.02245
G1 X97.043 Y87.798 E.0337
