; HEADER_BLOCK_START
; generated by AnycubicSlicerNext 1.3.3.1 on 2025-03-04 at 22:08:38
; total layer number: 35
; filament_density: 1.24
; filament_diameter: 1.75
; max_z_height: 7.04
; exclude_object: 0
; model_instances: 1
; HEADER_BLOCK_END

; THUMBNAIL_BLOCK_START
; THUMBNAIL_BLOCK_END

; external perimeters extrusion width = 0.42mm
; perimeters extrusion width = 0.45mm
; infill extrusion width = 0.45mm
; solid infill extrusion width = 0.42mm
; top infill extrusion width = 0.42mm
; support material extrusion width = 0.40mm
; first layer extrusion width = 0.50mm

; EXECUTABLE_BLOCK_START
M201 X2000 Y2000 Z800 E2000
M203 X300 Y300 Z8 E100
M204 P2000 R2000 T2000
M205 X10.00 Y10.00 Z2.00 E5.00 ; sets the jerk limits, mm/sec
;TYPE:Custom
G90 ; use absolute coordinates
M83 ; extruder relative mode
M104 S220 ; set extruder temp
M140 S60 ; set bed temp
M190 S60 ; wait for bed temp
M109 S220 ; wait for extruder temp
G28                                        ; move X/Y/Z to min endstops
G1 Z0.28                                   ; lift nozzle a bit 
G92 E0 
G1 Y3 F1800                                    ; zero the extruded length 
G1 X60  E25 F500                       ; Extrude 25mm of filament in a 5cm line. 
G92 E0                                     ; zero the extruded length again 
G1 E-2 F500                                ; Retract a little 
G1 X70 F4000                              ; Quickly wipe away from the filament line
M117
G90
G21
M83 ; use relative distances for extrusion
; filament start gcode
M106 S0
;LAYER_CHANGE
;Z:0.24
;HEIGHT:0.24
; BEFORE_LAYER_CHANGE 0 @ 0.24mm
G92 E0
G1 E-2.5 F6000
; AFTER_LAYER_CHANGE 0 @ 0.24mm
M204 P500
; printing object "Cyclo2Disk33.stl" id:0 copy 0
M204 T500
G1 X90.272 Y88.897 F18000
G1 Z.24
G1 E2.5 F6000
;TYPE:Brim
;WIDTH:0.5
;MM3_PER_MM:0.107639
G1 F3000
G1 X90.609 Y88.567 E.02049
G1 X91.237 Y88.051 E.03529
G1 X91.91 Y87.611 E.03487
G1 X92.611 Y87.255 E.03415
G1 X93.125 Y87.054 E.02394
G1 X93.216 Y86.987 E.00493
G1 X93.617 Y86.497 E.02748
G1 X94.173 Y85.94 E.03414
G1 X94.798 Y85.437 E.03483
G1 X95.48 Y85 E.03519
G1 X96.206 Y84.64 E.03515
G1 X96.957 Y84.366 E.03472
G1 X97.717 Y84.177 E.03399
G1 X98.083 Y84.118 E.01608
G1 X98.187 Y84.073 E.0049
G1 X98.826 Y83.567 E.03539
G1 X99.496 Y83.148 E.03428
G1 X100.224 Y82.796 E.03512
G1 X100.529 Y82.677 E.01419
G1 X101.307 Y82.44 E.03535
G1 X102.096 Y82.29 E.03484
G1 X102.88 Y82.229 E.03413
G1 X103.542 Y82.243 E.02873
G1 X103.652 Y82.216 E.00493
G1 X104.113 Y81.97 E.02268
G1 X104.84 Y81.668 E.03418
G1 X105.61 Y81.441 E.03485
G1 X106.411 Y81.297 E.03531
G1 X106.881 Y81.254 E.02048
G1 X107.689 Y81.251 E.03512
G1 X108.477 Y81.334 E.03438
G1 X109.258 Y81.503 E.03467
G1 X109.365 Y81.5 E.00467
G1 X110.047 Y81.311 E.03072
G1 X110.83 Y81.179 E.03445
G1 X111.316 Y81.14 E.02117
G1 X112.142 Y81.147 E.03585
G1 X112.914 Y81.238 E.03375
G1 X113.698 Y81.417 E.03492
G1 X114.443 Y81.675 E.03421
G1 X114.995 Y81.93 E.0264
G1 X115.107 Y81.95 E.00492
G1 X115.681 Y81.905 E.02503
G1 X116.467 Y81.918 E.03409
G1 X117.262 Y82.017 E.03479
G1 X118.05 Y82.205 E.03518
G1 X118.813 Y82.478 E.03517
G1 X119.534 Y82.828 E.03476
G1 X120.198 Y83.244 E.03404
G1 X120.535 Y83.5 E.01837
G1 X120.64 Y83.544 E.00491
G1 X121.394 Y83.649 E.03307
G1 X122.16 Y83.84 E.03424
G1 X122.918 Y84.119 E.03508
G1 X123.215 Y84.255 E.01419
G1 X123.927 Y84.651 E.03536
G1 X124.583 Y85.115 E.03486
G1 X125.173 Y85.637 E.0342
G1 X125.659 Y86.166 E.03118
G1 X125.754 Y86.227 E.00492
G1 X126.197 Y86.372 E.02023
G1 X126.918 Y86.684 E.03412
G1 X127.616 Y87.08 E.03482
G1 X128.273 Y87.555 E.03518
G1 X128.874 Y88.098 E.03515
G1 X129.406 Y88.696 E.03475
G1 X129.86 Y89.335 E.03402
G1 X130.129 Y89.796 E.02317
G1 X130.209 Y89.876 E.00491
G1 X130.769 Y90.207 E.02828
G1 X131.405 Y90.676 E.03428
G1 X131.999 Y91.224 E.03506
G1 X132.317 Y91.572 E.02048
G1 X132.811 Y92.218 E.03532
G1 X133.227 Y92.907 E.03493
G1 X133.56 Y93.623 E.03428
G1 X133.777 Y94.252 E.02885
G1 X133.839 Y94.346 E.0049
G1 X134.227 Y94.692 E.02259
G1 X134.762 Y95.266 E.03404
G1 X135.242 Y95.907 E.03477
G1 X135.654 Y96.603 E.03515
G1 X135.988 Y97.342 E.03518
G1 X136.237 Y98.104 E.03481
G1 X136.399 Y98.873 E.03409
G1 X136.454 Y99.349 E.02082
G1 X136.495 Y99.455 E.00493
G1 X136.908 Y100.027 E.03062
G1 X137.302 Y100.709 E.03419
G1 X137.627 Y101.448 E.03504
G1 X137.736 Y101.756 E.01418
G1 X137.946 Y102.543 E.03536
G1 X138.067 Y103.338 E.03492
G1 X138.102 Y104.126 E.03423
G1 X138.053 Y104.899 E.03364
G1 X138.075 Y105.01 E.0049
G1 X138.252 Y105.38 E.01778
G1 X138.527 Y106.114 E.03407
G1 X138.727 Y106.89 E.03478
G1 X138.842 Y107.692 E.03517
G1 X138.868 Y108.502 E.03517
G1 X138.807 Y109.302 E.0348
G1 X138.663 Y110.073 E.03405
G1 X138.5 Y110.64 E.02563
G1 X138.497 Y110.753 E.00492
G1 X138.634 Y111.335 E.02592
G1 X138.705 Y111.789 E.01997
G1 X138.759 Y112.59 E.03483
G1 X138.756 Y112.914 E.01408
G1 X138.687 Y113.726 E.03536
G1 X138.53 Y114.519 E.03511
G1 X138.29 Y115.284 E.03476
G1 X138.115 Y115.71 E.02
G1 X137.785 Y116.354 E.03143
G1 X137.76 Y116.459 E.00466
G1 X137.769 Y117.247 E.0342
G1 X137.735 Y117.707 E.02005
G1 X137.607 Y118.499 E.03482
G1 X137.392 Y119.28 E.03514
G1 X137.091 Y120.036 E.03535
G1 X136.949 Y120.327 E.01406
G1 X136.543 Y121.017 E.03475
G1 X136.277 Y121.392 E.01994
G1 X135.933 Y121.806 E.02337
G1 X135.885 Y121.909 E.00493
G1 X135.769 Y122.547 E.02815
G1 X135.552 Y123.303 E.03415
G1 X135.248 Y124.046 E.03485
G1 X134.862 Y124.759 E.03519
G1 X134.4 Y125.424 E.03515
G1 X133.875 Y126.028 E.03471
G1 X133.301 Y126.56 E.03398
G1 X133.021 Y126.78 E.01547
G1 X132.953 Y126.87 E.0049
G1 X132.633 Y127.636 E.03601
G1 X132.247 Y128.329 E.03445
G1 X132.069 Y128.598 E.014
G1 X131.57 Y129.241 E.03532
G1 X131.004 Y129.824 E.03529
G1 X130.649 Y130.132 E.02039
G1 X130 Y130.603 E.03482
G1 X129.735 Y130.766 E.01348
G1 X129.16 Y131.068 E.02822
G1 X129.076 Y131.145 E.00493
G1 X128.783 Y131.596 E.02336
G1 X128.293 Y132.213 E.03417
G1 X127.729 Y132.784 E.03488
G1 X127.097 Y133.297 E.0353
G1 X126.706 Y133.561 E.02049
G1 X126 Y133.955 E.0351
G1 X125.27 Y134.263 E.03438
G1 X124.521 Y134.489 E.03398
G1 X124.428 Y134.544 E.00466
G1 X123.912 Y135.051 E.03142
G1 X123.293 Y135.543 E.03434
G1 X122.611 Y135.973 E.03499
G1 X121.88 Y136.33 E.03533
G1 X121.44 Y136.499 E.02047
G1 X120.665 Y136.722 E.03499
G1 X119.889 Y136.857 E.03421
G1 X119.298 Y136.9 E.02572
G1 X119.19 Y136.937 E.00493
G1 X118.696 Y137.263 E.0257
G1 X118.002 Y137.631 E.03409
G1 X117.258 Y137.929 E.03481
G1 X116.477 Y138.146 E.03519
G1 X115.677 Y138.276 E.03516
G1 X114.878 Y138.318 E.03474
G1 X114.095 Y138.274 E.03401
G1 X113.695 Y138.215 E.01758
G1 X113.582 Y138.227 E.00495
G1 X112.853 Y138.507 E.03387
G1 X112.091 Y138.71 E.03425
G1 X111.295 Y138.832 E.03493
G1 X110.481 Y138.867 E.03537
G1 X110.155 Y138.856 E.01418
G1 X109.353 Y138.766 E.03503
G1 X108.585 Y138.594 E.03414
G1 X107.93 Y138.37 E.03009
G1 X107.815 Y138.362 E.00501
G1 X107.332 Y138.455 E.02135
G1 X106.549 Y138.53 E.03412
G1 X105.747 Y138.521 E.03483
G1 X104.942 Y138.423 E.03519
G1 X104.154 Y138.238 E.03516
G1 X103.399 Y137.971 E.03474
G1 X102.82 Y137.695 E.02787
G1 X102.26 Y137.367 E.02817
G1 X102.153 Y137.336 E.00483
G1 X101.473 Y137.317 E.02954
G1 X100.689 Y137.213 E.0343
G1 X99.907 Y137.022 E.03495
G1 X99.143 Y136.744 E.03532
G1 X98.714 Y136.544 E.02052
G1 X98.111 Y136.205 E.03006
G1 X97.402 Y135.688 E.03806
G1 X96.891 Y135.239 E.02951
G1 X96.793 Y135.189 E.00479
G1 X96.273 Y135.071 E.02313
G1 X95.528 Y134.827 E.03405
G1 X94.797 Y134.499 E.03477
G1 X94.098 Y134.087 E.0352
G1 X93.536 Y133.676 E.03022
G1 X92.879 Y133.064 E.03901
G1 X92.639 Y132.814 E.01503
G1 X92.433 Y132.566 E.01401
G1 X92.079 Y132.082 E.02602
G1 X91.994 Y132.011 E.00483
G1 X91.342 Y131.705 E.03126
G1 X90.667 Y131.298 E.0342
G1 X90.026 Y130.81 E.03496
G1 X89.53 Y130.349 E.02941
G1 X89.297 Y130.088 E.01516
G1 X88.718 Y129.359 E.04039
G1 X88.384 Y128.819 E.02757
G1 X88.176 Y128.422 E.01946
G1 X87.996 Y128.015 E.01932
G1 X87.921 Y127.923 E.00517
G1 X87.57 Y127.674 E.01865
G1 X86.974 Y127.164 E.03407
G1 X86.421 Y126.578 E.03497
G1 X86.207 Y126.316 E.01471
G1 X86.005 Y126.027 E.01528
G1 X85.525 Y125.25 E.03965
G1 X85.244 Y124.648 E.02885
G1 X84.984 Y123.915 E.03375
G1 X84.811 Y123.201 E.03188
G1 X84.759 Y123.103 E.00481
G1 X84.35 Y122.652 E.02643
G1 X83.879 Y122.015 E.03442
G1 X83.698 Y121.73 E.01466
G1 X83.533 Y121.42 E.01523
G1 X83.148 Y120.593 E.03957
G1 X82.939 Y119.958 E.02905
G1 X82.766 Y119.186 E.03432
G1 X82.676 Y118.408 E.03403
G1 X82.664 Y117.863 E.02364
G1 X82.635 Y117.757 E.00477
G1 X82.238 Y117.058 E.0349
G1 X82.094 Y116.756 E.01452
G1 X81.968 Y116.432 E.01509
G1 X81.687 Y115.574 E.03921
G1 X81.555 Y114.918 E.02905
G1 X81.473 Y114.121 E.03478
G1 X81.465 Y113.653 E.02032
G1 X81.52 Y112.862 E.03439
G1 X81.638 Y112.191 E.02959
G1 X81.631 Y112.085 E.00461
G1 X81.374 Y111.269 E.03714
G1 X81.193 Y110.37 E.0398
G1 X81.139 Y109.705 E.02896
G1 X81.136 Y109.243 E.02005
G1 X81.201 Y108.433 E.0353
G1 X81.352 Y107.645 E.03482
G1 X81.582 Y106.894 E.03409
G1 X81.778 Y106.421 E.02219
G1 X81.791 Y106.299 E.00536
G1 X81.7 Y105.507 E.03461
G1 X81.688 Y104.867 E.02776
G1 X81.76 Y104.051 E.03557
G1 X81.921 Y103.253 E.03535
G1 X82.01 Y102.938 E.01419
G1 X82.289 Y102.18 E.03509
G1 X82.64 Y101.473 E.03423
G1 X83.074 Y100.798 E.03485
G1 X83.108 Y100.696 E.00468
G1 X83.18 Y99.856 E.0366
G1 X83.235 Y99.543 E.0138
G1 X83.438 Y98.755 E.03533
G1 X83.725 Y97.997 E.03517
G1 X84.094 Y97.275 E.03517
G1 X84.534 Y96.605 E.03481
G1 X85.033 Y95.999 E.03408
G1 X85.468 Y95.565 E.02667
G1 X85.526 Y95.465 E.00501
G1 X85.673 Y94.923 E.02437
G1 X85.962 Y94.181 E.03457
G1 X86.334 Y93.469 E.0349
G1 X86.787 Y92.793 E.03531
G1 X87.083 Y92.425 E.02049
G1 X87.642 Y91.842 E.03509
G1 X88.248 Y91.333 E.03434
G1 X88.861 Y90.92 E.03207
G1 X88.933 Y90.841 E.00467
G1 X89.297 Y90.164 E.03333
G1 X89.745 Y89.511 E.03438
G1 X90.246 Y88.927 E.03338
G1 X90.586 Y89.219 F18000
G1 F3000
G1 X90.595 Y89.208 E.00062
G1 X90.905 Y88.905 E.0188
G1 X91.497 Y88.417 E.03332
G1 X92.129 Y88.004 E.03276
G1 X92.789 Y87.667 E.03218
G1 X93.276 Y87.476 E.02274
G1 X93.477 Y87.351 E.01025
G1 X93.569 Y87.264 E.0055
G1 X93.955 Y86.793 E.02643
G1 X94.479 Y86.27 E.03215
G1 X95.066 Y85.797 E.03272
G1 X95.695 Y85.395 E.03242
G1 X96.377 Y85.056 E.03302
G1 X97.082 Y84.797 E.03262
G1 X97.802 Y84.618 E.0322
G1 X98.142 Y84.563 E.01498
G1 X98.364 Y84.484 E.01019
G1 X98.472 Y84.419 E.00547
G1 X99.091 Y83.93 E.03426
G1 X99.707 Y83.546 E.03152
G1 X100.399 Y83.21 E.0334
G1 X100.681 Y83.099 E.01314
G1 X101.408 Y82.878 E.03298
G1 X102.148 Y82.737 E.03273
G1 X102.886 Y82.678 E.03212
G1 X103.523 Y82.691 E.02767
G1 X103.649 Y82.678 E.0055
G1 X103.875 Y82.606 E.01025
G1 X104.311 Y82.373 E.02149
G1 X104.997 Y82.089 E.03222
G1 X105.72 Y81.876 E.03273
G1 X106.476 Y81.741 E.03333
G1 X106.907 Y81.703 E.01879
G1 X107.674 Y81.701 E.03327
G1 X108.399 Y81.777 E.03163
G1 X109.274 Y81.951 E.03875
G1 X109.497 Y81.929 E.00971
G1 X110.152 Y81.748 E.0295
G1 X110.879 Y81.625 E.03201
G1 X111.338 Y81.589 E.01997
G1 X112.106 Y81.595 E.03336
G1 X112.83 Y81.68 E.03165
G1 X113.567 Y81.847 E.03282
G1 X114.269 Y82.089 E.0322
G1 X114.796 Y82.332 E.02518
G1 X115.024 Y82.39 E.01023
G1 X115.15 Y82.396 E.00549
G1 X115.702 Y82.353 E.02401
G1 X116.442 Y82.367 E.03215
G1 X117.189 Y82.461 E.03268
G1 X117.915 Y82.634 E.03241
G1 X118.632 Y82.889 E.03304
G1 X119.309 Y83.217 E.03265
G1 X119.938 Y83.611 E.03218
G1 X120.254 Y83.85 E.01723
G1 X120.464 Y83.956 E.0102
G1 X120.586 Y83.989 E.00548
G1 X121.316 Y84.092 E.03198
G1 X122.02 Y84.267 E.03153
G1 X122.742 Y84.532 E.03337
G1 X123.017 Y84.658 E.01313
G1 X123.682 Y85.027 E.033
G1 X124.298 Y85.463 E.03275
G1 X124.853 Y85.953 E.03215
G1 X125.323 Y86.463 E.0301
G1 X125.42 Y86.544 E.00549
G1 X125.626 Y86.657 E.01023
G1 X126.044 Y86.794 E.01906
G1 X126.724 Y87.09 E.03221
G1 X127.379 Y87.462 E.0327
G1 X127.984 Y87.9 E.03241
G1 X128.549 Y88.409 E.03302
G1 X129.049 Y88.971 E.03265
G1 X129.479 Y89.573 E.03212
G1 X129.735 Y90.011 E.02201
G1 X129.888 Y90.189 E.0102
G1 X129.988 Y90.266 E.00547
G1 X130.527 Y90.586 E.0272
G1 X131.113 Y91.018 E.03161
G1 X131.676 Y91.536 E.03322
G1 X131.968 Y91.856 E.01879
G1 X132.435 Y92.466 E.03334
G1 X132.827 Y93.112 E.03281
G1 X133.14 Y93.785 E.03223
G1 X133.35 Y94.39 E.02778
G1 X133.406 Y94.503 E.00547
G1 X133.549 Y94.688 E.01018
G1 X133.917 Y95.018 E.02144
G1 X134.422 Y95.56 E.03216
G1 X134.872 Y96.162 E.03266
G1 X135.252 Y96.804 E.03238
G1 X135.567 Y97.498 E.03305
G1 X135.801 Y98.214 E.0327
G1 X135.954 Y98.939 E.03217
G1 X136.007 Y99.388 E.01965
G1 X136.076 Y99.614 E.01024
G1 X136.136 Y99.725 E.0055
G1 X136.535 Y100.277 E.02954
G1 X136.897 Y100.906 E.03152
G1 X137.208 Y101.608 E.03333
G1 X137.308 Y101.893 E.01313
G1 X137.504 Y102.628 E.033
G1 X137.619 Y103.374 E.0328
G1 X137.652 Y104.114 E.03215
G1 X137.606 Y104.863 E.03255
G1 X137.614 Y104.989 E.00547
G1 X137.675 Y105.215 E.01019
G1 X137.841 Y105.561 E.01665
G1 X138.101 Y106.256 E.03222
G1 X138.287 Y106.985 E.03266
G1 X138.393 Y107.724 E.0324
G1 X138.419 Y108.485 E.03304
G1 X138.362 Y109.236 E.03269
G1 X138.228 Y109.963 E.0321
G1 X138.073 Y110.504 E.02443
G1 X138.05 Y110.739 E.01023
G1 X138.063 Y110.865 E.00549
G1 X138.195 Y111.426 E.02502
G1 X138.258 Y111.833 E.0179
G1 X138.31 Y112.598 E.03328
G1 X138.308 Y112.888 E.01258
G1 X138.243 Y113.656 E.03344
G1 X138.092 Y114.415 E.03362
G1 X137.865 Y115.136 E.0328
G1 X137.704 Y115.527 E.01835
G1 X137.391 Y116.14 E.02987
G1 X137.325 Y116.353 E.00969
G1 X137.32 Y117.227 E.03793
G1 X137.289 Y117.649 E.01838
G1 X137.169 Y118.396 E.03286
G1 X136.964 Y119.144 E.03365
G1 X136.679 Y119.859 E.03343
G1 X136.551 Y120.119 E.01256
G1 X136.169 Y120.768 E.0327
G1 X135.524 Y121.626 E.04658
G1 X135.442 Y121.841 E.01001
G1 X135.33 Y122.451 E.02693
G1 X135.125 Y123.163 E.03215
G1 X134.839 Y123.861 E.03273
G1 X134.475 Y124.53 E.03306
G1 X134.05 Y125.143 E.03238
G1 X133.558 Y125.71 E.0326
G1 X133.014 Y126.215 E.03221
G1 X132.754 Y126.42 E.01438
G1 X132.599 Y126.596 E.01018
G1 X132.536 Y126.705 E.00547
G1 X132.225 Y127.446 E.03488
G1 X131.861 Y128.101 E.03252
G1 X131.702 Y128.341 E.01251
G1 X131.236 Y128.94 E.03295
G1 X130.691 Y129.502 E.03395
G1 X130.365 Y129.784 E.0187
G1 X129.754 Y130.227 E.03277
G1 X128.855 Y130.74 E.04495
G1 X128.692 Y130.911 E.01025
G1 X128.415 Y131.339 E.02216
G1 X127.952 Y131.92 E.03221
G1 X127.421 Y132.456 E.03276
G1 X126.825 Y132.939 E.03332
G1 X126.466 Y133.182 E.0188
G1 X125.796 Y133.554 E.03326
G1 X125.125 Y133.838 E.03165
G1 X124.289 Y134.105 E.03807
G1 X124.106 Y134.232 E.00969
G1 X123.609 Y134.719 E.03019
G1 X123.027 Y135.181 E.03227
G1 X122.386 Y135.584 E.03286
G1 X121.706 Y135.916 E.03284
G1 X121.291 Y136.075 E.01929
G1 X120.557 Y136.286 E.03316
G1 X119.84 Y136.41 E.03157
G1 X119.274 Y136.452 E.02467
G1 X119.15 Y136.477 E.00549
G1 X118.933 Y136.569 E.01023
G1 X118.461 Y136.88 E.02451
G1 X117.807 Y137.227 E.03214
G1 X117.107 Y137.505 E.03269
G1 X116.387 Y137.705 E.03242
G1 X115.636 Y137.828 E.03303
G1 X114.886 Y137.868 E.03263
G1 X114.147 Y137.828 E.03212
G1 X113.773 Y137.773 E.01641
G1 X113.536 Y137.782 E.01028
G1 X113.413 Y137.812 E.00552
G1 X112.708 Y138.082 E.03277
G1 X111.992 Y138.272 E.03216
G1 X111.244 Y138.385 E.03281
G1 X110.474 Y138.418 E.03345
G1 X110.183 Y138.407 E.01267
G1 X109.42 Y138.321 E.03332
G1 X108.715 Y138.164 E.03137
G1 X108.083 Y137.948 E.02895
G1 X107.957 Y137.923 E.00559
G1 X107.718 Y137.924 E.0104
G1 X107.261 Y138.011 E.02016
G1 X106.523 Y138.081 E.03219
G1 X105.77 Y138.072 E.03272
G1 X105.014 Y137.979 E.03305
G1 X104.287 Y137.809 E.03239
