; HEADER_BLOCK_START
; generated by AnycubicSlicerNext 1.3.3.1 on 2025-03-02 at 18:30:34
; total layer number: 19
; filament_density: 1.24
; filament_diameter: 1.75
; max_z_height: 3.84
; exclude_object: 0
; model_instances: 1
; HEADER_BLOCK_END

; THUMBNAIL_BLOCK_START
; THUMBNAIL_BLOCK_END

; external perimeters extrusion width = 0.42mm
; perimeters extrusion width = 0.45mm
; infill extrusion width = 0.45mm
; solid infill extrusion width = 0.42mm
; top infill extrusion width = 0.42mm
; first layer extrusion width = 0.50mm

; EXECUTABLE_BLOCK_START
M201 X2000 Y2000 Z800 E2000
M203 X300 Y300 Z8 E100
M204 P2000 R2000 T2000
M205 X10.00 Y10.00 Z2.00 E5.00 ; sets the jerk limits, mm/sec
;TYPE:Custom
G90 ; use absolute coordinates
M83 ; extruder relative mode
M104 S220 ; set extruder temp
M140 S60 ; set bed temp
M190 S60 ; wait for bed temp
M109 S220 ; wait for extruder temp
G28                                        ; move X/Y/Z to min endstops
G1 Z0.28                                   ; lift nozzle a bit 
G92 E0 
G1 Y3 F1800                                    ; zero the extruded length 
G1 X60  E25 F500                       ; Extrude 25mm of filament in a 5cm line. 
G92 E0                                     ; zero the extruded length again 
G1 E-2 F500                                ; Retract a little 
G1 X70 F4000                              ; Quickly wipe away from the filament line
M117
G90
G21
M83 ; use relative distances for extrusion
; filament start gcode
M106 S0
;LAYER_CHANGE
;Z:0.24
;HEIGHT:0.24
; BEFORE_LAYER_CHANGE 0 @ 0.24mm
G92 E0
G1 E-2.5 F6000
; AFTER_LAYER_CHANGE 0 @ 0.24mm
M204 P500
; printing object "Cyclo2Cap.stl" id:1534554134272 copy 0
M204 T500
G1 X88.835 Y78.051 F18000
G1 Z.24
G1 E2.5 F6000
;TYPE:Brim
;WIDTH:0.5
;MM3_PER_MM:0.107639
G1 F3000
G1 X89.149 Y77.729 E.01955
G1 X89.482 Y77.425 E.01953
G1 X90.035 Y76.99 E.03057
G1 X90.407 Y76.737 E.01953
G1 X90.806 Y76.5 E.02016
G1 X91.381 Y76.21 E.02793
G1 X91.796 Y76.036 E.01954
G1 X92.22 Y75.886 E.01953
G1 X92.899 Y75.7 E.03057
G1 X93.341 Y75.612 E.01953
G1 X93.788 Y75.55 E.01961
G1 X94.237 Y75.514 E.01955
G1 X94.892 Y75.507 E.02844
G1 X95.606 Y75.562 E.03106
G1 X96.239 Y75.665 E.02785
G1 X96.677 Y75.767 E.01954
G1 X97.109 Y75.895 E.01954
G1 X97.766 Y76.143 E.0305
G1 X98.356 Y76.425 E.02838
G1 X98.96 Y76.781 E.03044
G1 X99.494 Y77.16 E.02845
G1 X99.842 Y77.446 E.01955
G1 X100.167 Y77.745 E.01916
G1 X100.303 Y77.804 E.00641
G1 X100.38 Y77.796 E.00337
G1 X101.437 Y77.499 E.04767
G1 X102.613 Y77.211 E.05257
G1 X103.906 Y76.946 E.05728
G1 X105.101 Y76.748 E.05256
G1 X106.41 Y76.582 E.05729
G1 X107.386 Y76.491 E.04255
G1 X108.704 Y76.414 E.0573
G1 X109.914 Y76.39 E.05253
G1 X111.234 Y76.412 E.05732
G1 X112.213 Y76.462 E.04254
G1 X113.527 Y76.575 E.05728
G1 X114.897 Y76.748 E.05993
G1 X116.103 Y76.948 E.05307
G1 X117.384 Y77.211 E.05677
G1 X118.56 Y77.498 E.05254
G1 X119.62 Y77.796 E.04781
G1 X119.828 Y77.749 E.00926
G1 X120.493 Y77.17 E.03828
G1 X121.024 Y76.791 E.02832
G1 X121.628 Y76.434 E.03044
G1 X122.219 Y76.15 E.02846
G1 X122.637 Y75.983 E.01955
G1 X123.064 Y75.841 E.01953
G1 X123.745 Y75.668 E.03051
G1 X124.39 Y75.562 E.02837
G1 X125.103 Y75.507 E.03106
G1 X125.745 Y75.513 E.02785
G1 X126.193 Y75.548 E.01953
G1 X126.639 Y75.609 E.01954
G1 X127.339 Y75.758 E.03105
G1 X127.954 Y75.944 E.0279
G1 X128.373 Y76.104 E.01947
G1 X129.011 Y76.402 E.03057
G1 X129.404 Y76.621 E.01953
G1 X129.784 Y76.863 E.01955
G1 X130.312 Y77.254 E.02852
G1 X130.98 Y77.858 E.03908
G1 X131.452 Y78.38 E.03056
G1 X131.727 Y78.734 E.01947
G1 X132.094 Y79.28 E.02853
G1 X132.317 Y79.669 E.01947
G1 X132.622 Y80.302 E.03051
G1 X132.855 Y80.915 E.02845
G1 X132.985 Y81.346 E.01954
G1 X133.09 Y81.783 E.01953
G1 X133.204 Y82.477 E.0305
G1 X133.254 Y83.128 E.02838
G1 X133.249 Y83.83 E.03045
G1 X133.187 Y84.482 E.02845
G1 X133.114 Y84.926 E.01955
G1 X133.017 Y85.357 E.01916
G1 X133.034 Y85.504 E.00641
G1 X134.016 Y86.487 E.06032
G1 X134.703 Y87.208 E.04323
G1 X135.579 Y88.196 E.05731
G1 X136.213 Y88.963 E.04322
G1 X136.908 Y89.86 E.04926
G1 X137.678 Y90.932 E.05728
G1 X138.347 Y91.941 E.05255
G1 X139.072 Y93.134 E.06061
G1 X139.625 Y94.124 E.04922
G1 X140.319 Y95.493 E.06663
G1 X140.741 Y96.412 E.04388
G1 X141.239 Y97.6 E.05593
G1 X141.722 Y98.893 E.05993
G1 X142.088 Y100 E.05059
G1 X142.428 Y101.162 E.05255
G1 X142.699 Y102.229 E.04779
G1 X142.843 Y102.386 E.00926
G1 X143.68 Y102.673 E.03838
G1 X144.09 Y102.854 E.01948
G1 X144.493 Y103.059 E.01961
G1 X144.883 Y103.287 E.01961
G1 X145.258 Y103.536 E.01955
G1 X145.778 Y103.935 E.02845
G1 X146.296 Y104.41 E.0305
G1 X146.879 Y105.062 E.03797
G1 X147.281 Y105.613 E.02961
G1 X147.521 Y105.995 E.01957
G1 X147.738 Y106.391 E.01961
G1 X147.933 Y106.798 E.01961
G1 X148.099 Y107.205 E.01908
G1 X148.246 Y107.63 E.01954
G1 X148.373 Y108.078 E.02018
G1 X148.47 Y108.52 E.01963
G1 X148.542 Y108.966 E.01961
G1 X148.588 Y109.415 E.0196
G1 X148.609 Y109.866 E.01961
G1 X148.603 Y110.318 E.01961
G1 X148.572 Y110.769 E.01961
G1 X148.516 Y111.217 E.0196
G1 X148.433 Y111.661 E.01961
G1 X148.326 Y112.1 E.01961
G1 X148.194 Y112.532 E.0196
G1 X148.037 Y112.954 E.01954
G1 X147.746 Y113.593 E.0305
G1 X147.425 Y114.164 E.02845
G1 X147.177 Y114.54 E.01955
G1 X146.907 Y114.903 E.01961
G1 X146.319 Y115.567 E.03852
G1 X145.792 Y116.053 E.03111
G1 X145.273 Y116.454 E.02844
G1 X144.898 Y116.703 E.01955
G1 X144.509 Y116.932 E.0196
G1 X144.107 Y117.138 E.01961
G1 X143.694 Y117.321 E.01961
G1 X143.271 Y117.48 E.01961
G1 X142.85 Y117.612 E.01913
G1 X142.732 Y117.7 E.00641
G1 X142.367 Y119.057 E.06102
G1 X142.089 Y119.997 E.04254
G1 X141.672 Y121.249 E.0573
G1 X141.246 Y122.383 E.05255
G1 X140.736 Y123.6 E.0573
G1 X140.327 Y124.49 E.04254
G1 X139.706 Y125.724 E.05993
G1 X139.066 Y126.878 E.05728
G1 X138.439 Y127.914 E.05256
G1 X137.714 Y129.016 E.05727
G1 X136.91 Y130.138 E.05993
G1 X136.215 Y131.034 E.04921
G1 X135.319 Y132.105 E.06063
G1 X134.558 Y132.947 E.04924
G1 X133.868 Y133.665 E.04325
G1 X133.079 Y134.434 E.04782
G1 X133.013 Y134.566 E.00641
G1 X133.185 Y135.499 E.04121
G1 X133.248 Y136.152 E.02845
G1 X133.255 Y136.853 E.03044
G1 X133.206 Y137.507 E.02845
G1 X133.054 Y138.38 E.03846
G1 X132.86 Y139.07 E.03111
G1 X132.629 Y139.681 E.02837
G1 X132.326 Y140.315 E.03051
G1 X132.103 Y140.704 E.01947
G1 X131.739 Y141.249 E.02845
G1 X131.301 Y141.797 E.03044
G1 X130.851 Y142.271 E.02837
G1 X130.326 Y142.736 E.03044
G1 X129.8 Y143.126 E.02845
G1 X129.422 Y143.368 E.01947
G1 X128.792 Y143.708 E.03105
G1 X128.204 Y143.964 E.02782
G1 X127.538 Y144.188 E.03051
G1 X127.104 Y144.3 E.01947
G1 X126.458 Y144.419 E.02852
G1 X126.012 Y144.469 E.01947
G1 X125.31 Y144.496 E.0305
G1 X124.655 Y144.466 E.02844
G1 X124.183 Y144.41 E.02062
G1 X123.519 Y144.282 E.02935
G1 X122.89 Y144.104 E.02839
G1 X122.233 Y143.856 E.0305
G1 X121.826 Y143.668 E.01947
G1 X121.25 Y143.351 E.02852
G1 X120.873 Y143.108 E.01948
G1 X120.312 Y142.685 E.03051
G1 X119.831 Y142.253 E.02807
G1 X119.62 Y142.204 E.00938
G1 X118.563 Y142.501 E.04767
G1 X117.386 Y142.789 E.05258
G1 X116.094 Y143.054 E.05728
G1 X114.899 Y143.252 E.05256
G1 X113.59 Y143.418 E.05729
G1 X112.614 Y143.509 E.04255
G1 X111.296 Y143.586 E.0573
G1 X110.086 Y143.61 E.05253
G1 X108.766 Y143.588 E.05732
G1 X107.787 Y143.538 E.04255
G1 X106.472 Y143.425 E.05731
G1 X105.482 Y143.305 E.04327
G1 X104.362 Y143.134 E.04921
G1 X103.006 Y142.875 E.05992
G1 X101.513 Y142.521 E.0666
G1 X100.379 Y142.204 E.05111
G1 X100.172 Y142.251 E.00925
G1 X99.507 Y142.83 E.03828
G1 X98.976 Y143.209 E.02832
G1 X98.372 Y143.566 E.03044
G1 X97.783 Y143.85 E.02838
G1 X97.128 Y144.099 E.03044
G1 X96.497 Y144.278 E.02846
G1 X96.056 Y144.371 E.01954
G1 X95.612 Y144.438 E.01953
G1 X94.909 Y144.492 E.03057
G1 X94.461 Y144.494 E.01947
G1 X93.805 Y144.451 E.02852
G1 X93.359 Y144.391 E.01954
G1 X92.892 Y144.298 E.02068
G1 X92.238 Y144.12 E.02942
G1 X91.813 Y143.971 E.01954
G1 X91.396 Y143.797 E.01961
G1 X90.99 Y143.599 E.01961
G1 X90.597 Y143.379 E.01955
G1 X90.047 Y143.019 E.02853
G1 X89.69 Y142.748 E.01946
G1 X89.154 Y142.275 E.03106
G1 X88.711 Y141.811 E.02783
G1 X88.272 Y141.264 E.03044
G1 X87.906 Y140.72 E.02845
G1 X87.683 Y140.331 E.01947
G1 X87.378 Y139.698 E.03051
G1 X87.146 Y139.087 E.02837
G1 X86.954 Y138.411 E.0305
G1 X86.862 Y137.971 E.01953
G1 X86.796 Y137.525 E.01954
G1 X86.746 Y136.872 E.02845
G1 X86.751 Y136.17 E.03045
G1 X86.813 Y135.518 E.02845
G1 X86.886 Y135.074 E.01955
G1 X86.983 Y134.642 E.01919
G1 X86.966 Y134.495 E.00641
G1 X86.921 Y134.433 E.00336
G1 X86.09 Y133.622 E.0504
G1 X85.193 Y132.678 E.0565
G1 X84.422 Y131.804 E.0506
G1 X83.644 Y130.857 E.05321
G1 X82.863 Y129.831 E.05596
G1 X82.279 Y129.005 E.04391
G1 X81.645 Y128.047 E.04988
G1 X80.85 Y126.732 E.06667
G1 X80.309 Y125.751 E.04868
G1 X79.849 Y124.853 E.04379
G1 X79.289 Y123.657 E.05729
G1 X78.817 Y122.542 E.05256
G1 X78.349 Y121.309 E.05727
G1 X77.911 Y119.999 E.05994
G1 X77.63 Y119.045 E.04317
G1 X77.3 Y117.77 E.05719
G1 X77.218 Y117.647 E.00641
G1 X77.15 Y117.612 E.00334
G1 X76.312 Y117.323 E.03849
G1 X75.91 Y117.146 E.01906
G1 X75.509 Y116.942 E.01955
G1 X74.946 Y116.603 E.02851
G1 X74.556 Y116.329 E.0207
G1 X74.222 Y116.064 E.01848
G1 X73.884 Y115.765 E.0196
G1 X73.565 Y115.447 E.01953
G1 X73.103 Y114.916 E.03057
G1 X72.599 Y114.201 E.03796
G1 X72.262 Y113.61 E.02954
G1 X71.969 Y112.971 E.03052
G1 X71.812 Y112.549 E.01954
G1 X71.679 Y112.118 E.0196
G1 X71.571 Y111.679 E.01961
G1 X71.487 Y111.235 E.01961
G1 X71.43 Y110.787 E.0196
G1 X71.397 Y110.336 E.01961
G1 X71.391 Y109.885 E.01961
G1 X71.411 Y109.433 E.01961
G1 X71.456 Y108.984 E.01961
G1 X71.527 Y108.538 E.01961
G1 X71.623 Y108.096 E.01961
G1 X71.744 Y107.661 E.0196
G1 X71.89 Y107.234 E.01961
G1 X72.06 Y106.815 E.01961
G1 X72.253 Y106.407 E.01961
G1 X72.47 Y106.011 E.01961
G1 X72.954 Y105.28 E.03804
G1 X73.384 Y104.75 E.02961
G1 X73.692 Y104.422 E.01956
G1 X74.02 Y104.111 E.01961
G1 X74.364 Y103.819 E.0196
G1 X74.747 Y103.532 E.02076
G1 X75.491 Y103.068 E.03806
G1 X75.893 Y102.862 E.01961
G1 X76.306 Y102.679 E.01961
G1 X76.729 Y102.52 E.01961
G1 X77.15 Y102.388 E.01913
G1 X77.268 Y102.3 E.00641
G1 X77.633 Y100.943 E.06102
G1 X77.911 Y100.003 E.04254
G1 X78.328 Y98.751 E.0573
G1 X78.754 Y97.617 E.05255
G1 X79.264 Y96.4 E.0573
G1 X79.673 Y95.51 E.04254
G1 X80.294 Y94.276 E.05993
G1 X80.934 Y93.122 E.05728
G1 X81.561 Y92.086 E.05256
G1 X82.286 Y90.984 E.05727
G1 X83.09 Y89.862 E.05993
G1 X83.785 Y88.966 E.04921
G1 X84.681 Y87.895 E.06063
G1 X85.442 Y87.053 E.04924
G1 X86.132 Y86.335 E.04325
G1 X86.921 Y85.566 E.04782
G1 X86.987 Y85.434 E.00641
G1 X86.983 Y85.356 E.00339
G1 X86.815 Y84.501 E.03785
G1 X86.752 Y83.848 E.02845
G1 X86.745 Y83.145 E.03051
G1 X86.773 Y82.696 E.01953
G1 X86.827 Y82.248 E.0196
G1 X86.901 Y81.828 E.01852
G1 X87.01 Y81.366 E.02061
G1 X87.206 Y80.738 E.02856
G1 X87.371 Y80.319 E.01955
G1 X87.558 Y79.91 E.01953
G1 X87.898 Y79.293 E.03057
G1 X88.143 Y78.915 E.01953
G1 X88.41 Y78.553 E.01955
G1 X88.809 Y78.082 E.02679
G1 X89.151 Y78.373 F18000
G1 F3000
G1 X89.173 Y78.347 E.00145
G1 X89.766 Y77.774 E.03581
G1 X90.304 Y77.349 E.02974
G1 X90.651 Y77.114 E.01821
G1 X91.026 Y76.892 E.01895
G1 X91.577 Y76.615 E.02675
G1 X92.346 Y76.317 E.03581
G1 X92.997 Y76.138 E.02932
G1 X93.422 Y76.054 E.01881
G1 X94.249 Y75.963 E.03609
G1 X94.883 Y75.956 E.02754
G1 X95.547 Y76.007 E.02888
G1 X96.156 Y76.106 E.0268
G1 X96.961 Y76.319 E.03615
G1 X97.584 Y76.554 E.02892
G1 X98.15 Y76.824 E.02721
G1 X98.721 Y77.161 E.02877
G1 X99.218 Y77.514 E.02648
G1 X99.854 Y78.067 E.03655
G1 X99.999 Y78.161 E.00755
G1 X100.109 Y78.209 E.00517
G1 X100.362 Y78.248 E.01111
G1 X100.51 Y78.226 E.00649
G1 X101.553 Y77.932 E.04707
G1 X102.714 Y77.648 E.05187
G1 X103.985 Y77.388 E.05633
G1 X105.163 Y77.193 E.05183
G1 X106.457 Y77.028 E.0566
G1 X107.422 Y76.938 E.04208
G1 X108.719 Y76.863 E.05639
G1 X109.917 Y76.838 E.05202
G1 X111.216 Y76.86 E.05641
G1 X112.184 Y76.91 E.04208
G1 X113.483 Y77.021 E.05658
G1 X114.83 Y77.192 E.05893
G1 X116.024 Y77.39 E.05255
G1 X117.284 Y77.648 E.05582
G1 X118.444 Y77.931 E.05185
G1 X119.483 Y78.223 E.04684
G1 X119.735 Y78.23 E.01096
G1 X119.91 Y78.191 E.0078
G1 X120.136 Y78.077 E.01096
G1 X120.767 Y77.527 E.03633
G1 X121.274 Y77.164 E.02707
G1 X121.835 Y76.833 E.02827
G1 X122.395 Y76.563 E.02699
G1 X123.182 Y76.274 E.03638
G1 X123.831 Y76.109 E.02909
G1 X124.449 Y76.007 E.02719
G1 X125.113 Y75.957 E.02888
G1 X125.721 Y75.961 E.02639
G1 X126.149 Y75.995 E.01867
G1 X126.567 Y76.052 E.01831
G1 X127.233 Y76.194 E.02953
G1 X127.805 Y76.368 E.02594
G1 X128.194 Y76.516 E.01808
G1 X128.802 Y76.799 E.02914
G1 X129.171 Y77.005 E.01831
G1 X129.534 Y77.236 E.01868
G1 X130.023 Y77.597 E.02638
G1 X130.667 Y78.18 E.03772
G1 X131.105 Y78.665 E.02835
G1 X131.361 Y78.993 E.01809
G1 X131.71 Y79.513 E.02717
G1 X131.922 Y79.882 E.0185
G1 X132.207 Y80.474 E.0285
G1 X132.432 Y81.067 E.02756
G1 X132.648 Y81.864 E.03581
G1 X132.757 Y82.525 E.02909
G1 X132.806 Y83.15 E.0272
G1 X132.8 Y83.812 E.02878
G1 X132.742 Y84.42 E.02648
G1 X132.582 Y85.246 E.03655
G1 X132.573 Y85.42 E.00755
G1 X132.587 Y85.541 E.00531
G1 X132.651 Y85.734 E.00883
G1 X132.723 Y85.827 E.00508
G1 X133.694 Y86.799 E.05963
G1 X134.374 Y87.514 E.04282
G1 X135.236 Y88.486 E.05643
G1 X135.864 Y89.245 E.04277
G1 X136.55 Y90.131 E.04861
G1 X137.31 Y91.189 E.05656
G1 X137.97 Y92.184 E.05181
G1 X138.686 Y93.362 E.05986
G1 X139.23 Y94.337 E.04847
G1 X139.914 Y95.686 E.06565
G1 X140.331 Y96.594 E.04339
G1 X140.821 Y97.763 E.055
G1 X141.298 Y99.04 E.05918
G1 X141.659 Y100.131 E.04989
G1 X141.994 Y101.278 E.05186
G1 X142.26 Y102.323 E.04682
G1 X142.38 Y102.545 E.01097
G1 X142.502 Y102.678 E.00781
G1 X142.714 Y102.816 E.01097
G1 X143.525 Y103.095 E.03725
G1 X144.284 Y103.457 E.03651
G1 X144.99 Y103.896 E.03609
G1 X145.484 Y104.276 E.02706
G1 X145.981 Y104.731 E.02923
G1 X146.533 Y105.35 E.03603
G1 X146.914 Y105.872 E.02805
G1 X147.342 Y106.602 E.03674
G1 X147.682 Y107.371 E.03647
G1 X147.939 Y108.195 E.03748
G1 X148.098 Y109.032 E.03699
G1 X148.16 Y109.881 E.03698
G1 X148.125 Y110.733 E.03698
G1 X147.993 Y111.574 E.03697
G1 X147.767 Y112.392 E.03681
G1 X147.621 Y112.787 E.01831
G1 X147.343 Y113.395 E.02899
G1 X147.037 Y113.938 E.02706
G1 X146.555 Y114.624 E.0364
G1 X146.002 Y115.248 E.03617
G1 X145.497 Y115.713 E.02983
G1 X145.004 Y116.094 E.02703
G1 X144.3 Y116.535 E.03609
G1 X143.531 Y116.903 E.03698
G1 X142.729 Y117.179 E.03683
G1 X142.476 Y117.331 E.01282
G1 X142.341 Y117.484 E.00883
G1 X142.297 Y117.592 E.00507
G1 X141.936 Y118.934 E.06033
G1 X141.661 Y119.865 E.04214
G1 X141.25 Y121.097 E.05639
G1 X140.829 Y122.22 E.05204
G1 X140.326 Y123.418 E.05639
G1 X139.921 Y124.298 E.04206
G1 X139.31 Y125.512 E.05898
G1 X138.679 Y126.65 E.05653
G1 X138.058 Y127.676 E.05205
G1 X137.346 Y128.76 E.05628
G1 X136.552 Y129.868 E.05918
G1 X135.867 Y130.751 E.04848
G1 X134.979 Y131.813 E.06012
G1 X134.229 Y132.642 E.04854
G1 X133.548 Y133.35 E.04263
G1 X132.774 Y134.105 E.04693
G1 X132.618 Y134.353 E.01274
G1 X132.566 Y134.551 E.00887
G1 X132.573 Y134.655 E.00451
G1 X132.739 Y135.556 E.03979
G1 X132.799 Y136.182 E.02728
G1 X132.806 Y136.833 E.02827
G1 X132.761 Y137.445 E.02663
G1 X132.617 Y138.273 E.03651
G1 X132.435 Y138.924 E.02932
G1 X132.214 Y139.51 E.02719
G1 X131.926 Y140.111 E.02892
G1 X131.719 Y140.472 E.01807
G1 X131.374 Y140.989 E.02698
G1 X130.967 Y141.497 E.02827
G1 X130.535 Y141.951 E.0272
G1 X130.047 Y142.383 E.02827
G1 X129.548 Y142.754 E.02698
G1 X129.19 Y142.984 E.01849
G1 X128.601 Y143.302 E.02904
G1 X128.038 Y143.546 E.02666
