; HEADER_BLOCK_START
; generated by AnycubicSlicerNext 1.3.3.1 on 2025-03-04 at 22:02:23
; total layer number: 75
; filament_density: 1.24
; filament_diameter: 1.75
; max_z_height: 15.04
; exclude_object: 0
; model_instances: 1
; HEADER_BLOCK_END

; THUMBNAIL_BLOCK_START
; THUMBNAIL_BLOCK_END

; external perimeters extrusion width = 0.42mm
; perimeters extrusion width = 0.45mm
; infill extrusion width = 0.45mm
; solid infill extrusion width = 0.42mm
; top infill extrusion width = 0.42mm
; support material extrusion width = 0.40mm
; first layer extrusion width = 0.50mm

; EXECUTABLE_BLOCK_START
M201 X2000 Y2000 Z800 E2000
M203 X300 Y300 Z8 E100
M204 P2000 R2000 T2000
M205 X10.00 Y10.00 Z2.00 E5.00 ; sets the jerk limits, mm/sec
;TYPE:Custom
G90 ; use absolute coordinates
M83 ; extruder relative mode
M104 S220 ; set extruder temp
M140 S60 ; set bed temp
M190 S60 ; wait for bed temp
M109 S220 ; wait for extruder temp
G28                                        ; move X/Y/Z to min endstops
G1 Z0.28                                   ; lift nozzle a bit 
G92 E0 
G1 Y3 F1800                                    ; zero the extruded length 
G1 X60  E25 F500                       ; Extrude 25mm of filament in a 5cm line. 
G92 E0                                     ; zero the extruded length again 
G1 E-2 F500                                ; Retract a little 
G1 X70 F4000                              ; Quickly wipe away from the filament line
M117
G90
G21
M83 ; use relative distances for extrusion
; filament start gcode
M106 S0
;LAYER_CHANGE
;Z:0.24
;HEIGHT:0.24
; BEFORE_LAYER_CHANGE 0 @ 0.24mm
G92 E0
G1 E-2.5 F6000
; AFTER_LAYER_CHANGE 0 @ 0.24mm
M204 P500
; printing object "Cyclo2Receiver33.stl" id:2159082859520 copy 0
M204 T500
G1 X117.532 Y82.336 F18000
G1 Z.24
G1 E2.5 F6000
;TYPE:Support
;WIDTH:0.5
;MM3_PER_MM:0.107639
G1 F3000
G3 X119.479 Y83.179 I-.761 J4.427 E.09298
G3 X122.768 Y84.709 I-.049 J4.406 E.16226
G3 X125.971 Y86.279 I-.245 J4.551 E.15909
G3 X130.622 Y89.495 I-.239 J5.317 E.2588
G3 X133.241 Y92.655 I-2.429 J4.679 E.18299
G3 X134.972 Y99.415 I-2.822 J4.324 E.3326
G3 X135.348 Y103.317 I-3.537 J2.31 E.17694
G3 X136.763 Y107.387 I-2.838 J3.267 E.19576
G3 X136.699 Y114.374 I-2.581 J3.47 E.35308
G3 X135.572 Y116.848 I-5.871 J-1.18 E.11907
G3 X134.382 Y120.935 I-4.712 J.845 E.19149
G3 X133 Y126.686 I-3.879 J2.11 E.28135
G3 X129.99 Y129.736 I-4.356 J-1.289 E.19371
G3 X126.945 Y132.472 I-4.516 J-1.964 E.18326
G3 X121.251 Y134.155 I-3.784 J-2.329 E.28224
G3 X116.996 Y135.771 I-3.62 J-3.122 E.20595
G3 X111.66 Y138.383 I-4.151 J-1.723 E.28175
G3 X107.389 Y138.452 I-2.204 J-4.244 E.19219
G3 X102.919 Y137.355 I-1.263 J-4.508 E.20886
G3 X95.728 Y133.785 I-1.937 J-5.125 E.39112
G3 X90.596 Y131.592 I-.943 J-4.895 E.25714
G3 X87.327 Y124.803 I1.938 J-5.114 E.36079
G3 X86.381 Y122.702 I3.395 J-2.793 E.10123
G3 X83.488 Y115.425 I.897 J-4.57 E.40376
G3 X83.926 Y112.789 I4.589 J-.592 E.11768
G3 X83.747 Y107.545 I3.17 J-2.733 E.24614
G3 X83.717 Y103.909 I3.743 J-1.849 E.16332
G3 X86.556 Y96.954 I3.553 J-2.607 E.39042
G3 X87.16 Y95.115 I4.479 J.453 E.08468
G3 X90.256 Y89.605 I4.641 J-1.018 E.30018
G3 X92.577 Y87.421 I3.817 J1.731 E.14191
G3 X98.383 Y83.947 I5.023 J1.807 E.31808
G3 X102.663 Y83.917 I2.169 J4.003 E.19344
G3 X105.658 Y83.926 I1.479 J5.709 E.13143
G3 X110.209 Y83.403 I2.739 J3.764 E.20791
G3 X113.994 Y83.293 I2.001 J3.7 E.17049
G3 X117.466 Y82.323 I2.841 J3.468 E.16107
G1 X109.639 Y84.482 F18000
G1 F3000
G3 X109.572 Y84.483 I.379 J25.517 E6.95742
G1 E-1.75 F6000
;WIPE_START
G1 F3000
G1 X108.574 Y84.55 E-.75
;WIPE_END
G1 X137.906 Y112.657 F18000
G1 E2.5 F6000
G1 F3000
G1 X137.906 Y109.649 E.13057
G2 X137.408 Y108.615 I-2.765 J.696 E.05016
G1 X137.408 Y113.139 E.19639
G3 X136.91 Y113.725 I-3.65 J-2.603 E.03341
G1 X136.91 Y107.755 E.25914
G1 X136.411 Y114.941 F18000
G1 F3000
G1 X136.411 Y106.167 E.38086
G2 X135.913 Y104.641 I-3.773 J.387 E.07025
G1 X135.913 Y115.691 E.4797
G3 X135.415 Y116.427 I-1.919 J-.764 E.03886
G1 X135.415 Y115.112 E.05704
G2 X134.916 Y119.556 I13.646 J3.78 E.19491
G3 X134.418 Y120.31 I-1.963 J-.755 E.03955
G1 X134.418 Y118.708 E.06955
G3 X133.92 Y119.992 I-23.581 J-8.416 E.05978
G1 X133.92 Y125.153 E.22404
G3 X133.421 Y125.8 I-1.736 J-.822 E.03572
G1 X133.421 Y121.113 E.20345
G3 X132.923 Y122.108 I-40.918 J-19.867 E.04831
G1 X132.923 Y126.247 E.17965
G2 X132.425 Y127.139 I.357 J.785 E.04749
G1 X132.425 Y123.008 E.17931
G3 X131.926 Y123.83 I-53.54 J-31.905 E.04172
G1 X131.926 Y127.948 E.17877
G1 X131.428 Y128.48 E.03163
G1 X131.428 Y124.591 E.16884
G3 X130.93 Y125.297 I-21.803 J-14.85 E.03753
G1 X130.93 Y128.84 E.1538
G3 X130.431 Y129.116 I-.892 J-1.021 E.02492
G1 X130.431 Y125.956 E.13716
G3 X129.933 Y126.573 I-15.306 J-11.865 E.03441
G1 X129.933 Y129.323 E.11938
G2 X129.435 Y130.037 I.646 J.982 E.03871
G1 X129.428 Y127.165 E.12467
G3 X128.936 Y127.705 I-30.925 J-27.661 E.03172
G1 X128.936 Y130.78 E.1335
G3 X128.438 Y131.272 I-1.565 J-1.089 E.03055
G1 X128.438 Y128.221 E.13242
G3 X127.94 Y128.714 I-12.609 J-12.258 E.03042
G1 X127.94 Y131.643 E.12714
G3 X127.441 Y131.885 I-.791 J-.993 E.02425
G1 X127.441 Y129.178 E.11752
G3 X126.943 Y129.619 I-10.078 J-10.872 E.0289
G1 X126.943 Y132.058 E.10587
G2 X126.445 Y132.539 I-.029 J.468 E.03384
G1 X126.445 Y130.04 E.10848
G3 X125.946 Y130.439 I-12.326 J-14.886 E.02771
G1 X125.946 Y133.132 E.11688
G3 X125.448 Y133.537 I-1.16 J-.916 E.02811
G1 X125.448 Y130.817 E.11808
G3 X124.95 Y131.179 I-9.641 J-12.743 E.02674
G1 X124.95 Y133.839 E.11544
G1 X124.452 Y134.056 E.02361
G1 X124.452 Y131.521 E.11008
G3 X123.953 Y131.848 I-7.992 J-11.636 E.02587
G1 X123.953 Y134.176 E.10105
G3 X123.455 Y134.248 I-.411 J-1.079 E.02204
G1 X123.444 Y132.166 E.09038
G3 X122.957 Y132.454 I-10.698 J-17.561 E.02459
G1 X122.957 Y134.244 E.0777
G3 X122.458 Y134.167 I-.084 J-1.107 E.02208
G1 X122.447 Y132.741 E.06193
G3 X121.96 Y133.001 I-23.891 J-44.145 E.024
G1 X121.96 Y134.047 E.04539
G3 X121.462 Y133.808 I.271 J-1.208 E.02418
G1 X121.462 Y133.251 E.02418
G3 X120.963 Y133.492 I-6.693 J-13.253 E.02401
G3 X120.465 Y134.398 I-.728 J.19 E.04951
G1 X120.465 Y133.718 E.02952
G3 X119.967 Y133.932 I-7.127 J-15.929 E.02354
G1 X119.967 Y134.797 E.03757
G3 X119.468 Y135.091 I-.917 J-.985 E.02531
G1 X119.468 Y134.132 E.04165
G3 X118.97 Y134.323 I-5.847 J-14.492 E.02317
G1 X118.97 Y135.29 E.04197
G3 X118.472 Y135.396 I-.491 J-1.079 E.02229
G1 X118.472 Y134.501 E.03886
G2 X117.973 Y135.459 I.055 J.637 E.05584
G1 X117.475 Y135.432 E.02166
G1 X117.472 Y134.824 E.0264
G3 X116.977 Y134.968 I-6.014 J-19.797 E.0224
G1 X116.977 Y135.346 E.01643
G1 X116.799 Y135.297 E.008
G1 X116.478 Y135.867 E.0284
G1 X116.478 Y135.1 E.03331
G3 X115.98 Y135.224 I-3.472 J-12.872 E.02229
G1 X115.98 Y136.651 E.06191
G3 X115.482 Y137.178 I-1.467 J-.887 E.03173
G1 X115.479 Y135.339 E.07984
G3 X114.983 Y135.441 I-4.364 J-19.926 E.02199
G1 X114.983 Y137.543 E.09126
G3 X114.485 Y137.795 I-.83 J-1.023 E.02442
G1 X114.485 Y135.532 E.09826
G3 X113.987 Y135.616 I-2.691 J-14.441 E.02194
G1 X113.987 Y137.991 E.10312
G1 X113.488 Y138.095 E.0221
G1 X113.488 Y135.688 E.10449
G1 X112.99 Y135.751 E.0218
G1 X112.99 Y138.141 E.10376
G1 X112.492 Y138.137 E.02163
G1 X112.402 Y135.813 E.10095
G3 X111.993 Y135.847 I-1.924 J-20.563 E.01779
G1 X111.993 Y138.045 E.09539
G2 X111.495 Y138.014 I-.268 J.285 E.02351
G1 X111.495 Y135.88 E.09267
G3 X110.997 Y135.905 I-1.286 J-19.965 E.02166
G1 X110.997 Y138.259 E.10219
G1 X110.498 Y138.397 E.02244
G1 X110.498 Y135.92 E.10756
G3 X110 Y135.923 I-.391 J-20.053 E.02163
G1 X110 Y138.494 E.1116
G1 X109.502 Y138.529 E.02168
G1 X109.502 Y135.919 E.11329
G3 X109.003 Y135.904 I.174 J-13.844 E.02164
G1 X109.003 Y138.496 E.11253
G3 X108.505 Y138.43 I-.051 J-1.536 E.02192
G1 X108.505 Y135.881 E.11065
G3 X108.007 Y135.848 I3.75 J-59.536 E.02168
G1 X108.007 Y138.271 E.10517
G3 X107.508 Y138.055 I.379 J-1.56 E.02368
G1 X107.508 Y135.803 E.09777
G3 X107.01 Y135.75 I1.085 J-12.694 E.02175
G1 X107.01 Y138.134 E.10346
G3 X106.512 Y138.205 I-.477 J-1.557 E.02194
G1 X106.512 Y135.689 E.10923
G3 X106.013 Y135.616 I2.673 J-20.114 E.02186
G1 X106.013 Y138.231 E.11349
G3 X105.515 Y138.175 I.27 J-4.648 E.02176
G1 X105.475 Y135.527 E.11496
G3 X105.017 Y135.439 I3.308 J-18.565 E.02025
G1 X105.017 Y138.077 E.11451
G3 X104.518 Y137.907 I1.163 J-4.221 E.02287
G1 X104.518 Y135.338 E.11152
G3 X104.02 Y135.225 I3.212 J-15.275 E.02219
G1 X104.02 Y137.669 E.10612
G3 X103.522 Y137.344 I3.843 J-6.426 E.02585
G1 X103.496 Y135.095 E.0976
G3 X103.023 Y134.966 I4.097 J-15.926 E.02127
G1 X103.023 Y136.897 E.08382
G1 X102.525 Y137.085 E.02311
G1 X102.525 Y134.823 E.09818
G3 X102.027 Y134.667 I4.926 J-16.655 E.02266
G1 X102.027 Y137.221 E.11083
G3 X101.528 Y137.329 I-.549 J-1.318 E.02226
G1 X101.528 Y134.501 E.12279
G3 X101.03 Y134.322 I4.869 J-14.369 E.02298
G1 X101.03 Y137.352 E.13151
G3 X100.532 Y137.349 I-.24 J-1.375 E.02175
G1 X100.532 Y134.134 E.13956
G3 X100.033 Y133.932 I17.876 J-44.965 E.02333
G1 X100.033 Y137.281 E.14537
G3 X99.535 Y137.164 I.075 J-1.432 E.02235
G1 X99.535 Y133.717 E.14962
G3 X99.037 Y133.492 I5.813 J-13.529 E.02374
G1 X99.037 Y137.002 E.15237
G3 X98.538 Y136.75 I.445 J-1.499 E.02437
G1 X98.538 Y133.253 E.15181
G3 X98.04 Y132.999 I6.694 J-13.758 E.02428
G1 X98.04 Y136.445 E.14957
G1 X97.542 Y136.047 E.02767
G1 X97.542 Y132.734 E.14381
G3 X97.043 Y132.453 I7.418 J-13.725 E.02484
G1 X97.043 Y135.494 E.13198
G3 X96.545 Y134.729 I1.859 J-1.756 E.03985
G1 X96.545 Y132.16 E.11151
G3 X96.047 Y131.849 I64.103 J-103.358 E.02549
G1 X96.047 Y133.485 E.07101
G1 X95.99 Y133.334 E.00698
G1 X95.548 Y133.405 E.01942
G1 X95.548 Y131.523 E.0817
G3 X95.05 Y131.18 I21.418 J-31.645 E.02626
G1 X95.05 Y133.475 E.09964
G1 X94.552 Y133.46 E.02164
G1 X94.552 Y130.818 E.11469
G3 X94.054 Y130.44 I38.788 J-51.626 E.02716
G1 X94.054 Y133.411 E.12899
G1 X93.555 Y133.301 E.02216
G1 X93.555 Y130.04 E.14156
G3 X93.057 Y129.619 I10.339 J-12.758 E.02831
G1 X93.055 Y133.132 E.15246
G3 X92.559 Y132.899 I.672 J-2.077 E.02386
G1 X92.559 Y129.18 E.16144
G3 X92.06 Y128.713 I13.061 J-14.446 E.02964
G1 X92.06 Y132.569 E.16739
G3 X91.562 Y132.145 I2.221 J-3.113 E.02845
G1 X91.562 Y128.224 E.17018
G3 X91.064 Y127.705 I20.646 J-20.329 E.03123
G1 X91.064 Y131.568 E.16766
G2 X90.565 Y131.157 I-.695 J.336 E.02891
G1 X90.565 Y127.156 E.17368
G3 X90.067 Y126.575 I16.151 J-14.353 E.03323
G1 X90.067 Y130.926 E.18885
G3 X89.569 Y130.645 I.524 J-1.513 E.02496
G1 X89.569 Y125.954 E.20361
G3 X89.07 Y125.298 I29.565 J-22.969 E.03577
G1 X89.07 Y130.247 E.21484
G3 X88.572 Y129.727 I1.186 J-1.633 E.03146
G1 X88.572 Y124.589 E.22304
G3 X88.074 Y123.831 I17.699 J-12.192 E.03935
G1 X88.074 Y129.012 E.22486
G3 X87.575 Y127.835 I5.734 J-3.123 E.05555
G1 X87.575 Y123.007 E.20957
G3 X87.077 Y122.107 I20.903 J-12.165 E.04465
G1 X87.077 Y123.639 E.0665
G3 X86.715 Y122.345 I2.761 J-1.468 E.05882
G1 X86.579 Y122.324 E.00601
G1 X86.574 Y121.105 E.05292
G3 X86.08 Y119.995 I29.94 J-13.986 E.05274
G1 X86.08 Y122.229 E.097
G1 X85.582 Y122.045 E.02306
G1 X85.582 Y118.709 E.14484
G3 X85.084 Y117.153 I25.215 J-8.933 E.07093
G1 X85.084 Y121.788 E.20121
G3 X84.585 Y121.455 I.56 J-1.377 E.0262
G1 X84.585 Y115.114 E.27526
G3 X84.255 Y113.039 I24.965 J-5.042 E.09119
G2 X84.087 Y113.418 I1.866 J1.054 E.018
G1 X84.087 Y120.981 E.32832
G3 X83.589 Y120.287 I1.438 J-1.558 E.03736
G1 X83.589 Y116.154 E.17939
G2 X83.09 Y119.663 I6.716 J2.744 E.1554
G1 E-1.75 F6000
;WIPE_START
G1 F3000
G1 X83.09 Y118.663 E-.75
;WIPE_END
G1 X135.415 Y106.032 F18000
G1 E2.5 F6000
G1 F3000
G1 X135.415 Y103.68 E.10209
G1 X134.916 Y103.612 F18000
G1 F3000
G1 X134.916 Y100.105 E.15223
G1 X134.512 Y99.434 E.03403
G2 X134.916 Y98.563 I-2.128 J-1.517 E.04192
G1 X134.916 Y95.391 E.13769
G2 X134.418 Y94.376 I-6.402 J2.515 E.04912
G1 X134.418 Y101.293 E.30025
G2 X133.92 Y100.008 I-23.665 J8.437 E.05984
G1 X133.92 Y93.73 E.2725
G1 X133.421 Y93.276 E.02927
G1 X133.415 Y98.872 E.24292
G2 X132.923 Y97.893 I-39.799 J19.38 E.04756
G1 X132.896 Y92.916 E.21606
G2 X132.425 Y91.747 I-3.363 J.676 E.05503
G1 X132.425 Y96.992 E.22768
G2 X131.926 Y96.172 I-28.621 J16.83 E.04166
G1 X131.926 Y91.04 E.22278
G2 X131.428 Y90.543 I-1.576 J1.085 E.0307
G1 X131.428 Y95.409 E.21119
G2 X130.93 Y94.703 I-18.614 J12.617 E.0375
G1 X130.93 Y90.16 E.19718
G1 X130.431 Y89.852 E.02544
G1 X130.431 Y94.045 E.18203
G2 X129.933 Y93.427 I-13.64 J10.479 E.03448
G1 X129.933 Y89.015 E.19151
G2 X129.435 Y88.333 I-2.129 J1.032 E.03687
G1 X129.435 Y92.843 E.19578
G2 X128.936 Y92.294 I-62.39 J56.197 E.03216
G1 X128.936 Y87.856 E.19266
G2 X128.438 Y87.489 I-1.262 J1.189 E.02703
G1 X128.438 Y91.777 E.18614
G2 X127.94 Y91.288 I-12.482 J12.225 E.03031
G1 X127.94 Y87.19 E.17788
G1 X127.441 Y86.977 E.02352
G1 X127.441 Y90.822 E.16691
G2 X126.943 Y90.379 I-12.447 J13.495 E.02895
G1 X126.943 Y86.827 E.1542
G1 X126.445 Y86.713 E.02219
G1 X126.445 Y89.96 E.14094
G2 X125.946 Y89.562 I-10.619 J12.812 E.02766
G1 X125.946 Y86.682 E.12504
G1 X125.448 Y86.29 E.02753
G1 X125.448 Y89.183 E.1256
G2 X124.95 Y88.821 I-11.105 J14.75 E.02675
G1 X124.95 Y85.885 E.12742
G2 X124.452 Y85.579 I-.992 J1.056 E.02557
G1 X124.452 Y88.478 E.12584
G2 X123.953 Y88.153 I-8.758 J12.881 E.02583
G1 X123.953 Y85.339 E.12215
G1 X123.455 Y85.21 E.02234
G1 X123.455 Y87.841 E.11419
G1 X122.957 Y87.546 E.02514
G1 X122.957 Y85.122 E.1052
G3 X122.458 Y84.968 I-.174 J-.321 E.02523
G1 X122.458 Y87.265 E.09973
G2 X121.96 Y87.001 I-10.861 J19.874 E.02449
G1 X121.96 Y84.477 E.10957
G1 X121.462 Y84.112 E.02681
G1 X121.462 Y86.747 E.1144
G2 X120.963 Y86.51 I-6.694 J13.394 E.02397
G1 X120.963 Y83.887 E.11387
G2 X120.465 Y83.712 I-.649 J1.055 E.0231
G1 X120.465 Y86.282 E.11155
G2 X119.967 Y86.069 I-6.598 J14.74 E.02353
G1 X119.967 Y83.61 E.10675
G2 X119.468 Y83.583 I-.31 J1.13 E.02183
G1 X119.468 Y85.866 E.09912
G2 X118.97 Y85.677 I-7.887 J19.952 E.02315
G1 X118.97 Y83.307 E.10286
G2 X118.472 Y83.045 I-.855 J1.023 E.02462
G1 X118.472 Y85.499 E.1065
G2 X117.973 Y85.334 I-6.9 J20.035 E.02278
G1 X117.973 Y82.841 E.1082
G1 X117.475 Y82.737 E.0221
G1 X117.475 Y85.178 E.10597
G2 X116.977 Y85.032 I-6.138 J20.023 E.02254
G1 X116.977 Y82.684 E.10193
G1 X116.478 Y82.688 E.02163
G1 X116.478 Y84.898 E.09595
G2 X115.98 Y84.776 I-5.151 J20.025 E.02227
G1 X115.98 Y82.772 E.08699
G2 X115.482 Y82.893 I.031 J1.215 E.02243
G1 X115.482 Y84.662 E.07679
G2 X114.983 Y84.56 I-3.082 J13.8 E.02208
G1 X114.983 Y83.123 E.06238
G2 X114.485 Y83.429 I.46 J1.309 E.02557
G1 X114.485 Y84.466 E.04503
G3 X113.987 Y83.725 I-.069 J-.492 E.04823
G1 X113.488 Y83.526 E.02329
G1 X113.482 Y84.31 E.03403
G2 X112.99 Y84.25 I-2.663 J19.815 E.02153
G1 X112.99 Y83.38 E.03779
G1 X112.492 Y83.298 E.02192
G1 X112.492 Y84.196 E.03898
G2 X111.993 Y84.153 I-1.545 J15.033 E.02171
G1 X111.993 Y83.306 E.03677
G2 X111.495 Y83.354 I-.141 J1.156 E.0219
G1 X111.462 Y84.117 E.03316
G3 X110.997 Y83.492 I-.132 J-.388 E.04472
G2 X110.498 Y84.082 I-.007 J.499 E.03833
G3 X110 Y83.754 I-.2 J-.238 E.03465
G1 X109.502 Y83.555 E.02329
G1 X109.502 Y84.08 E.0228
G2 X109.003 Y84.095 I.334 J20.097 E.02164
G1 X109.003 Y83.433 E.02872
G2 X108.505 Y83.355 I-.426 J1.093 E.02207
G1 X108.505 Y84.12 E.03319
G2 X108.007 Y84.153 I.678 J14.053 E.02168
G1 X108.007 Y83.382 E.03345
G2 X107.508 Y83.453 I-.088 J1.168 E.02202
G1 X107.508 Y84.197 E.03229
G2 X107.01 Y84.249 I1.818 J20.083 E.02175
G1 X107.01 Y83.592 E.02851
G2 X106.512 Y83.832 I.297 J1.252 E.02421
G1 X106.512 Y84.311 E.02079
G2 X106.013 Y84.386 I2.753 J20.187 E.02187
G1 X106.013 Y84.154 E.01005
G1 X105.734 Y84.391 E.0159
G1 X105.515 Y84.304 E.01024
G1 X105.515 Y84.467 E.00709
