; HEADER_BLOCK_START
; generated by AnycubicSlicerNext 1.3.3.1 on 2025-03-08 at 00:56:35
; total layer number: 97
; filament_density: 1.24
; filament_diameter: 1.75
; max_z_height: 19.44
; exclude_object: 0
; model_instances: 1
; HEADER_BLOCK_END

; THUMBNAIL_BLOCK_START
; THUMBNAIL_BLOCK_END

; external perimeters extrusion width = 0.42mm
; perimeters extrusion width = 0.45mm
; infill extrusion width = 0.45mm
; solid infill extrusion width = 0.42mm
; top infill extrusion width = 0.42mm
; support material extrusion width = 0.40mm
; first layer extrusion width = 0.50mm

; EXECUTABLE_BLOCK_START
M201 X2000 Y2000 Z800 E2000
M203 X300 Y300 Z8 E100
M204 P2000 R2000 T2000
M205 X10.00 Y10.00 Z2.00 E5.00 ; sets the jerk limits, mm/sec
;TYPE:Custom
G90 ; use absolute coordinates
M83 ; extruder relative mode
M104 S220 ; set extruder temp
M140 S60 ; set bed temp
M190 S60 ; wait for bed temp
M109 S220 ; wait for extruder temp
G28                                        ; move X/Y/Z to min endstops
G1 Z0.28                                   ; lift nozzle a bit 
G92 E0 
G1 Y3 F1800                                    ; zero the extruded length 
G1 X60  E25 F500                       ; Extrude 25mm of filament in a 5cm line. 
G92 E0                                     ; zero the extruded length again 
G1 E-2 F500                                ; Retract a little 
G1 X70 F4000                              ; Quickly wipe away from the filament line
M117
G90
G21
M83 ; use relative distances for extrusion
; filament start gcode
M106 S0
;LAYER_CHANGE
;Z:0.24
;HEIGHT:0.24
; BEFORE_LAYER_CHANGE 0 @ 0.24mm
G92 E0
G1 E-2.5 F6000
; AFTER_LAYER_CHANGE 0 @ 0.24mm
M204 P500
; printing object "Cyclo4Receiver.stl" id:2609651395328 copy 0
M204 T500
G1 X108.181 Y80.551 F18000
G1 Z.24
G1 E2.5 F6000
;TYPE:Support
;WIDTH:0.5
;MM3_PER_MM:0.107639
G1 F3000
G3 X110.659 Y81.242 I-1.338 J9.579 E.11198
G3 X116.718 Y82.108 I2.363 J5.096 E.28097
G3 X122.918 Y84.777 I1.477 J5.106 E.31751
G3 X128.939 Y90.844 I.761 J5.265 E.43082
G3 X135.073 Y96.995 I.768 J5.368 E.43734
G3 X136.288 Y105.345 I-2.468 J4.622 E.42576
G3 X137.268 Y112.2 I-2.113 J3.8 E.34775
G3 X136.53 Y120.281 I-3.969 J3.712 E.39769
G3 X133.525 Y126.29 I-5.193 J1.159 E.31561
G3 X132.478 Y129.139 I-7.37 J-1.092 E.13271
G3 X129.096 Y131.206 I-4.294 J-3.226 E.17621
G3 X123.451 Y134.415 I-4.789 J-1.855 E.30511
G3 X116.946 Y137.852 I-5.093 J-1.765 E.35151
G3 X110.651 Y138.604 I-3.693 J-4.196 E.29259
G3 X102.619 Y135.408 I-2.851 J-4.525 E.43691
G3 X96.366 Y134.495 I-2.678 J-3.523 E.30549
G3 X90.035 Y129.549 I-1.021 J-5.219 E.39533
G3 X85.486 Y123.218 I.515 J-5.169 E.38271
G3 X83.162 Y115.266 I1.786 J-4.838 E.41761
G3 X81.604 Y108.702 I2.718 J-4.112 E.32253
G3 X83.057 Y101.567 I4.532 J-2.792 E.34802
G3 X85.14 Y95.624 I5.232 J-1.504 E.29153
G3 X88.419 Y90.771 I5.388 J.107 E.26877
G3 X92.83 Y86.971 I5.141 J1.506 E.2672
G3 X98.122 Y83.855 I5.058 J2.539 E.28177
G3 X104.32 Y82.015 I4.32 J3.193 E.30115
G3 X108.114 Y80.548 I3.723 J3.988 E.18093
G1 X109.61 Y84.482 F18000
G1 F3000
G3 X109.542 Y84.483 I.408 J25.517 E6.9576
G1 E-1.75 F6000
;WIPE_START
G1 F3000
G1 X108.544 Y84.547 E-.75
;WIPE_END
G1 X138.405 Y117.311 F18000
G1 E2.5 F6000
G1 F3000
G2 X137.906 Y113.8 I-6.132 J-.92 E.1561
G1 X137.906 Y118.059 E.18489
G3 X137.408 Y118.878 I-2.505 J-.964 E.04184
G1 X137.408 Y112.638 E.27089
G1 X137.906 Y110.986 F18000
G1 F3000
G1 X137.906 Y107.87 E.13526
G2 X137.408 Y106.854 I-5.649 J2.141 E.04918
G1 X137.408 Y111.761 E.213
G1 E-1.75 F6000
;WIPE_START
G1 F3000
G1 X137.408 Y110.761 E-.75
;WIPE_END
G1 X137.408 Y103.278 F18000
G1 E2.5 F6000
G1 F3000
G1 X137.408 Y100.68 E.11276
G2 X136.91 Y99.339 I-3.836 J.662 E.06246
G1 X136.91 Y103.881 E.19718
G3 X136.411 Y104.623 I-2.234 J-.962 E.03903
G1 X136.411 Y98.597 E.26161
G2 X135.913 Y98.079 I-1.633 J1.074 E.03136
G1 X135.913 Y123.27 E1.09349
G3 X135.415 Y124.194 I-2.794 J-.911 E.0458
G1 X135.415 Y115.108 E.3944
G3 X134.916 Y117.159 I-26.27 J-5.297 E.09164
G1 X134.916 Y124.821 E.33261
G1 X134.418 Y125.298 E.02993
G1 X134.394 Y118.775 E.28313
G3 X133.92 Y119.996 I-24.556 J-8.846 E.05685
G1 X133.92 Y125.627 E.24443
G3 X133.421 Y125.895 I-.989 J-1.239 E.02471
G1 X133.404 Y121.15 E.20598
G3 X132.923 Y122.107 I-41.445 J-20.246 E.04649
G1 X132.923 Y127.375 E.22867
G3 X132.425 Y128.525 I-6.346 J-2.065 E.05451
G1 X132.425 Y123.008 E.2395
G3 X131.926 Y123.832 I-30.691 J-18.009 E.04178
G1 X131.926 Y129.208 E.23339
G1 X131.428 Y129.685 E.02993
G1 X131.428 Y124.592 E.22106
G3 X130.93 Y125.295 I-17.089 J-11.589 E.0374
G1 X130.93 Y130.052 E.20653
G3 X130.431 Y130.351 I-1.073 J-1.224 E.02536
G1 X130.431 Y125.954 E.19087
G3 X129.933 Y126.576 I-28.201 J-22.112 E.03457
G1 X129.933 Y130.564 E.17314
G3 X129.435 Y130.715 I-.664 J-1.298 E.02272
G1 X129.435 Y127.157 E.15444
G3 X128.936 Y127.704 I-27.679 J-24.718 E.03212
G1 X128.936 Y130.829 E.13563
G1 X128.775 Y130.866 E.0072
G3 X128.438 Y131.668 I-2.276 J-.483 E.03798
G1 X128.438 Y128.223 E.14951
G3 X127.94 Y128.714 I-14.836 J-14.573 E.03036
G1 X127.94 Y132.414 E.16062
G3 X127.441 Y132.931 I-1.605 J-1.051 E.03133
G1 X127.441 Y129.178 E.1629
G3 X126.943 Y129.621 I-11.584 J-12.517 E.02896
G1 X126.943 Y133.325 E.16076
G1 X126.445 Y133.62 E.02515
G1 X126.445 Y130.039 E.15545
G3 X125.946 Y130.439 I-10.686 J-12.792 E.02775
G1 X125.946 Y133.826 E.14701
G3 X125.448 Y133.984 I-.697 J-1.339 E.0228
G1 X125.448 Y130.817 E.13746
G3 X124.95 Y131.179 I-9.646 J-12.752 E.02674
G1 X124.95 Y134.064 E.12522
G3 X124.452 Y134.1 I-.345 J-1.291 E.02182
G1 X124.452 Y131.521 E.11197
G3 X123.953 Y131.848 I-8.811 J-12.853 E.02589
G1 X123.953 Y134.086 E.09713
G3 X123.455 Y134.003 I-.031 J-1.351 E.02206
G1 X123.455 Y132.157 E.0801
G3 X122.957 Y132.454 I-8.879 J-14.345 E.02518
G1 X122.957 Y134.513 E.08936
G3 X122.458 Y135.451 I-2.834 J-.904 E.04636
G1 X122.458 Y132.734 E.11796
G3 X121.96 Y133.001 I-9.222 J-16.605 E.02454
G1 X121.96 Y136.087 E.13399
G1 X121.462 Y136.564 E.02993
G1 X121.462 Y133.252 E.14378
G3 X120.963 Y133.492 I-6.774 J-13.427 E.02401
G1 X120.963 Y136.899 E.14792
G3 X120.465 Y137.173 I-1.003 J-1.236 E.02481
G1 X120.465 Y133.718 E.14996
G3 X119.967 Y133.932 I-7.342 J-16.427 E.02354
G1 X119.967 Y137.386 E.14993
G3 X119.468 Y137.514 I-.603 J-1.309 E.02246
G1 X119.468 Y134.132 E.14683
G3 X118.97 Y134.323 I-5.622 J-13.915 E.02317
G1 X118.97 Y137.617 E.14298
G1 X118.472 Y137.639 E.02165
G1 X118.472 Y134.501 E.13623
G3 X117.973 Y134.667 I-4.943 J-14.007 E.0228
G1 X117.973 Y137.629 E.1286
G1 X117.475 Y137.562 E.02183
G1 X117.475 Y134.823 E.11887
G3 X116.977 Y134.968 I-6.066 J-19.934 E.02253
G1 X116.977 Y137.438 E.10719
G1 X116.841 Y137.394 E.00617
G1 X116.478 Y137.741 E.02181
G1 X116.478 Y135.1 E.11462
G3 X115.98 Y135.224 I-3.36 J-12.452 E.02229
G1 X115.98 Y138.104 E.12499
G3 X115.482 Y138.398 I-1.062 J-1.226 E.02527
G1 X115.482 Y135.338 E.13284
G3 X114.983 Y135.441 I-4.391 J-20.004 E.02209
G1 X114.983 Y138.611 E.13762
G3 X114.485 Y138.758 I-.654 J-1.3 E.02267
G1 X114.485 Y135.532 E.14006
G3 X113.987 Y135.616 I-2.61 J-13.987 E.02194
G1 X113.987 Y138.872 E.14136
G3 X113.488 Y138.9 I-.326 J-1.359 E.02178
G1 X113.488 Y135.688 E.13942
G3 X112.99 Y135.751 I-2.156 J-15.19 E.0218
G1 X112.99 Y138.907 E.13701
G1 X112.492 Y138.84 E.02183
G1 X112.459 Y135.808 E.13162
G3 X111.993 Y135.847 I-1.845 J-18.79 E.02028
G1 X111.993 Y138.733 E.12525
G1 X111.495 Y138.571 E.02274
G1 X111.495 Y135.879 E.11683
G3 X110.997 Y135.905 I-1.15 J-17.531 E.02166
G1 X110.997 Y138.331 E.10531
G1 X110.63 Y138.134 E.01806
G1 X110.498 Y138.221 E.00686
G1 X110.498 Y135.919 E.09994
G3 X110 Y135.924 I-.403 J-14.557 E.02163
G1 X110 Y138.518 E.11261
G1 X109.502 Y138.731 E.02352
G1 X109.502 Y135.918 E.12211
G3 X109.003 Y135.905 I.257 J-20.099 E.02164
G1 X109.003 Y138.88 E.12912
G1 X108.505 Y138.994 E.02219
G1 X108.505 Y135.881 E.13509
G3 X108.007 Y135.848 I3.778 J-59.5 E.02168
G1 X108.007 Y139.023 E.13785
G3 X107.508 Y139.032 I-.273 J-1.369 E.02175
G1 X107.508 Y135.803 E.14017
G3 X107.01 Y135.751 I1.188 J-13.807 E.02175
G1 X107.01 Y138.964 E.1395
G3 X106.512 Y138.859 I.04 J-1.426 E.02223
G1 X106.512 Y135.687 E.13769
G3 X106.013 Y135.616 I2.628 J-20.124 E.02185
G1 X106.013 Y138.698 E.13377
G3 X105.515 Y138.46 I.406 J-1.493 E.0241
G1 X105.509 Y135.533 E.12706
G3 X105.017 Y135.439 I3.524 J-19.895 E.02174
G1 X105.017 Y138.172 E.11861
G1 X104.518 Y137.774 E.02766
G1 X104.518 Y135.338 E.10577
G3 X104.02 Y135.224 I3.051 J-14.551 E.02219
G1 X104.02 Y137.244 E.08766
G3 X103.522 Y136.514 I1.763 J-1.739 E.03857
G1 X103.522 Y135.102 E.06129
G3 X103.023 Y134.966 I4.318 J-16.837 E.02242
G1 X103.023 Y135.91 E.04095
G1 E-1.75 F6000
;WIPE_START
G1 F3000
G1 X103.023 Y134.966 E-.70758
G1 X103.078 Y134.981 E-.04242
;WIPE_END
G1 X136.91 Y119.722 F18000
G1 E2.5 F6000
G1 F3000
G1 X136.91 Y106.276 E.58367
G2 X136.411 Y105.915 I-.915 J.739 E.02702
G1 X136.411 Y120.117 E.61648
G1 X135.415 Y106.033 F18000
G1 F3000
G1 X135.415 Y97.682 E.36252
G1 X134.916 Y97.373 E.02544
G1 X134.916 Y102.846 E.23755
G2 X134.418 Y101.293 I-23.48 J6.677 E.07082
G1 X134.418 Y94.309 E.30312
G2 X133.92 Y93.368 I-2.842 J.902 E.04647
G1 X133.92 Y100.005 E.2881
G2 X133.421 Y98.887 I-29.406 J12.436 E.05314
G1 X133.421 Y92.73 E.26727
G1 X132.923 Y92.254 E.02993
G1 X132.923 Y97.892 E.24475
G2 X132.425 Y96.993 I-40.835 J22.05 E.04462
G1 X132.425 Y91.917 E.22034
G2 X131.926 Y91.643 I-1.005 J1.236 E.02483
G1 X131.926 Y96.169 E.19649
G2 X131.428 Y95.41 I-18.426 J11.555 E.03941
G1 X131.428 Y91.43 E.17279
G2 X130.93 Y91.301 I-.606 J1.308 E.02247
G1 X130.93 Y94.704 E.14772
G2 X130.431 Y94.044 I-17.094 J12.391 E.0359
G1 X130.431 Y91.197 E.12355
G1 X129.933 Y91.175 E.02165
G1 X129.933 Y93.424 E.09764
G2 X129.435 Y92.843 I-57.775 J49.02 E.03324
G1 X129.435 Y91.184 E.07202
G1 X128.936 Y91.251 E.02183
G1 X128.936 Y92.296 E.04534
G2 X128.438 Y91.777 I-14.02 J12.961 E.03124
G1 X128.438 Y88.825 E.12814
G2 X127.94 Y87.565 I-3.735 J.748 E.05914
G1 X127.94 Y91.285 E.1615
G2 X127.441 Y90.821 I-14.47 J15.03 E.02957
G1 X127.441 Y86.858 E.17203
G2 X126.943 Y86.361 I-1.624 J1.13 E.03072
G1 X126.943 Y90.381 E.17451
G2 X126.445 Y89.961 I-9.78 J11.1 E.02829
G1 X126.445 Y85.976 E.17296
G2 X125.946 Y85.665 I-1.11 J1.222 E.02564
G1 X125.946 Y89.561 E.1691
G2 X125.448 Y89.182 I-11.933 J15.181 E.02717
G1 X125.448 Y85.45 E.16198
G2 X124.95 Y85.289 I-.693 J1.296 E.02285
G1 X124.95 Y88.822 E.15337
G2 X124.452 Y88.478 I-9.657 J13.426 E.02631
G1 X124.452 Y85.174 E.14342
G2 X123.953 Y85.133 I-.361 J1.356 E.02182
G1 X123.953 Y88.153 E.13106
G2 X123.455 Y87.84 I-12.04 J18.664 E.02553
G1 X123.455 Y85.114 E.11834
G1 X122.957 Y85.179 E.02182
G1 X122.957 Y87.546 E.10274
G2 X122.458 Y87.265 I-11.568 J19.939 E.02483
G1 X122.458 Y84.753 E.10907
G2 X121.96 Y84.042 I-2.206 J1.018 E.03787
G1 X121.96 Y86.999 E.12834
G2 X121.462 Y86.748 I-10.344 J19.936 E.02422
G1 X121.462 Y83.543 E.13914
G2 X120.963 Y83.156 I-1.314 J1.18 E.02752
G1 X120.963 Y86.508 E.1455
G2 X120.465 Y86.284 I-6.41 J13.548 E.02373
G1 X120.465 Y82.843 E.14936
G1 X119.967 Y82.63 E.02352
G1 X119.967 Y86.068 E.14927
G1 X119.468 Y85.867 E.02334
G1 X119.468 Y82.467 E.14758
G1 X118.97 Y82.353 E.02219
G1 X118.938 Y85.665 E.14376
G2 X118.472 Y85.501 I-6.821 J18.635 E.02145
G1 X118.472 Y82.31 E.13848
G2 X117.973 Y82.289 I-.308 J1.363 E.02177
G1 X117.973 Y85.333 E.13212
G2 X117.475 Y85.178 I-4.608 J13.947 E.02265
G1 X117.475 Y82.356 E.12247
G2 X116.977 Y82.448 I.003 J1.419 E.02211
G1 X116.977 Y85.032 E.11217
G2 X116.478 Y84.898 I-15.666 J57.196 E.0224
G1 X116.478 Y82.437 E.10681
G2 X115.98 Y82.01 I-1.428 J1.159 E.02866
G1 X115.98 Y84.776 E.1201
G2 X115.482 Y84.662 I-3.409 J13.735 E.02219
G1 X115.482 Y81.681 E.12943
G2 X114.983 Y81.451 I-.883 J1.258 E.02395
G1 X114.983 Y84.56 E.13495
G2 X114.485 Y84.468 I-2.887 J14.242 E.022
G1 X114.485 Y81.26 E.13924
G1 X113.987 Y81.146 E.02219
G1 X113.987 Y84.384 E.14055
G2 X113.488 Y84.311 I-3.177 J20.055 E.02186
G1 X113.488 Y81.078 E.14036
G1 X112.99 Y81.056 E.02165
G1 X112.99 Y84.25 E.13868
G2 X112.492 Y84.196 I-1.765 J13.926 E.02176
G1 X112.492 Y81.099 E.13445
G1 X111.993 Y81.166 E.02183
G1 X111.946 Y84.149 E.12948
G2 X111.495 Y84.119 I-1.422 J18.153 E.01963
G1 X111.495 Y81.326 E.12125
G2 X110.997 Y81.519 I.282 J1.47 E.02332
G1 X110.997 Y84.095 E.11183
G2 X110.498 Y84.082 I-.624 J14.336 E.02164
G1 X110.498 Y81.62 E.10687
G2 X110 Y81.372 I-.933 J1.249 E.0243
G1 X110 Y84.075 E.11735
G2 X109.502 Y84.08 I-.014 J24.974 E.02163
G1 X109.502 Y81.166 E.12651
G1 X109.003 Y81.052 E.02219
G1 X109.003 Y84.095 E.13208
G2 X108.505 Y84.12 I.775 J20.144 E.02166
G1 X108.505 Y80.97 E.13676
G1 X108.007 Y80.947 E.02165
G1 X108.007 Y84.153 E.13915
G2 X107.508 Y84.196 I1.138 J16.007 E.02171
G1 X107.508 Y80.976 E.13977
G1 X107.01 Y81.044 E.02183
G1 X107.01 Y84.25 E.13917
G2 X106.512 Y84.311 I2.226 J20.109 E.0218
G1 X106.512 Y81.189 E.13555
G2 X106.013 Y81.365 I.237 J1.461 E.02307
G1 X106.013 Y84.384 E.13104
G2 X105.515 Y84.468 I3.157 J20.133 E.02194
G1 X105.515 Y81.633 E.12306
G2 X105.017 Y81.976 I.695 J1.544 E.02639
G1 X105.017 Y84.56 E.11218
G1 X104.518 Y84.662 E.02208
G1 X104.518 Y82.373 E.09934
G1 X104.383 Y82.481 E.0075
G1 X104.02 Y82.326 E.01715
G1 X103.998 Y84.78 E.10653
G2 X103.522 Y84.898 I5.695 J23.947 E.02131
G1 X103.522 Y82.199 E.11714
G2 X103.023 Y82.099 I-.525 J1.323 E.02218
G1 X103.023 Y85.034 E.12738
G2 X102.525 Y85.178 I3.427 J12.803 E.02252
G1 X102.525 Y82.077 E.1346
G2 X102.027 Y82.089 I-.217 J1.379 E.02175
G1 X102.027 Y85.332 E.14079
G2 X101.528 Y85.499 I6.45 J20.146 E.02281
G1 X101.528 Y82.156 E.14509
G2 X101.03 Y82.283 I.1 J1.436 E.02244
G1 X101.03 Y85.679 E.14741
G2 X100.532 Y85.867 I4.86 J13.601 E.02313
G1 X100.532 Y82.445 E.14856
G2 X100.033 Y82.707 I6.64 J13.236 E.02444
G1 X100.033 Y86.07 E.14598
G2 X99.535 Y86.281 I8.312 J20.237 E.02351
G1 X99.535 Y83.024 E.14139
G1 X99.037 Y83.422 E.02767
G1 X99.037 Y86.508 E.13396
G2 X98.538 Y86.748 I9.369 J20.098 E.02401
G1 X98.538 Y83.992 E.11963
G3 X98.04 Y84.255 I-.354 J-.067 E.02809
G1 X97.987 Y87.027 E.12032
G2 X97.542 Y87.265 I11.791 J22.552 E.02193
G1 X97.542 Y84.233 E.13162
G2 X97.043 Y84.286 I-.104 J1.4 E.02187
G1 X97.043 Y87.547 E.14158
G2 X96.545 Y87.843 I6.676 J11.835 E.02515
G1 X96.545 Y84.361 E.15114
G1 X96.047 Y84.523 E.02275
G1 X96.047 Y88.151 E.15751
G2 X95.548 Y88.478 I10.026 J15.837 E.02587
G1 X95.548 Y84.727 E.16284
G1 X95.05 Y84.995 E.02457
G1 X95.05 Y88.822 E.16615
G2 X94.552 Y89.182 I9.29 J13.403 E.02667
G1 X94.552 Y85.371 E.16542
G2 X94.054 Y85.847 I1.062 J1.612 E.03007
G1 X94.054 Y89.56 E.16118
G2 X93.555 Y89.959 I31.632 J40.009 E.02771
G1 X93.555 Y86.493 E.15045
G3 X93.057 Y87.347 I-3.33 J-1.371 E.04306
G1 X93.057 Y90.38 E.13166
G2 X92.559 Y90.821 I11.035 J12.981 E.02888
G1 X92.559 Y87.415 E.14785
G2 X92.06 Y87.555 I.137 J1.444 E.02259
G1 X92.06 Y91.285 E.16191
G2 X91.562 Y91.778 I12.409 J13.041 E.03043
G1 X91.562 Y87.726 E.17589
G1 X91.064 Y87.994 E.02457
G1 X91.064 Y92.295 E.18669
G2 X90.565 Y92.846 I13.355 J12.591 E.03223
G1 X90.565 Y88.331 E.19599
G2 X90.067 Y88.753 I.914 J1.585 E.0285
G1 X90.038 Y93.459 E.20429
G2 X89.569 Y94.044 I30.962 J25.308 E.03258
G1 X89.569 Y89.323 E.20494
G2 X89.07 Y90.186 I10.685 J6.745 E.04327
G1 X89.07 Y94.705 E.19613
G2 X88.572 Y95.409 I16.742 J12.367 E.03747
G1 X88.572 Y91.148 E.18499
G1 X88.074 Y91.416 E.02457
G1 X88.074 Y96.171 E.2064
G2 X87.575 Y96.996 I16.542 J10.557 E.04184
G1 X87.575 Y91.725 E.22878
G1 X87.077 Y92.123 E.02767
G1 X87.077 Y97.892 E.25046
G2 X86.579 Y98.886 I40.759 J21.057 E.04826
G1 X86.579 Y92.682 E.26934
G2 X86.08 Y93.455 I1.882 J1.76 E.04014
G1 X86.074 Y100.018 E.28491
G2 X85.582 Y101.292 I23.667 J9.88 E.0593
G1 X85.582 Y95.052 E.2709
G2 X85.543 Y95.848 I2.177 J.505 E.03482
G1 X85.084 Y96.133 E.02347
G1 X85.084 Y102.848 E.29147
G2 X84.585 Y104.887 I24.347 J7.029 E.09116
G1 X84.585 Y96.586 E.36033
G2 X84.087 Y97.181 I1.343 J1.631 E.03389
G1 X84.087 Y121.908 E1.07333
G2 X84.585 Y122.306 I1.316 J-1.135 E.02786
G1 X84.585 Y115.113 E.31226
G2 X85.084 Y117.152 I23.855 J-4.747 E.09117
G1 X85.084 Y122.615 E.23713
G2 X85.582 Y122.822 I.803 J-1.23 E.02355
G1 X85.582 Y118.708 E.17856
