; HEADER_BLOCK_START
; generated by AnycubicSlicerNext 1.3.2 on 2025-02-23 at 06:27:35
; total layer number: 55
; filament_density: 1.24
; filament_diameter: 1.75
; max_z_height: 11.04
; exclude_object: 0
; model_instances: 1
; HEADER_BLOCK_END

; THUMBNAIL_BLOCK_START

;
; THUMBNAIL_BLOCK_END

; external perimeters extrusion width = 0.42mm
; perimeters extrusion width = 0.45mm
; infill extrusion width = 0.45mm
; solid infill extrusion width = 0.42mm
; top infill extrusion width = 0.42mm
; first layer extrusion width = 0.50mm

; EXECUTABLE_BLOCK_START
M201 X2000 Y2000 Z800 E2000
M203 X300 Y300 Z8 E100
M204 P2000 R2000 T2000
M205 X10.00 Y10.00 Z2.00 E5.00 ; sets the jerk limits, mm/sec
;TYPE:Custom
G90 ; use absolute coordinates
M83 ; extruder relative mode
M104 S220 ; set extruder temp
M140 S60 ; set bed temp
M190 S60 ; wait for bed temp
M109 S220 ; wait for extruder temp
G28                                        ; move X/Y/Z to min endstops
G1 Z0.28                                   ; lift nozzle a bit 
G92 E0 
G1 Y3 F1800                                    ; zero the extruded length 
G1 X60  E25 F500                       ; Extrude 25mm of filament in a 5cm line. 
G92 E0                                     ; zero the extruded length again 
G1 E-2 F500                                ; Retract a little 
G1 X70 F4000                              ; Quickly wipe away from the filament line
M117
G90
G21
M82 ; use absolute distances for extrusion
G92 E0
; filament start gcode
M106 S0
;LAYER_CHANGE
;Z:0.24
;HEIGHT:0.24
; BEFORE_LAYER_CHANGE 0 @ 0.24mm
G1 E-2.5 F6000
G92 E0
; AFTER_LAYER_CHANGE 0 @ 0.24mm
;_SET_FAN_SPEED_CHANGING_LAYER
M204 P500
; printing object "GearFrameThin.stl" id:2483672481792 copy 0
M204 T500
G1 X35.844 Y85.924 F18000
G1 Z.24
G1 E2.5 F6000
;TYPE:Brim
;WIDTH:0.5
G1 F3000
G1 X36.551 Y85.697 E2.53225
G1 X37.183 Y85.601 E2.55997
G1 X37.504 Y85.589 E2.57395
G1 X182.492 Y85.589 E8.86764
G1 X183.134 Y85.637 E8.89559
G1 X183.756 Y85.779 E8.92328
G1 X184.202 Y85.944 E8.94393
G1 X184.876 Y86.29 E8.97681
G1 X185.386 Y86.667 E9.00435
G1 X185.836 Y87.116 E9.03194
G1 X186.212 Y87.624 E9.05939
G1 X186.615 Y88.443 E9.09903
G1 X186.803 Y89.05 E9.12658
G1 X186.899 Y89.683 E9.15435
G1 X186.911 Y90.004 E9.16833
G1 X186.911 Y129.992 E10.90412
G1 X186.863 Y130.634 E10.93208
G1 X186.721 Y131.255 E10.95971
G1 X186.509 Y131.81 E10.98551
G1 X186.21 Y132.375 E11.01324
G1 X185.833 Y132.886 E11.04084
G1 X185.384 Y133.336 E11.06843
G1 X184.875 Y133.713 E11.09593
G1 X184.156 Y134.076 E11.13088
G1 X183.449 Y134.303 E11.16313
G1 X182.817 Y134.399 E11.19085
G1 X182.496 Y134.411 E11.20482
G1 X37.508 Y134.411 E17.49851
G1 X36.866 Y134.363 E17.52647
G1 X36.244 Y134.221 E17.55416
G1 X35.798 Y134.056 E17.57481
G1 X35.124 Y133.71 E17.60769
G1 X34.614 Y133.333 E17.63523
G1 X34.164 Y132.884 E17.66282
G1 X33.787 Y132.375 E17.69032
G1 X33.424 Y131.656 E17.72527
G1 X33.197 Y130.949 E17.75751
G1 X33.101 Y130.317 E17.78524
G1 X33.089 Y129.996 E17.79921
G1 X33.089 Y90.008 E19.535
G1 X33.137 Y89.366 E19.56296
G1 X33.279 Y88.745 E19.59059
G1 X33.491 Y88.19 E19.61639
G1 X33.79 Y87.625 E19.64413
G1 X34.167 Y87.114 E19.67172
G1 X34.616 Y86.664 E19.69932
G1 X35.125 Y86.287 E19.72682
G1 X35.808 Y85.942 E19.76003
G1 X36.005 Y86.345 F18000
G1 F3000
G1 X36.643 Y86.138 E19.78916
G1 X37.217 Y86.05 E19.81436
G1 X37.515 Y86.038 E19.82731
G1 X182.48 Y86.038 E26.12001
G1 X183.077 Y86.084 E26.146
G1 X183.619 Y86.208 E26.17013
G1 X184.028 Y86.359 E26.18907
G1 X184.647 Y86.679 E26.21933
G1 X185.1 Y87.015 E26.24381
G1 X185.488 Y87.403 E26.26762
G1 X185.833 Y87.869 E26.2928
G1 X186.201 Y88.62 E26.32908
G1 X186.366 Y89.16 E26.3536
G1 X186.45 Y89.717 E26.37806
G1 X186.462 Y90.015 E26.39101
G1 X186.462 Y129.98 E28.12581
G1 X186.416 Y130.577 E28.1518
G1 X186.288 Y131.133 E28.17657
G1 X186.096 Y131.631 E28.19975
G1 X185.834 Y132.127 E28.22407
G1 X185.498 Y132.585 E28.24875
G1 X185.082 Y133.002 E28.27429
G1 X184.628 Y133.335 E28.29874
G1 X183.995 Y133.655 E28.32954
G1 X183.357 Y133.862 E28.35868
G1 X182.783 Y133.95 E28.38388
G1 X182.485 Y133.962 E28.39683
G1 X37.53 Y133.962 E34.68909
G1 X36.943 Y133.919 E34.71465
G1 X36.364 Y133.787 E34.74041
G1 X35.972 Y133.641 E34.75859
G1 X35.371 Y133.332 E34.78791
G1 X34.915 Y132.998 E34.81245
G1 X34.498 Y132.582 E34.838
G1 X34.165 Y132.128 E34.86244
G1 X33.845 Y131.495 E34.89325
G1 X33.638 Y130.857 E34.92238
G1 X33.55 Y130.283 E34.94758
G1 X33.538 Y129.985 E34.96053
G1 X33.538 Y90.02 E36.69534
G1 X33.584 Y89.423 E36.72132
G1 X33.712 Y88.867 E36.74609
G1 X33.904 Y88.369 E36.76927
G1 X34.166 Y87.873 E36.79359
G1 X34.502 Y87.415 E36.81827
G1 X34.918 Y86.998 E36.84381
G1 X35.372 Y86.665 E36.86826
G1 X35.969 Y86.363 E36.89733
G1 X36.167 Y86.766 F18000
G1 F3000
G1 X36.737 Y86.579 E36.92337
G1 X37.253 Y86.498 E36.94605
G1 X37.527 Y86.486 E36.95795
G1 X182.457 Y86.487 E43.24916
G1 X183.019 Y86.531 E43.27362
G1 X183.482 Y86.637 E43.29424
G1 X183.839 Y86.768 E43.31073
G1 X184.4 Y87.056 E43.33811
G1 X184.814 Y87.363 E43.36048
G1 X185.154 Y87.704 E43.38139
G1 X185.441 Y88.093 E43.40238
G1 X185.777 Y88.776 E43.43541
G1 X185.929 Y89.27 E43.45784
G1 X186.002 Y89.753 E43.47904
G1 X186.014 Y90.027 E43.49097
G1 X186.013 Y129.968 E45.22473
G1 X185.972 Y130.499 E45.24785
G1 X185.854 Y131.01 E45.27063
G1 X185.683 Y131.452 E45.29121
G1 X185.457 Y131.879 E45.31218
G1 X185.163 Y132.284 E45.33392
G1 X184.796 Y132.653 E45.35648
G1 X184.383 Y132.957 E45.37875
G1 X183.833 Y133.234 E45.40548
G1 X183.263 Y133.421 E45.43152
G1 X182.747 Y133.502 E45.4542
G1 X182.473 Y133.514 E45.4661
G1 X37.552 Y133.514 E51.75692
G1 X37 Y133.472 E51.78095
G1 X36.485 Y133.353 E51.8039
G1 X36.146 Y133.226 E51.81958
G1 X35.617 Y132.954 E51.84542
G1 X35.216 Y132.662 E51.86695
G1 X34.847 Y132.296 E51.88951
G1 X34.543 Y131.883 E51.91177
G1 X34.266 Y131.333 E51.9385
G1 X34.079 Y130.763 E51.96455
G1 X33.998 Y130.247 E51.98722
G1 X33.986 Y129.973 E51.99913
G1 X33.987 Y90.032 E53.73289
G1 X34.028 Y89.501 E53.75601
G1 X34.146 Y88.99 E53.77879
G1 X34.317 Y88.548 E53.79937
G1 X34.543 Y88.121 E53.82034
G1 X34.837 Y87.716 E53.84208
G1 X35.204 Y87.347 E53.86464
G1 X35.617 Y87.043 E53.88691
G1 X36.131 Y86.784 E53.9119
G1 X36.329 Y87.186 F18000
G1 F3000
G1 X36.832 Y87.02 E53.93488
G1 X37.29 Y86.946 E53.95503
G1 X37.54 Y86.935 E53.96587
G1 X182.434 Y86.935 E60.25553
G1 X182.961 Y86.978 E60.27846
G1 X183.346 Y87.066 E60.29562
G1 X183.65 Y87.176 E60.30967
G1 X184.152 Y87.433 E60.33415
G1 X184.527 Y87.71 E60.35437
G1 X184.805 Y87.99 E60.37151
G1 X185.049 Y88.318 E60.38924
G1 X185.354 Y88.932 E60.41901
G1 X185.492 Y89.379 E60.43932
G1 X185.554 Y89.789 E60.4573
G1 X185.565 Y90.04 E60.4682
G1 X185.564 Y129.956 E62.20089
G1 X185.525 Y130.441 E62.22202
G1 X185.421 Y130.887 E62.24192
G1 X185.271 Y131.273 E62.25989
G1 X185.081 Y131.633 E62.27756
G1 X184.826 Y131.984 E62.29639
G1 X184.51 Y132.305 E62.31593
G1 X184.138 Y132.578 E62.33599
G1 X183.671 Y132.814 E62.35869
G1 X183.168 Y132.98 E62.38167
G1 X182.71 Y133.054 E62.40182
G1 X182.46 Y133.065 E62.41266
G1 X37.574 Y133.065 E68.70196
G1 X37.078 Y133.028 E68.72358
G1 X36.606 Y132.92 E68.74458
G1 X36.322 Y132.812 E68.75778
G1 X35.862 Y132.576 E68.78021
G1 X35.516 Y132.326 E68.79874
G1 X35.195 Y132.01 E68.81828
G1 X34.922 Y131.638 E68.83833
G1 X34.686 Y131.171 E68.86104
G1 X34.52 Y130.668 E68.88402
G1 X34.446 Y130.21 E68.90417
G1 X34.435 Y129.96 E68.915
G1 X34.436 Y90.044 E70.6477
G1 X34.475 Y89.559 E70.66882
G1 X34.579 Y89.113 E70.68872
G1 X34.729 Y88.727 E70.70669
G1 X34.919 Y88.367 E70.72436
G1 X35.174 Y88.016 E70.74319
G1 X35.49 Y87.695 E70.76273
G1 X35.862 Y87.422 E70.78279
G1 X36.294 Y87.204 E70.80376
G1 X36.495 Y87.606 F18000
G1 F3000
G1 X36.511 Y87.598 E70.80453
G1 X36.929 Y87.461 E70.82361
G1 X37.329 Y87.394 E70.84122
G1 X37.553 Y87.383 E70.85096
G1 X182.411 Y87.384 E77.13902
G1 X182.902 Y87.424 E77.16041
G1 X183.211 Y87.495 E77.17419
G1 X183.463 Y87.585 E77.1858
G1 X183.905 Y87.811 E77.20735
G1 X184.24 Y88.058 E77.22542
G1 X184.471 Y88.291 E77.23966
G1 X184.658 Y88.544 E77.25331
G1 X184.932 Y89.089 E77.27978
G1 X185.055 Y89.489 E77.29796
G1 X185.106 Y89.826 E77.31274
G1 X185.117 Y90.053 E77.32261
G1 X185.115 Y129.943 E79.05418
G1 X185.081 Y130.361 E79.0724
G1 X184.988 Y130.763 E79.09031
G1 X184.865 Y131.079 E79.10502
G1 X184.703 Y131.387 E79.12012
G1 X184.489 Y131.685 E79.13607
G1 X184.207 Y131.971 E79.15347
G1 X183.892 Y132.199 E79.17037
G1 X183.489 Y132.402 E79.18996
G1 X183.071 Y132.539 E79.20904
G1 X182.671 Y132.606 E79.22665
G1 X182.447 Y132.617 E79.2364
G1 X37.596 Y132.617 E85.52416
G1 X37.155 Y132.584 E85.54336
G1 X36.727 Y132.486 E85.5624
G1 X36.497 Y132.398 E85.57309
G1 X36.106 Y132.197 E85.5922
G1 X35.814 Y131.988 E85.60775
G1 X35.529 Y131.707 E85.62514
G1 X35.301 Y131.392 E85.64204
G1 X35.098 Y130.989 E85.66163
G1 X34.961 Y130.571 E85.6807
G1 X34.894 Y130.171 E85.69832
G1 X34.883 Y129.947 E85.70806
G1 X34.885 Y90.057 E87.43962
G1 X34.919 Y89.639 E87.45784
G1 X35.012 Y89.237 E87.47575
G1 X35.135 Y88.921 E87.49046
G1 X35.297 Y88.613 E87.50557
G1 X35.511 Y88.315 E87.52151
G1 X35.793 Y88.029 E87.53891
G1 X36.108 Y87.801 E87.55581
G1 X36.459 Y87.624 E87.57289
G1 X36.667 Y88.021 F18000
G1 F3000
G1 X36.966 Y87.924 E87.58652
G1 X37.545 Y87.832 E87.61198
G1 X182.459 Y87.832 E93.9025
G1 X183.042 Y87.918 E93.92808
G1 X183.222 Y87.977 E93.93629
G1 X183.674 Y88.2 E93.95816
G1 X183.921 Y88.391 E93.97172
G1 X184.213 Y88.709 E93.99047
G1 X184.378 Y88.966 E94.00373
G1 X184.511 Y89.248 E94.01727
G1 X184.546 Y89.358 E94.02227
G1 X184.668 Y90.047 E94.05268
G1 X184.668 Y129.959 E95.78518
G1 X184.582 Y130.542 E95.81076
G1 X184.523 Y130.722 E95.81897
G1 X184.3 Y131.174 E95.84084
G1 X184.109 Y131.421 E95.8544
G1 X183.791 Y131.713 E95.87316
G1 X183.534 Y131.878 E95.88642
G1 X183.252 Y132.011 E95.89995
G1 X183.142 Y132.046 E95.90495
G1 X182.453 Y132.168 E95.93536
G1 X37.541 Y132.168 E102.22576
G1 X36.958 Y132.082 E102.25134
G1 X36.778 Y132.023 E102.25955
G1 X36.326 Y131.8 E102.28142
G1 X36.079 Y131.609 E102.29498
G1 X35.787 Y131.291 E102.31373
G1 X35.622 Y131.034 E102.327
G1 X35.489 Y130.752 E102.34053
G1 X35.454 Y130.642 E102.34553
G1 X35.332 Y129.953 E102.37594
G1 X35.332 Y90.036 E104.10866
G1 X35.385 Y89.604 E104.12756
G1 X35.511 Y89.202 E104.14584
G1 X35.716 Y88.817 E104.16479
G1 X35.949 Y88.517 E104.18126
G1 X36.267 Y88.244 E104.19947
G1 X36.632 Y88.04 E104.21761
G1 X36.807 Y88.447 F18000
G1 F3000
G1 X37.033 Y88.367 E104.22804
G1 X37.534 Y88.28 E104.25011
G1 X182.469 Y88.28 E110.54151
G1 X182.908 Y88.345 E110.56077
G1 X183.026 Y88.381 E110.56614
G1 X183.4 Y88.555 E110.58405
G1 X183.592 Y88.696 E110.59437
G1 X183.83 Y88.943 E110.60926
G1 X184.007 Y89.217 E110.6234
G1 X184.104 Y89.436 E110.63383
G1 X184.22 Y90.036 E110.66034
G1 X184.22 Y129.969 E112.39379
G1 X184.155 Y130.408 E112.41305
G1 X184.119 Y130.526 E112.41841
G1 X183.945 Y130.9 E112.43632
G1 X183.804 Y131.092 E112.44664
G1 X183.557 Y131.33 E112.46153
G1 X183.283 Y131.507 E112.47568
G1 X183.064 Y131.604 E112.48611
G1 X182.464 Y131.72 E112.51261
G1 X37.531 Y131.72 E118.80396
G1 X37.092 Y131.655 E118.82322
G1 X36.974 Y131.619 E118.82858
G1 X36.6 Y131.445 E118.84649
G1 X36.408 Y131.304 E118.85681
G1 X36.17 Y131.057 E118.8717
G1 X35.993 Y130.783 E118.88585
G1 X35.896 Y130.564 E118.89628
G1 X35.78 Y129.964 E118.92278
G1 X35.78 Y90.028 E120.65638
G1 X35.815 Y89.732 E120.66929
G1 X35.901 Y89.424 E120.68319
G1 X36.117 Y89.017 E120.70319
G1 X36.301 Y88.794 E120.71574
G1 X36.558 Y88.585 E120.73009
G1 X36.772 Y88.466 E120.74073
G1 X36.966 Y88.866 F18000
G1 F3000
G1 X37.11 Y88.809 E120.74746
G1 X37.523 Y88.729 E120.76571
G1 X182.479 Y88.729 E127.05805
G1 X182.842 Y88.789 E127.074
G1 X183.136 Y88.917 E127.08796
G1 X183.279 Y89.017 E127.09551
G1 X183.446 Y89.175 E127.10549
G1 X183.635 Y89.469 E127.12066
G1 X183.691 Y89.61 E127.12726
G1 X183.771 Y90.023 E127.14551
G1 X183.771 Y129.979 E128.87995
G1 X183.711 Y130.342 E128.89591
G1 X183.583 Y130.636 E128.90986
G1 X183.483 Y130.779 E128.91741
G1 X183.325 Y130.946 E128.9274
G1 X183.031 Y131.135 E128.94256
G1 X182.89 Y131.191 E128.94917
G1 X182.477 Y131.271 E128.96742
G1 X37.521 Y131.271 E135.25975
G1 X37.158 Y131.211 E135.27571
G1 X36.864 Y131.083 E135.28967
G1 X36.721 Y130.983 E135.29722
G1 X36.554 Y130.825 E135.3072
G1 X36.365 Y130.531 E135.32236
G1 X36.309 Y130.39 E135.32897
G1 X36.229 Y129.977 E135.34722
G1 X36.229 Y90.02 E137.08172
G1 X36.26 Y89.783 E137.09209
G1 X36.333 Y89.543 E137.10297
G1 X36.511 Y89.231 E137.11855
G1 X36.585 Y89.141 E137.12362
G1 X36.777 Y88.977 E137.13458
G1 X36.931 Y88.886 E137.14236
G1 X37.158 Y89.273 F18000
G1 F3000
G1 X37.202 Y89.247 E137.14455
G1 X37.51 Y89.177 E137.15827
G1 X182.49 Y89.177 E143.45165
G1 X182.675 Y89.205 E143.45975
G1 X182.869 Y89.278 E143.46879
G1 X183.032 Y89.391 E143.47736
G1 X183.13 Y89.493 E143.48354
G1 X183.253 Y89.702 E143.49402
G1 X183.323 Y90.01 E143.50775
G1 X183.323 Y129.99 E145.24323
G1 X183.295 Y130.175 E145.25133
G1 X183.222 Y130.369 E145.26037
G1 X183.109 Y130.532 E145.26894
G1 X183.007 Y130.63 E145.27512
G1 X182.798 Y130.753 E145.28561
G1 X182.49 Y130.823 E145.29933
G1 X37.51 Y130.823 E151.59271
G1 X37.325 Y130.795 E151.60081
G1 X37.131 Y130.722 E151.60985
G1 X36.968 Y130.609 E151.61842
G1 X36.87 Y130.507 E151.6246
G1 X36.747 Y130.298 E151.63508
G1 X36.677 Y129.99 E151.64881
G1 X36.677 Y90.011 E153.38425
G1 X36.704 Y89.848 E153.39143
G1 X36.762 Y89.674 E153.39938
G1 X36.893 Y89.466 E153.41004
G1 X36.993 Y89.37 E153.41609
G1 X37.124 Y89.293 E153.42265
G1 X37.316 Y89.681 F18000
G1 F3000
G1 X37.5 Y89.626 E153.431
G1 X182.5 Y89.626 E159.72524
G1 X182.59 Y89.644 E159.72921
G1 X182.7 Y89.692 E159.73441
G1 X182.819 Y89.816 E159.74186
G1 X182.874 Y90 E159.75021
G1 X182.874 Y130 E161.48655
G1 X182.856 Y130.09 E161.49053
G1 X182.808 Y130.2 E161.49573
G1 X182.684 Y130.319 E161.50318
G1 X182.5 Y130.374 E161.51153
G1 X37.5 Y130.374 E167.80577
G1 X37.41 Y130.356 E167.80974
G1 X37.3 Y130.308 E167.81494
G1 X37.181 Y130.184 E167.82239
G1 X37.126 Y130 E167.83074
G1 X37.126 Y90 E169.56708
G1 X37.192 Y89.8 E169.57621
G1 X37.287 Y89.709 E169.58193
G1 E167.83193 F6000
;WIPE_START
G1 F3000
G1 X37.5 Y89.626 E167.66047
G1 X38.271 Y89.626 E167.08193
;WIPE_END
G92 E0
G1 X182.175 Y129.675 F18000
G1 E2.5 F6000
;TYPE:Outer wall
G1 F3000
G1 X37.825 Y129.675 E8.76602
G1 X37.825 Y90.325 E10.47415
G1 X182.175 Y90.325 E16.74017
G1 X182.175 Y129.615 E18.44569
G1 X181.727 Y129.227 F18000
;TYPE:Inner wall
G1 F3000
G1 X38.273 Y129.227 E24.67278
G1 X38.273 Y90.773 E26.34197
G1 X181.727 Y90.773 E32.56905
G1 X181.727 Y129.167 E34.23564
G1 E32.48564 F6000
;WIPE_START
G1 F3000
G1 X180.727 Y129.167 E31.73564
;WIPE_END
G92 E0
G1 X44.109 Y96.814 F18000
G1 E2.5 F6000
;TYPE:Outer wall
G1 F3000
G1 X44.104 Y96.817 E2.50029
G3 X42.069 Y92.613 I-1.602 J-1.819 E2.88791
G1 X42.203 Y92.593 E2.8938
G3 X44.36 Y96.554 I.299 J2.405 E3.14542
G1 X44.151 Y96.771 E3.15848
G1 X44.431 Y97.126 F18000
;TYPE:Inner wall
G1 F3000
G1 X44.401 Y97.154 E3.16028
G3 X41.985 Y92.173 I-1.898 J-2.156 E3.61947
G1 X42.153 Y92.147 E3.62682
G3 X44.707 Y96.839 I.35 J2.851 E3.92463
G1 X44.473 Y97.082 E3.93931
G1 E2.18931 F6000
;WIPE_START
G1 F3000
G1 X44.401 Y97.154 E2.11323
G1 X44.178 Y97.334 E1.89855
G1 X43.937 Y97.489 E1.68361
G1 X43.682 Y97.62 E1.46868
G1 X43.646 Y97.635 E1.43931
;WIPE_END
G92 E0
G1 X55.748 Y115.214 F18000
G1 E2.5 F6000
;TYPE:Outer wall
G1 F3000
G1 X55.719 Y115.193 E2.50156
G3 X58.885 Y103.604 I3.781 J-5.194 E3.17542
G1 X59.206 Y103.582 E3.18936
G3 X56.166 Y115.49 I.294 J6.417 E4.23039
G1 X55.798 Y115.247 E4.24953
G1 X55.499 Y115.587 F18000
;TYPE:Inner wall
G1 F3000
G1 X55.453 Y115.554 E4.25197
G3 X58.842 Y103.158 I4.046 J-5.555 E4.97281
G1 X59.185 Y103.133 E4.98773
G3 X55.933 Y115.873 I.315 J6.865 E6.10145
G1 X55.549 Y115.62 E6.1214
G1 E4.3714 F6000
;WIPE_START
G1 F3000
G1 X55.453 Y115.554 E4.28426
G1 X54.92 Y115.126 E3.77156
G1 X54.778 Y114.985 E3.6214
;WIPE_END
G92 E0
G1 X44.673 Y126.075 F18000
G1 E2.5 F6000
;TYPE:Outer wall
G1 F3000
G1 X44.568 Y126.263 E2.5094
G3 X41.96 Y122.635 I-2.068 J-1.265 E2.92387
G1 X42.198 Y122.593 E2.93437
