; HEADER_BLOCK_START
; generated by AnycubicSlicerNext 1.3.2 on 2025-01-24 at 22:52:14
; total layer number: 47
; filament_density: 1.24
; filament_diameter: 1.75
; max_z_height: 9.44
; exclude_object: 0
; model_instances: 1
; HEADER_BLOCK_END

; THUMBNAIL_BLOCK_START

;
; THUMBNAIL_BLOCK_END

; external perimeters extrusion width = 0.42mm
; perimeters extrusion width = 0.45mm
; infill extrusion width = 0.45mm
; solid infill extrusion width = 0.42mm
; top infill extrusion width = 0.42mm
; first layer extrusion width = 0.50mm

; EXECUTABLE_BLOCK_START
M201 X2000 Y2000 Z800 E2000
M203 X300 Y300 Z8 E100
M204 P2000 R2000 T2000
M205 X10.00 Y10.00 Z2.00 E5.00 ; sets the jerk limits, mm/sec
;TYPE:Custom
G90 ; use absolute coordinates
M83 ; extruder relative mode
M104 S220 ; set extruder temp
M140 S60 ; set bed temp
M190 S60 ; wait for bed temp
M109 S220 ; wait for extruder temp
G28                                        ; move X/Y/Z to min endstops
G1 Z0.28                                   ; lift nozzle a bit 
G92 E0 
G1 Y3 F1800                                    ; zero the extruded length 
G1 X60  E25 F500                       ; Extrude 25mm of filament in a 5cm line. 
G92 E0                                     ; zero the extruded length again 
G1 E-2 F500                                ; Retract a little 
G1 X70 F4000                              ; Quickly wipe away from the filament line
M117
G90
G21
M82 ; use absolute distances for extrusion
G92 E0
; filament start gcode
M106 S0
;LAYER_CHANGE
;Z:0.24
;HEIGHT:0.24
; BEFORE_LAYER_CHANGE 0 @ 0.24mm
G1 E-2.5 F6000
G92 E0
; AFTER_LAYER_CHANGE 0 @ 0.24mm
;_SET_FAN_SPEED_CHANGING_LAYER
M204 P500
; printing object "Ring.stl" id:0 copy 0
M204 T500
G1 X101.322 Y101.129 F18000
G1 Z.24
G1 E2.5 F6000
;TYPE:Brim
;WIDTH:0.5
G1 F3000
G1 X101.75 Y100.729 E2.52543
G1 X102.295 Y100.272 E2.55632
G1 X103.125 Y99.668 E2.60087
G1 X103.726 Y99.293 E2.63161
G1 X104.238 Y99.009 E2.65704
G1 X104.879 Y98.696 E2.68801
G1 X105.823 Y98.314 E2.73221
G1 X106.502 Y98.093 E2.76322
G1 X107.068 Y97.941 E2.78864
G1 X107.766 Y97.793 E2.81962
G1 X108.348 Y97.7 E2.8452
G1 X109.052 Y97.626 E2.87594
G1 X110.084 Y97.59 E2.92077
G1 X110.786 Y97.615 E2.95123
G1 X111.369 Y97.666 E2.97666
G1 X112.076 Y97.765 E3.00763
G1 X112.653 Y97.877 E3.03315
G1 X113.344 Y98.049 E3.06407
G1 X114.316 Y98.364 E3.10842
G1 X114.974 Y98.63 E3.13924
G1 X115.505 Y98.878 E3.16467
G1 X116.134 Y99.212 E3.19556
G1 X117.004 Y99.755 E3.24011
G1 X117.577 Y100.171 E3.27085
G1 X118.032 Y100.54 E3.29628
G1 X118.563 Y101.018 E3.32729
G1 X118.869 Y101.319 E3.34592
G1 X119.554 Y102.08 E3.39037
G1 X119.99 Y102.638 E3.42111
G1 X120.329 Y103.12 E3.44669
G1 X120.705 Y103.723 E3.47751
G1 X120.992 Y104.239 E3.50315
G1 X121.476 Y105.277 E3.55287
G1 X121.686 Y105.824 E3.57829
G1 X121.906 Y106.5 E3.60919
G1 X122.059 Y107.068 E3.6347
G1 X122.206 Y107.761 E3.66544
G1 X122.35 Y108.777 E3.70999
G1 X122.4 Y109.487 E3.74088
G1 X122.41 Y110.072 E3.76631
G1 X122.385 Y110.786 E3.79728
G1 X122.279 Y111.798 E3.84147
G1 X122.155 Y112.502 E3.87249
G1 X122.024 Y113.072 E3.89792
G1 X121.828 Y113.757 E3.92881
G1 X121.478 Y114.718 E3.9732
G1 X121.189 Y115.368 E4.00409
G1 X120.923 Y115.89 E4.02952
G1 X120.567 Y116.508 E4.0605
G1 X120.25 Y116.996 E4.08575
G1 X119.998 Y117.352 E4.1047
G1 X119.558 Y117.915 E4.13571
G1 X119.174 Y118.358 E4.16114
G1 X118.68 Y118.87 E4.19203
G1 X117.92 Y119.554 E4.23642
G1 X117.359 Y119.993 E4.26732
G1 X116.88 Y120.329 E4.29274
G1 X116.275 Y120.707 E4.32372
G1 X115.762 Y120.991 E4.34915
G1 X115.12 Y121.305 E4.38016
G1 X114.719 Y121.478 E4.39912
G1 X114.177 Y121.686 E4.42436
G1 X113.498 Y121.907 E4.45534
G1 X112.932 Y122.059 E4.48077
G1 X112.236 Y122.207 E4.51166
G1 X111.223 Y122.35 E4.55606
G1 X110.513 Y122.4 E4.58695
G1 X109.928 Y122.41 E4.61238
G1 X109.214 Y122.385 E4.64336
G1 X108.631 Y122.334 E4.66878
G1 X107.919 Y122.234 E4.7
G1 X107.349 Y122.124 E4.72519
G1 X106.656 Y121.951 E4.7562
G1 X105.688 Y121.637 E4.80039
G1 X105.028 Y121.37 E4.83128
G1 X104.107 Y120.921 E4.87576
G1 X103.492 Y120.567 E4.90657
G1 X102.999 Y120.247 E4.93208
G1 X102.423 Y119.829 E4.96298
G1 X101.968 Y119.46 E4.9884
G1 X101.131 Y118.681 E5.03803
G1 X100.446 Y117.92 E5.08248
G1 X100.01 Y117.362 E5.11322
G1 X99.671 Y116.88 E5.1388
G1 X99.293 Y116.274 E5.16978
G1 X99.009 Y115.762 E5.19521
G1 X98.696 Y115.121 E5.22619
G1 X98.468 Y114.586 E5.25144
G1 X98.314 Y114.177 E5.27039
G1 X98.093 Y113.498 E5.3014
G1 X97.943 Y112.937 E5.32659
G1 X97.793 Y112.236 E5.35772
G1 X97.65 Y111.223 E5.40211
G1 X97.6 Y110.513 E5.433
G1 X97.59 Y109.928 E5.45843
G1 X97.615 Y109.214 E5.48941
G1 X97.721 Y108.202 E5.5336
G1 X97.844 Y107.5 E5.56453
G1 X98.091 Y106.508 E5.60892
G1 X98.311 Y105.831 E5.63981
G1 X98.521 Y105.284 E5.66524
G1 X98.811 Y104.632 E5.69622
G1 X99.288 Y103.733 E5.74041
G1 X99.667 Y103.127 E5.77142
G1 X100.003 Y102.647 E5.79685
G1 X100.441 Y102.086 E5.82774
G1 X100.826 Y101.642 E5.85326
G1 X101.294 Y101.158 E5.8825
G1 X101.617 Y101.469 F18000
G1 F3000
G1 X101.634 Y101.451 E5.88357
G1 X102.05 Y101.063 E5.90828
G1 X102.568 Y100.628 E5.93763
G1 X103.38 Y100.038 E5.98122
G1 X103.95 Y99.681 E6.01042
G1 X104.448 Y99.405 E6.03513
G1 X105.066 Y99.104 E6.06497
G1 X105.972 Y98.737 E6.1074
G1 X106.633 Y98.522 E6.13757
G1 X107.176 Y98.377 E6.16198
G1 X107.851 Y98.233 E6.19193
G1 X108.41 Y98.145 E6.2165
G1 X109.079 Y98.074 E6.24569
G1 X110.089 Y98.039 E6.28956
G1 X110.755 Y98.062 E6.31848
G1 X111.315 Y98.111 E6.34289
G1 X111.998 Y98.207 E6.37284
G1 X112.552 Y98.314 E6.39734
G1 X113.225 Y98.482 E6.42743
G1 X114.158 Y98.785 E6.47001
G1 X114.792 Y99.04 E6.49969
G1 X115.308 Y99.281 E6.52441
G1 X115.905 Y99.598 E6.55375
G1 X116.757 Y100.13 E6.59735
G1 X117.301 Y100.525 E6.62654
G1 X117.738 Y100.879 E6.65095
G1 X118.542 Y101.626 E6.69858
G1 X119.214 Y102.372 E6.74215
G1 X119.628 Y102.902 E6.77135
G1 X119.957 Y103.371 E6.79621
G1 X120.317 Y103.947 E6.82572
G1 X120.59 Y104.439 E6.85011
G1 X121.065 Y105.457 E6.89887
G1 X121.264 Y105.977 E6.92306
G1 X121.477 Y106.631 E6.95294
G1 X121.623 Y107.176 E6.97743
G1 X121.763 Y107.834 E7.00662
G1 X121.904 Y108.829 E7.05021
G1 X121.951 Y109.503 E7.07956
G1 X121.961 Y110.065 E7.10397
G1 X121.937 Y110.759 E7.13411
G1 X121.835 Y111.731 E7.17653
G1 X121.716 Y112.409 E7.20641
G1 X121.588 Y112.964 E7.23112
G1 X121.402 Y113.614 E7.26047
G1 X121.06 Y114.554 E7.30391
G1 X120.786 Y115.172 E7.33325
G1 X120.531 Y115.673 E7.35766
G1 X120.186 Y116.271 E7.38762
G1 X119.88 Y116.742 E7.412
G1 X119.21 Y117.633 E7.4604
G1 X118.841 Y118.057 E7.48481
G1 X118.371 Y118.544 E7.51416
G1 X117.628 Y119.213 E7.5576
G1 X117.095 Y119.63 E7.58695
G1 X116.629 Y119.957 E7.61166
G1 X116.05 Y120.319 E7.64131
G1 X115.558 Y120.592 E7.66572
G1 X114.547 Y121.063 E7.71413
G1 X114.023 Y121.264 E7.7385
G1 X113.367 Y121.478 E7.76846
G1 X112.824 Y121.623 E7.79287
G1 X112.162 Y121.764 E7.82222
G1 X111.172 Y121.904 E7.86566
G1 X110.497 Y121.951 E7.89501
G1 X109.935 Y121.961 E7.91941
G1 X109.245 Y121.938 E7.94937
G1 X108.685 Y121.889 E7.97378
G1 X107.996 Y121.792 E8.00397
G1 X107.45 Y121.686 E8.02814
G1 X106.775 Y121.518 E8.05832
G1 X105.845 Y121.217 E8.10075
G1 X105.214 Y120.962 E8.13028
G1 X104.313 Y120.523 E8.1738
G1 X103.729 Y120.186 E8.20306
G1 X103.25 Y119.875 E8.22786
G1 X102.699 Y119.475 E8.25743
G1 X102.266 Y119.124 E8.28162
G1 X101.455 Y118.37 E8.32967
G1 X100.786 Y117.628 E8.37305
G1 X100.372 Y117.098 E8.40224
G1 X100.043 Y116.629 E8.4271
G1 X99.681 Y116.05 E8.45676
G1 X99.408 Y115.558 E8.48117
G1 X99.105 Y114.938 E8.51113
G1 X98.886 Y114.421 E8.5355
G1 X98.522 Y113.367 E8.58391
G1 X98.378 Y112.829 E8.60809
G1 X98.236 Y112.162 E8.63766
G1 X98.096 Y111.172 E8.6811
G1 X98.049 Y110.497 E8.71045
G1 X98.039 Y109.935 E8.73486
G1 X98.063 Y109.241 E8.765
G1 X98.165 Y108.269 E8.80742
G1 X98.282 Y107.598 E8.83699
G1 X98.524 Y106.627 E8.88043
G1 X98.733 Y105.984 E8.90978
G1 X98.937 Y105.452 E8.93449
G1 X99.216 Y104.824 E8.96433
G1 X99.675 Y103.961 E9.00676
G1 X100.043 Y103.372 E9.03693
G1 X100.366 Y102.911 E9.06134
G1 X100.789 Y102.369 E9.09122
G1 X101.159 Y101.943 E9.11571
G1 X101.589 Y101.498 E9.14255
G1 X101.911 Y101.809 F18000
G1 F3000
G1 X101.946 Y101.774 E9.1447
G1 X102.35 Y101.397 E9.1687
G1 X102.84 Y100.985 E9.19649
G1 X103.635 Y100.407 E9.23913
G1 X104.175 Y100.07 E9.26678
G1 X104.659 Y99.801 E9.29078
G1 X105.253 Y99.512 E9.31948
G1 X106.121 Y99.161 E9.36014
G1 X106.764 Y98.951 E9.38948
G1 X107.284 Y98.812 E9.41286
G1 X107.936 Y98.674 E9.4418
G1 X108.472 Y98.589 E9.46534
G1 X109.106 Y98.522 E9.49299
G1 X110.094 Y98.488 E9.53591
G1 X110.724 Y98.51 E9.56329
G1 X111.261 Y98.557 E9.58668
G1 X111.921 Y98.649 E9.61562
G1 X112.452 Y98.751 E9.63908
G1 X113.106 Y98.915 E9.66834
G1 X114 Y99.205 E9.70916
G1 X114.61 Y99.451 E9.7377
G1 X115.111 Y99.684 E9.7617
G1 X115.677 Y99.985 E9.7895
G1 X116.51 Y100.505 E9.83214
G1 X117.025 Y100.879 E9.85979
G1 X117.441 Y101.215 E9.88297
G1 X118.217 Y101.937 E9.92901
G1 X118.873 Y102.665 E9.97151
G1 X119.265 Y103.166 E9.99916
G1 X119.584 Y103.622 E10.02331
G1 X119.929 Y104.172 E10.05149
G1 X120.188 Y104.638 E10.07464
G1 X120.653 Y105.636 E10.12244
G1 X120.843 Y106.13 E10.14538
G1 X121.048 Y106.762 E10.17424
G1 X121.188 Y107.285 E10.19772
G1 X121.321 Y107.908 E10.22537
G1 X121.458 Y108.88 E10.26801
G1 X121.503 Y109.519 E10.29581
G1 X121.513 Y110.058 E10.31919
G1 X121.489 Y110.733 E10.3485
G1 X121.391 Y111.664 E10.38916
G1 X121.277 Y112.316 E10.4179
G1 X121.153 Y112.855 E10.44189
G1 X120.977 Y113.47 E10.46969
G1 X120.642 Y114.39 E10.51218
G1 X120.382 Y114.976 E10.53998
G1 X120.138 Y115.456 E10.56337
G1 X119.805 Y116.034 E10.59232
G1 X119.515 Y116.481 E10.61545
G1 X118.858 Y117.354 E10.66289
G1 X118.507 Y117.757 E10.68606
G1 X118.063 Y118.218 E10.71386
G1 X117.335 Y118.873 E10.75635
G1 X116.831 Y119.267 E10.78415
G1 X116.378 Y119.584 E10.80815
G1 X115.825 Y119.93 E10.83648
G1 X115.358 Y120.19 E10.85965
G1 X114.368 Y120.652 E10.9071
G1 X113.87 Y120.843 E10.93023
G1 X113.236 Y121.049 E10.95917
G1 X112.716 Y121.188 E10.98256
G1 X112.089 Y121.321 E11.01037
G1 X111.12 Y121.458 E11.05285
G1 X110.481 Y121.503 E11.08066
G1 X109.942 Y121.513 E11.10405
G1 X109.276 Y121.49 E11.13299
G1 X108.739 Y121.443 E11.15636
G1 X108.074 Y121.35 E11.18554
G1 X107.55 Y121.249 E11.20869
G1 X106.894 Y121.085 E11.23803
G1 X106.003 Y120.796 E11.2787
G1 X105.401 Y120.554 E11.30687
G1 X104.52 Y120.124 E11.34943
G1 X103.967 Y119.805 E11.37715
G1 X103.501 Y119.503 E11.40123
G1 X102.975 Y119.121 E11.42948
G1 X102.563 Y118.788 E11.45244
G1 X101.78 Y118.059 E11.4989
G1 X101.127 Y117.335 E11.5412
G1 X100.735 Y116.834 E11.56885
G1 X100.416 Y116.378 E11.593
G1 X100.07 Y115.825 E11.62133
G1 X99.808 Y115.354 E11.64472
G1 X99.515 Y114.755 E11.67366
G1 X99.306 Y114.264 E11.69679
G1 X98.95 Y113.231 E11.74424
G1 X98.813 Y112.721 E11.76718
G1 X98.679 Y112.089 E11.79521
G1 X98.542 Y111.12 E11.8377
G1 X98.497 Y110.481 E11.8655
G1 X98.487 Y109.942 E11.88888
G1 X98.511 Y109.267 E11.91819
G1 X98.609 Y108.336 E11.95886
G1 X98.721 Y107.696 E11.98706
G1 X98.957 Y106.746 E12.02954
G1 X99.155 Y106.137 E12.05734
G1 X99.353 Y105.621 E12.08134
G1 X99.622 Y105.017 E12.11004
G1 X100.062 Y104.19 E12.1507
G1 X100.419 Y103.616 E12.18004
G1 X100.728 Y103.175 E12.20342
G1 X101.138 Y102.651 E12.23228
G1 X101.493 Y102.243 E12.25576
G1 X101.884 Y101.838 E12.2802
G1 X102.206 Y102.15 F18000
G1 F3000
G1 X102.258 Y102.096 E12.28342
G1 X102.65 Y101.73 E12.30671
G1 X103.113 Y101.341 E12.33295
G1 X103.89 Y100.777 E12.37464
G1 X104.4 Y100.458 E12.40075
G1 X104.869 Y100.198 E12.42403
G1 X105.44 Y99.92 E12.45158
G1 X106.271 Y99.584 E12.49049
G1 X106.895 Y99.381 E12.519
G1 X107.392 Y99.248 E12.54134
G1 X108.022 Y99.114 E12.56926
G1 X108.534 Y99.034 E12.59178
G1 X109.132 Y98.971 E12.61789
G1 X110.098 Y98.937 E12.65985
G1 X110.693 Y98.958 E12.6857
G1 X111.207 Y99.002 E12.70808
G1 X111.844 Y99.091 E12.73599
G1 X112.351 Y99.189 E12.75843
G1 X112.987 Y99.347 E12.78684
G1 X113.843 Y99.625 E12.82591
G1 X114.428 Y99.861 E12.85331
G1 X114.914 Y100.087 E12.87659
G1 X115.448 Y100.371 E12.90284
G1 X116.263 Y100.88 E12.94453
G1 X116.75 Y101.233 E12.97065
G1 X117.143 Y101.551 E12.99259
G1 X117.893 Y102.248 E13.03704
G1 X118.532 Y102.957 E13.07846
G1 X118.902 Y103.431 E13.10457
G1 X119.212 Y103.873 E13.128
G1 X119.541 Y104.397 E13.15487
G1 X119.786 Y104.838 E13.17677
G1 X120.242 Y105.816 E13.22361
G1 X120.421 Y106.283 E13.2453
G1 X120.619 Y106.893 E13.27314
G1 X120.752 Y107.393 E13.2956
G1 X120.878 Y107.981 E13.32172
G1 X121.012 Y108.932 E13.3634
G1 X121.054 Y109.536 E13.38966
G1 X121.064 Y110.05 E13.41202
G1 X121.041 Y110.706 E13.44049
G1 X120.947 Y111.597 E13.4794
G1 X120.838 Y112.224 E13.50699
G1 X120.718 Y112.746 E13.53027
G1 X120.551 Y113.327 E13.55652
G1 X120.224 Y114.227 E13.59805
G1 X119.978 Y114.78 E13.62432
G1 X119.745 Y115.239 E13.64669
G1 X119.424 Y115.797 E13.67462
G1 X119.15 Y116.22 E13.6965
G1 X118.506 Y117.075 E13.74298
G1 X118.174 Y117.456 E13.7649
G1 X117.754 Y117.891 E13.79117
G1 X117.043 Y118.532 E13.8327
G1 X116.567 Y118.904 E13.85896
G1 X116.127 Y119.212 E13.88224
G1 X115.6 Y119.542 E13.90926
G1 X115.158 Y119.788 E13.93118
G1 X114.188 Y120.241 E13.97767
G1 X113.717 Y120.421 E13.99954
G1 X113.105 Y120.619 E14.02747
G1 X112.607 Y120.752 E14.04984
G1 X112.016 Y120.878 E14.07611
G1 X111.068 Y121.012 E14.11765
G1 X110.464 Y121.054 E14.14391
G1 X109.949 Y121.064 E14.16628
G1 X109.306 Y121.042 E14.1942
G1 X108.793 Y120.998 E14.21656
G1 X108.151 Y120.908 E14.24472
G1 X107.65 Y120.812 E14.26684
G1 X107.013 Y120.653 E14.29534
G1 X106.161 Y120.376 E14.33426
G1 X105.588 Y120.146 E14.36106
G1 X104.726 Y119.726 E14.40266
G1 X104.204 Y119.424 E14.42883
G1 X103.752 Y119.131 E14.4522
G1 X103.25 Y118.767 E14.47914
G1 X102.861 Y118.452 E14.50086
G1 X102.104 Y117.748 E14.54573
G1 X101.468 Y117.043 E14.58696
G1 X101.098 Y116.569 E14.61306
G1 X100.788 Y116.127 E14.63649
G1 X100.458 Y115.6 E14.6635
G1 X100.207 Y115.149 E14.68588
G1 X99.925 Y114.571 E14.7138
G1 X99.727 Y114.108 E14.73568
G1 X99.378 Y113.095 E14.78217
G1 X99.249 Y112.612 E14.80386
G1 X99.122 Y112.015 E14.83036
G1 X98.988 Y111.068 E14.87189
G1 X98.946 Y110.465 E14.89815
G1 X98.936 Y109.95 E14.92051
G1 X98.959 Y109.294 E14.94898
G1 X99.053 Y108.403 E14.98789
G1 X99.159 Y107.793 E15.01473
G1 X99.39 Y106.865 E15.05626
G1 X99.577 Y106.29 E15.08251
G1 X99.769 Y105.789 E15.10578
G1 X100.028 Y105.21 E15.13334
G1 X100.448 Y104.418 E15.17225
G1 X100.796 Y103.861 E15.20075
G1 X101.091 Y103.439 E15.2231
G1 X101.486 Y102.934 E15.25094
G1 X101.826 Y102.544 E15.2734
G1 X102.179 Y102.178 E15.29545
G1 X102.501 Y102.49 F18000
G1 F3000
G1 X102.57 Y102.419 E15.29975
G1 X102.95 Y102.064 E15.32232
G1 X103.386 Y101.698 E15.34702
G1 X104.145 Y101.146 E15.38775
G1 X104.625 Y100.846 E15.41231
G1 X105.079 Y100.594 E15.43487
G1 X105.626 Y100.329 E15.46127
G1 X106.42 Y100.007 E15.49845
G1 X107.026 Y99.81 E15.52611
G1 X107.5 Y99.683 E15.54742
G1 X108.107 Y99.555 E15.57431
G1 X108.596 Y99.478 E15.59582
G1 X109.159 Y99.419 E15.62039
G1 X110.103 Y99.386 E15.6614
G1 X110.663 Y99.406 E15.68571
G1 X111.153 Y99.448 E15.70708
G1 X111.767 Y99.533 E15.73398
G1 X112.251 Y99.626 E15.75537
G1 X112.867 Y99.78 E15.78295
G1 X113.685 Y100.046 E15.82027
G1 X114.246 Y100.271 E15.84653
G1 X114.717 Y100.491 E15.86909
G1 X115.22 Y100.758 E15.89378
G1 X116.016 Y101.255 E15.93452
G1 X116.474 Y101.588 E15.95911
G1 X116.845 Y101.887 E15.97982
G1 X117.569 Y102.559 E16.02268
G1 X118.191 Y103.249 E16.06302
G1 X118.54 Y103.695 E16.08758
G1 X118.84 Y104.124 E16.1103
G1 X119.152 Y104.623 E16.13585
