; HEADER_BLOCK_START
; generated by AnycubicSlicerNext 1.3.2 on 2025-02-28 at 00:26:10
; total layer number: 75
; filament_density: 1.24
; filament_diameter: 1.75
; max_z_height: 15.04
; exclude_object: 0
; model_instances: 1
; HEADER_BLOCK_END

; THUMBNAIL_BLOCK_START

;
; THUMBNAIL_BLOCK_END

; external perimeters extrusion width = 0.42mm
; perimeters extrusion width = 0.45mm
; infill extrusion width = 0.45mm
; solid infill extrusion width = 0.42mm
; top infill extrusion width = 0.42mm
; first layer extrusion width = 0.50mm

; EXECUTABLE_BLOCK_START
M201 X2000 Y2000 Z800 E2000
M203 X300 Y300 Z8 E100
M204 P2000 R2000 T2000
M205 X10.00 Y10.00 Z2.00 E5.00 ; sets the jerk limits, mm/sec
;TYPE:Custom
G90 ; use absolute coordinates
M83 ; extruder relative mode
M104 S220 ; set extruder temp
M140 S60 ; set bed temp
M190 S60 ; wait for bed temp
M109 S220 ; wait for extruder temp
G28                                        ; move X/Y/Z to min endstops
G1 Z0.28                                   ; lift nozzle a bit 
G92 E0 
G1 Y3 F1800                                    ; zero the extruded length 
G1 X60  E25 F500                       ; Extrude 25mm of filament in a 5cm line. 
G92 E0                                     ; zero the extruded length again 
G1 E-2 F500                                ; Retract a little 
G1 X70 F4000                              ; Quickly wipe away from the filament line
M117
G90
G21
M82 ; use absolute distances for extrusion
G92 E0
; filament start gcode
M106 S0
;LAYER_CHANGE
;Z:0.24
;HEIGHT:0.24
; BEFORE_LAYER_CHANGE 0 @ 0.24mm
G1 E-2.5 F6000
G92 E0
; AFTER_LAYER_CHANGE 0 @ 0.24mm
;_SET_FAN_SPEED_CHANGING_LAYER
M204 P500
; printing object "ExzentrischeAchse_0.5.stl" id:0 copy 0
M204 T500
G1 X102.788 Y102.492 F18000
G1 Z.24
G1 E2.5 F6000
;TYPE:Brim
;WIDTH:0.5
G1 F3000
G1 X103.181 Y102.134 E2.52309
G1 X103.584 Y101.802 E2.54575
G1 X103.998 Y101.494 E2.56815
G1 X104.432 Y101.203 E2.59081
G1 X104.875 Y100.939 E2.61321
G1 X105.78 Y100.483 E2.6572
G1 X106.286 Y100.275 E2.68093
G1 X106.772 Y100.103 E2.70333
G1 X107.75 Y99.836 E2.74732
G1 X108.287 Y99.732 E2.77105
G1 X108.797 Y99.66 E2.79344
G1 X109.315 Y99.612 E2.81602
G1 X110.187 Y99.592 E2.85386
G1 X110.701 Y99.613 E2.87618
G1 X111.206 Y99.66 E2.8982
G1 X111.732 Y99.735 E2.92126
G1 X112.229 Y99.831 E2.94326
G1 X112.745 Y99.958 E2.96632
G1 X113.231 Y100.104 E2.98833
G1 X113.731 Y100.282 E3.01138
G1 X114.2 Y100.475 E3.03339
G1 X114.68 Y100.701 E3.05645
G1 X115.114 Y100.933 E3.07778
G1 X115.583 Y101.214 E3.10151
G1 X116.004 Y101.496 E3.12352
G1 X116.43 Y101.813 E3.14658
G1 X116.821 Y102.136 E3.16858
G1 X117.213 Y102.494 E3.19164
G1 X117.559 Y102.843 E3.21297
G1 X117.925 Y103.25 E3.2367
G1 X118.234 Y103.631 E3.25804
G1 X118.557 Y104.072 E3.28177
G1 X118.828 Y104.483 E3.3031
G1 X119.105 Y104.954 E3.32683
G1 X119.333 Y105.389 E3.34816
G1 X119.562 Y105.885 E3.37189
G1 X119.745 Y106.34 E3.39314
G1 X120.024 Y107.192 E3.43205
G1 X120.145 Y107.666 E3.45331
G1 X120.253 Y108.202 E3.47704
G1 X120.327 Y108.687 E3.49836
G1 X120.38 Y109.216 E3.52142
G1 X120.406 Y109.723 E3.54344
G1 X120.406 Y110.269 E3.56716
G1 X120.382 Y110.76 E3.5885
G1 X120.261 Y111.751 E3.63186
G1 X120.147 Y112.324 E3.65719
G1 X119.926 Y113.136 E3.69371
G1 X119.749 Y113.651 E3.71736
G1 X119.566 Y114.107 E3.73869
G1 X119.337 Y114.603 E3.76242
G1 X119.109 Y115.039 E3.78375
G1 X118.832 Y115.51 E3.80749
G1 X118.562 Y115.921 E3.82882
G1 X118.24 Y116.362 E3.85255
G1 X117.93 Y116.744 E3.87388
G1 X117.565 Y117.151 E3.89761
G1 X117.221 Y117.499 E3.91886
G1 X116.549 Y118.092 E3.95777
G1 X116.161 Y118.391 E3.97902
G1 X115.712 Y118.703 E4.00276
G1 X115.295 Y118.963 E4.02409
G1 X114.817 Y119.228 E4.04782
G1 X114.376 Y119.446 E4.06915
G1 X113.874 Y119.662 E4.09289
G1 X113.414 Y119.834 E4.11421
G1 X112.893 Y120 E4.13795
G1 X112.418 Y120.125 E4.15928
G1 X111.883 Y120.238 E4.18301
G1 X111.374 Y120.319 E4.2054
G1 X110.364 Y120.404 E4.24939
G1 X109.817 Y120.409 E4.27312
G1 X109.326 Y120.388 E4.29446
G1 X108.782 Y120.339 E4.31819
G1 X108.295 Y120.27 E4.33952
G1 X107.758 Y120.166 E4.36325
G1 X107.281 Y120.049 E4.38459
G1 X106.759 Y119.893 E4.40824
G1 X105.971 Y119.599 E4.44475
G1 X105.474 Y119.375 E4.4684
G1 X105.037 Y119.151 E4.48973
G1 X104.563 Y118.878 E4.51346
G1 X104.15 Y118.612 E4.53479
G1 X103.706 Y118.293 E4.55853
G1 X103.322 Y117.986 E4.57984
G1 X102.883 Y117.597 E4.60532
G1 X102.188 Y116.881 E4.64864
G1 X101.872 Y116.505 E4.66997
G1 X101.542 Y116.069 E4.6937
G1 X101.266 Y115.665 E4.71493
G1 X100.761 Y114.797 E4.75852
G1 X100.507 Y114.273 E4.78381
G1 X100.316 Y113.82 E4.80515
G1 X100.128 Y113.306 E4.82888
G1 X99.983 Y112.837 E4.85021
G1 X99.848 Y112.307 E4.87395
G1 X99.751 Y111.826 E4.89527
G1 X99.671 Y111.301 E4.91832
G1 X99.62 Y110.796 E4.94035
G1 X99.593 Y110.274 E4.96304
G1 X99.592 Y109.759 E4.98538
G1 X99.618 Y109.236 E5.0081
G1 X99.668 Y108.724 E5.03044
G1 X99.745 Y108.206 E5.05316
G1 X99.846 Y107.702 E5.0755
G1 X99.975 Y107.194 E5.09823
G1 X100.125 Y106.704 E5.12048
G1 X100.445 Y105.866 E5.15942
G1 X100.65 Y105.422 E5.18066
G1 X100.896 Y104.951 E5.20372
G1 X101.153 Y104.513 E5.22574
G1 X101.453 Y104.057 E5.24947
G1 X101.743 Y103.66 E5.2708
G1 X102.087 Y103.235 E5.29453
G1 X102.415 Y102.869 E5.31586
G1 X102.76 Y102.52 E5.33717
G1 X103.079 Y102.836 F18000
G1 F3000
G1 X103.102 Y102.813 E5.33856
G1 X103.473 Y102.475 E5.36038
G1 X104.252 Y101.864 E5.40332
G1 X105.084 Y101.336 E5.44612
G1 X105.962 Y100.894 E5.48882
G1 X106.449 Y100.693 E5.51168
G1 X106.911 Y100.53 E5.53293
G1 X107.847 Y100.274 E5.57505
G1 X108.357 Y100.175 E5.59761
G1 X109.337 Y100.061 E5.64041
G1 X110.187 Y100.041 E5.67734
G1 X110.677 Y100.062 E5.69864
G1 X111.651 Y100.176 E5.74118
G1 X112.621 Y100.39 E5.78429
G1 X113.564 Y100.698 E5.8274
G1 X114.473 Y101.1 E5.87052
G1 X115.337 Y101.589 E5.91361
G1 X116.148 Y102.162 E5.95672
G1 X116.898 Y102.814 E5.99985
G1 X117.579 Y103.536 E6.04296
G1 X117.883 Y103.91 E6.06388
G1 X118.45 Y104.726 E6.10699
G1 X118.933 Y105.593 E6.15009
G1 X119.325 Y106.498 E6.19287
G1 X119.592 Y107.313 E6.2301
G1 X119.707 Y107.763 E6.25026
G1 X119.881 Y108.737 E6.29321
G1 X119.957 Y109.727 E6.33635
G1 X119.935 Y110.713 E6.37915
G1 X119.817 Y111.685 E6.42166
G1 X119.709 Y112.226 E6.44558
G1 X119.499 Y112.999 E6.48037
G1 X119.156 Y113.923 E6.52314
G1 X118.72 Y114.815 E6.56624
G1 X118.197 Y115.659 E6.60935
G1 X117.593 Y116.447 E6.65246
G1 X116.918 Y117.167 E6.69527
G1 X116.266 Y117.743 E6.73304
G1 X115.471 Y118.324 E6.77582
G1 X114.615 Y118.828 E6.81892
G1 X113.713 Y119.243 E6.86203
G1 X112.774 Y119.567 E6.90514
G1 X111.808 Y119.796 E6.94822
G1 X111.315 Y119.874 E6.96991
G1 X110.348 Y119.955 E7.01202
G1 X109.362 Y119.941 E7.05481
G1 X108.376 Y119.828 E7.09791
G1 X107.395 Y119.615 E7.14147
G1 X106.897 Y119.466 E7.16403
G1 X106.146 Y119.186 E7.19886
G1 X105.672 Y118.972 E7.22142
G1 X104.803 Y118.498 E7.26439
G1 X103.974 Y117.933 E7.30793
G1 X103.608 Y117.641 E7.32826
G1 X103.197 Y117.276 E7.35212
G1 X102.516 Y116.574 E7.39459
G1 X101.904 Y115.804 E7.43727
G1 X101.643 Y115.422 E7.45737
G1 X101.16 Y114.591 E7.4991
G1 X100.913 Y114.081 E7.52367
G1 X100.556 Y113.169 E7.56618
G1 X100.287 Y112.213 E7.60928
G1 X100.117 Y111.251 E7.65172
G1 X100.042 Y110.269 E7.69448
G1 X100.065 Y109.276 E7.73758
G1 X100.186 Y108.29 E7.78069
G1 X100.408 Y107.312 E7.82423
G1 X100.551 Y106.846 E7.8454
G1 X100.857 Y106.045 E7.88264
G1 X101.051 Y105.623 E7.9028
G1 X101.537 Y104.745 E7.94636
G1 X102.102 Y103.928 E7.98945
G1 X102.744 Y103.175 E8.03241
G1 X103.051 Y102.865 E8.05135
G1 X103.369 Y103.196 F18000
G1 F3000
G1 X103.757 Y102.823 E8.07468
G1 X104.505 Y102.235 E8.11601
G1 X105.3 Y101.73 E8.15689
G1 X106.145 Y101.304 E8.19795
G1 X107.037 Y100.961 E8.23944
G1 X107.944 Y100.713 E8.28028
G1 X108.431 Y100.618 E8.30181
G1 X109.362 Y100.509 E8.34248
G1 X110.187 Y100.489 E8.37833
G1 X110.646 Y100.51 E8.39827
G1 X111.569 Y100.618 E8.43862
G1 X112.496 Y100.821 E8.47979
G1 X113.397 Y101.116 E8.52095
G1 X114.265 Y101.498 E8.56213
G1 X115.09 Y101.965 E8.60327
G1 X115.865 Y102.512 E8.64444
G1 X116.582 Y103.133 E8.68562
G1 X117.238 Y103.828 E8.72711
G1 X117.527 Y104.184 E8.74702
G1 X118.072 Y104.969 E8.78851
G1 X118.533 Y105.798 E8.82967
G1 X118.907 Y106.663 E8.87056
G1 X119.159 Y107.434 E8.90578
G1 X119.267 Y107.853 E8.92457
G1 X119.434 Y108.787 E8.96575
G1 X119.508 Y109.733 E9.00694
G1 X119.488 Y110.674 E9.04782
G1 X119.373 Y111.619 E9.08913
G1 X119.271 Y112.127 E9.11162
G1 X119.073 Y112.856 E9.14442
G1 X118.746 Y113.74 E9.18531
G1 X118.33 Y114.592 E9.22647
G1 X117.831 Y115.398 E9.26763
G1 X117.255 Y116.151 E9.3088
G1 X116.61 Y116.84 E9.34975
G1 X115.99 Y117.389 E9.38571
G1 X115.23 Y117.945 E9.42659
G1 X114.412 Y118.426 E9.46775
G1 X113.551 Y118.824 E9.50892
G1 X112.655 Y119.134 E9.55008
G1 X111.726 Y119.354 E9.59153
G1 X111.256 Y119.429 E9.61219
G1 X110.326 Y119.506 E9.65272
G1 X109.398 Y119.493 E9.693
G1 X108.443 Y119.384 E9.73474
G1 X107.503 Y119.179 E9.7765
G1 X107.036 Y119.039 E9.79764
G1 X106.32 Y118.772 E9.83079
G1 X105.876 Y118.572 E9.85194
G1 X105.043 Y118.118 E9.89313
G1 X104.245 Y117.575 E9.93505
G1 X103.513 Y116.957 E9.97661
G1 X102.849 Y116.272 E10.01803
G1 X102.262 Y115.534 E10.05895
G1 X102.02 Y115.178 E10.07764
G1 X101.558 Y114.384 E10.11752
G1 X101.322 Y113.896 E10.14104
G1 X100.984 Y113.033 E10.18129
G1 X100.727 Y112.12 E10.22247
G1 X100.564 Y111.201 E10.26298
G1 X100.491 Y110.263 E10.30381
G1 X100.512 Y109.315 E10.34497
G1 X100.63 Y108.361 E10.38671
G1 X100.843 Y107.423 E10.42847
G1 X100.977 Y106.988 E10.44823
G1 X101.269 Y106.223 E10.48378
G1 X101.45 Y105.83 E10.50255
G1 X101.916 Y104.987 E10.54433
G1 X102.455 Y104.208 E10.58548
G1 X103.071 Y103.482 E10.62681
G1 X103.34 Y103.223 E10.64302
G1 X103.652 Y103.547 F18000
G1 F3000
G1 X104.046 Y103.167 E10.6668
G1 X104.76 Y102.606 E10.70618
G1 X105.516 Y102.124 E10.74513
G1 X106.321 Y101.718 E10.78424
G1 X107.171 Y101.39 E10.82379
G1 X108.042 Y101.151 E10.86299
G1 X108.505 Y101.061 E10.8835
G1 X109.387 Y100.958 E10.92203
G1 X110.187 Y100.938 E10.95679
G1 X110.615 Y100.958 E10.97537
G1 X111.488 Y101.06 E11.01354
G1 X112.371 Y101.253 E11.05278
G1 X113.23 Y101.533 E11.09199
G1 X114.058 Y101.897 E11.13123
G1 X114.844 Y102.341 E11.17043
G1 X115.583 Y102.861 E11.20965
G1 X116.266 Y103.453 E11.24888
G1 X116.897 Y104.12 E11.28875
G1 X117.171 Y104.458 E11.30764
G1 X117.695 Y105.213 E11.3475
G1 X118.133 Y106.003 E11.38672
G1 X118.489 Y106.828 E11.42572
G1 X118.727 Y107.555 E11.45896
G1 X118.827 Y107.944 E11.47636
G1 X118.987 Y108.838 E11.51579
G1 X119.058 Y109.739 E11.55504
G1 X119.04 Y110.636 E11.59397
G1 X118.929 Y111.553 E11.63409
G1 X118.833 Y112.029 E11.65514
G1 X118.647 Y112.713 E11.68595
G1 X118.335 Y113.557 E11.72497
G1 X117.94 Y114.369 E11.76419
G1 X117.465 Y115.138 E11.80341
G1 X116.916 Y115.856 E11.84263
G1 X116.301 Y116.513 E11.88173
G1 X115.713 Y117.035 E11.91587
G1 X114.988 Y117.566 E11.95486
G1 X114.21 Y118.025 E11.99408
G1 X113.39 Y118.405 E12.0333
G1 X112.536 Y118.7 E12.07251
G1 X111.644 Y118.913 E12.11231
G1 X111.197 Y118.984 E12.13196
G1 X110.317 Y119.057 E12.17032
G1 X109.433 Y119.045 E12.20867
G1 X108.523 Y118.941 E12.24846
G1 X107.61 Y118.743 E12.289
G1 X107.175 Y118.612 E12.30872
G1 X106.495 Y118.359 E12.34022
G1 X106.08 Y118.172 E12.35995
G1 X105.272 Y117.732 E12.39994
G1 X104.511 Y117.212 E12.43989
G1 X103.815 Y116.624 E12.47948
G1 X103.182 Y115.971 E12.51896
G1 X102.621 Y115.264 E12.55812
G1 X102.398 Y114.935 E12.57539
G1 X101.957 Y114.177 E12.61343
G1 X101.731 Y113.712 E12.6359
G1 X101.412 Y112.896 E12.67391
G1 X101.166 Y112.026 E12.71316
G1 X101.01 Y111.151 E12.75175
G1 X100.941 Y110.258 E12.79064
G1 X100.96 Y109.354 E12.82986
G1 X101.072 Y108.445 E12.86964
G1 X101.278 Y107.534 E12.91019
G1 X101.403 Y107.13 E12.92854
G1 X101.681 Y106.401 E12.96243
G1 X101.848 Y106.037 E12.97981
G1 X102.294 Y105.23 E13.01982
G1 X102.807 Y104.487 E13.05902
G1 X103.394 Y103.795 E13.09839
G1 X103.623 Y103.574 E13.11219
G1 X103.934 Y103.898 F18000
G1 F3000
G1 X104.336 Y103.51 E13.13642
G1 X105.014 Y102.977 E13.17386
G1 X105.733 Y102.518 E13.21088
G1 X106.497 Y102.131 E13.24805
G1 X107.305 Y101.819 E13.28564
G1 X108.139 Y101.589 E13.32321
G1 X108.579 Y101.504 E13.34267
G1 X109.412 Y101.406 E13.37909
G1 X110.188 Y101.387 E13.41275
G1 X110.584 Y101.405 E13.42995
G1 X111.408 Y101.503 E13.46597
G1 X112.247 Y101.685 E13.50328
G1 X113.064 Y101.95 E13.54055
G1 X113.851 Y102.296 E13.57784
G1 X114.598 Y102.717 E13.6151
G1 X115.311 Y103.219 E13.65295
G1 X115.96 Y103.782 E13.69024
G1 X116.556 Y104.412 E13.72788
G1 X116.815 Y104.732 E13.74575
G1 X117.317 Y105.456 E13.78397
G1 X117.733 Y106.207 E13.82125
G1 X118.071 Y106.992 E13.85837
G1 X118.295 Y107.677 E13.88963
G1 X118.387 Y108.034 E13.90566
G1 X118.541 Y108.888 E13.94332
G1 X118.609 Y109.745 E13.98064
G1 X118.592 Y110.597 E14.01763
G1 X118.484 Y111.487 E14.05653
G1 X118.395 Y111.93 E14.07614
G1 X118.221 Y112.571 E14.10498
G1 X117.924 Y113.374 E14.14215
G1 X117.549 Y114.147 E14.17943
G1 X117.099 Y114.878 E14.2167
G1 X116.578 Y115.56 E14.25398
G1 X115.992 Y116.187 E14.29122
G1 X115.435 Y116.682 E14.32354
G1 X114.746 Y117.187 E14.36063
G1 X114.007 Y117.624 E14.39791
G1 X113.228 Y117.985 E14.43519
G1 X112.417 Y118.267 E14.47246
G1 X111.562 Y118.471 E14.5106
G1 X111.139 Y118.538 E14.52922
G1 X110.308 Y118.608 E14.56542
G1 X109.468 Y118.597 E14.60185
G1 X108.589 Y118.497 E14.64027
G1 X107.717 Y118.307 E14.679
G1 X107.314 Y118.185 E14.69728
G1 X106.669 Y117.945 E14.72715
G1 X106.284 Y117.772 E14.74546
G1 X105.512 Y117.352 E14.78365
G1 X104.789 Y116.859 E14.82162
G1 X104.126 Y116.3 E14.85925
G1 X103.515 Y115.669 E14.89737
G1 X102.98 Y114.994 E14.93478
G1 X102.775 Y114.692 E14.95062
G1 X102.356 Y113.971 E14.98683
G1 X102.141 Y113.527 E15.00825
G1 X101.836 Y112.747 E15.0446
G1 X101.603 Y111.919 E15.08193
G1 X101.455 Y111.087 E15.1186
G1 X101.39 Y110.238 E15.15557
G1 X101.408 Y109.393 E15.19225
G1 X101.513 Y108.529 E15.23007
G1 X101.711 Y107.654 E15.26897
G1 X101.828 Y107.272 E15.28635
G1 X102.094 Y106.578 E15.31857
G1 X102.247 Y106.243 E15.33457
G1 X102.673 Y105.472 E15.3728
G1 X103.16 Y104.765 E15.41007
G1 X103.717 Y104.107 E15.44749
G1 X103.906 Y103.925 E15.45888
G1 X104.218 Y104.246 F18000
G1 F3000
G1 X104.573 Y103.9 E15.48039
G1 X105.2 Y103.395 E15.51534
G1 X105.88 Y102.951 E15.5506
G1 X106.583 Y102.584 E15.58501
G1 X107.299 Y102.295 E15.61853
G1 X108.052 Y102.071 E15.65264
G1 X108.874 Y101.914 E15.68893
G1 X109.663 Y101.842 E15.72334
G1 X110.474 Y101.849 E15.75856
G1 X111.283 Y101.937 E15.79388
G1 X112.08 Y102.105 E15.82921
G1 X112.855 Y102.351 E15.86454
G1 X113.603 Y102.674 E15.89988
G1 X114.314 Y103.069 E15.93521
G1 X114.983 Y103.533 E15.97054
G1 X115.602 Y104.061 E16.00587
G1 X116.166 Y104.649 E16.04121
G1 X116.665 Y105.284 E16.07629
G1 X117.101 Y105.971 E16.11159
G1 X117.467 Y106.698 E16.14691
G1 X117.758 Y107.458 E16.18224
G1 X117.973 Y108.243 E16.21759
G1 X118.106 Y109.024 E16.25198
G1 X118.163 Y109.853 E16.28806
G1 X118.136 Y110.676 E16.3238
G1 X118.028 Y111.484 E16.35919
G1 X117.84 Y112.276 E16.39453
G1 X117.577 Y113.042 E16.42967
G1 X117.257 Y113.741 E16.46302
G1 X116.848 Y114.445 E16.49837
G1 X116.409 Y115.058 E16.53114
G1 X115.876 Y115.669 E16.56632
G1 X115.288 Y116.221 E16.60132
G1 X114.643 Y116.715 E16.63659
G1 X114.002 Y117.116 E16.66941
G1 X113.279 Y117.477 E16.70448
G1 X112.543 Y117.758 E16.73869
G1 X111.76 Y117.972 E16.77391
G1 X110.957 Y118.108 E16.80927
G1 X110.206 Y118.162 E16.84195
G1 X109.396 Y118.142 E16.87713
G1 X108.589 Y118.042 E16.91245
G1 X107.795 Y117.861 E16.94779
G1 X107.023 Y117.603 E16.98312
