; HEADER_BLOCK_START
; generated by AnycubicSlicerNext 1.3.2 on 2025-02-22 at 14:45:26
; total layer number: 35
; filament_density: 1.24
; filament_diameter: 1.75
; max_z_height: 7.04
; exclude_object: 0
; model_instances: 1
; HEADER_BLOCK_END

; THUMBNAIL_BLOCK_START

;
; THUMBNAIL_BLOCK_END

; external perimeters extrusion width = 0.42mm
; perimeters extrusion width = 0.45mm
; infill extrusion width = 0.45mm
; solid infill extrusion width = 0.42mm
; top infill extrusion width = 0.42mm
; first layer extrusion width = 0.50mm

; EXECUTABLE_BLOCK_START
M201 X2000 Y2000 Z800 E2000
M203 X300 Y300 Z8 E100
M204 P2000 R2000 T2000
M205 X10.00 Y10.00 Z2.00 E5.00 ; sets the jerk limits, mm/sec
;TYPE:Custom
G90 ; use absolute coordinates
M83 ; extruder relative mode
M104 S220 ; set extruder temp
M140 S60 ; set bed temp
M190 S60 ; wait for bed temp
M109 S220 ; wait for extruder temp
G28                                        ; move X/Y/Z to min endstops
G1 Z0.28                                   ; lift nozzle a bit 
G92 E0 
G1 Y3 F1800                                    ; zero the extruded length 
G1 X60  E25 F500                       ; Extrude 25mm of filament in a 5cm line. 
G92 E0                                     ; zero the extruded length again 
G1 E-2 F500                                ; Retract a little 
G1 X70 F4000                              ; Quickly wipe away from the filament line
M117
G90
G21
M82 ; use absolute distances for extrusion
G92 E0
; filament start gcode
M106 S0
;LAYER_CHANGE
;Z:0.24
;HEIGHT:0.24
; BEFORE_LAYER_CHANGE 0 @ 0.24mm
G1 E-2.5 F6000
G92 E0
; AFTER_LAYER_CHANGE 0 @ 0.24mm
;_SET_FAN_SPEED_CHANGING_LAYER
M204 P500
; printing object "AxisGear10n4mm.stl" id:2545343640320 copy 0
M204 T500
G1 X100.933 Y102.528 F18000
G1 Z.24
G1 E2.5 F6000
;TYPE:Brim
;WIDTH:0.5
G1 F3000
G1 X101.324 Y102.156 E2.5234
G1 X101.85 Y101.757 E2.55207
G1 X102.305 Y101.485 E2.57511
G1 X102.689 Y101.299 E2.59362
G1 X103.197 Y101.108 E2.61716
G1 X103.399 Y101.05 E2.62629
G1 X103.518 Y100.968 E2.63258
G1 X103.861 Y100.503 E2.65765
G1 X104.309 Y100.022 E2.6862
G1 X104.718 Y99.671 E2.70959
G1 X105.161 Y99.361 E2.73305
G1 X105.531 Y99.15 E2.75154
G1 X106.127 Y98.883 E2.77986
G1 X106.639 Y98.719 E2.80322
G1 X107.167 Y98.606 E2.82668
G1 X107.59 Y98.554 E2.84516
G1 X108.244 Y98.54 E2.87354
G1 X108.675 Y98.575 E2.89232
G1 X109.203 Y98.664 E2.91559
G1 X109.723 Y98.807 E2.93897
G1 X109.92 Y98.879 E2.9481
G1 X110.063 Y98.883 E2.95429
G1 X110.732 Y98.679 E2.98466
G1 X111.261 Y98.583 E3.00799
G1 X111.807 Y98.539 E3.03179
G1 X112.338 Y98.549 E3.05483
G1 X112.873 Y98.613 E3.07822
G1 X113.4 Y98.73 E3.10167
G1 X113.814 Y98.861 E3.12051
G1 X114.308 Y99.069 E3.14377
G1 X114.779 Y99.324 E3.16703
G1 X115.314 Y99.696 E3.1953
G1 X115.72 Y100.05 E3.21871
G1 X116.016 Y100.358 E3.23725
G1 X116.355 Y100.782 E3.26078
G1 X116.472 Y100.956 E3.26991
G1 X116.587 Y101.044 E3.2762
G1 X117.144 Y101.23 E3.30166
G1 X117.634 Y101.453 E3.32503
G1 X118.106 Y101.728 E3.34874
G1 X118.538 Y102.041 E3.3719
G1 X119.018 Y102.477 E3.40008
G1 X119.375 Y102.88 E3.42344
G1 X119.691 Y103.318 E3.44689
G1 X119.909 Y103.686 E3.46543
G1 X120.141 Y104.172 E3.48884
G1 X120.356 Y104.787 E3.51712
G1 X120.476 Y105.312 E3.54047
G1 X120.544 Y105.845 E3.56381
G1 X120.552 Y106.499 E3.59218
G1 X120.593 Y106.626 E3.59802
G1 X120.934 Y107.103 E3.62342
G1 X121.249 Y107.673 E3.65172
G1 X121.417 Y108.064 E3.67019
G1 X121.583 Y108.571 E3.69333
G1 X121.701 Y109.104 E3.71703
G1 X121.763 Y109.64 E3.74048
G1 X121.772 Y110.178 E3.76384
G1 X121.712 Y110.827 E3.79211
G1 X121.603 Y111.354 E3.81548
G1 X121.442 Y111.869 E3.83888
G1 X121.232 Y112.363 E3.8622
G1 X120.975 Y112.831 E3.88536
G1 X120.594 Y113.369 E3.914
G1 X120.553 Y113.495 E3.91973
G1 X120.54 Y114.196 E3.95016
G1 X120.488 Y114.618 E3.96862
G1 X120.374 Y115.146 E3.99208
G1 X120.208 Y115.659 E4.01549
G1 X119.993 Y116.152 E4.03884
G1 X119.668 Y116.717 E4.06712
G1 X119.349 Y117.152 E4.09053
G1 X119.068 Y117.472 E4.10901
G1 X118.59 Y117.916 E4.13734
G1 X118.159 Y118.237 E4.1607
G1 X117.696 Y118.515 E4.18411
G1 X117.21 Y118.744 E4.20745
G1 X116.591 Y118.953 E4.23582
G1 X116.482 Y119.032 E4.24165
G1 X116.139 Y119.498 E4.26677
G1 X115.771 Y119.901 E4.29044
G1 X115.368 Y120.261 E4.31389
G1 X114.932 Y120.579 E4.3373
G1 X114.467 Y120.851 E4.36071
G1 X113.977 Y121.076 E4.38412
G1 X113.467 Y121.252 E4.40753
G1 X112.943 Y121.375 E4.43088
G1 X112.297 Y121.454 E4.45916
G1 X111.758 Y121.46 E4.48257
G1 X111.326 Y121.426 E4.50136
G1 X110.692 Y121.311 E4.52933
G1 X110.069 Y121.117 E4.55763
G1 X109.935 Y121.117 E4.56347
G1 X109.377 Y121.294 E4.58887
G1 X108.738 Y121.418 E4.61712
G1 X108.201 Y121.461 E4.64053
G1 X107.774 Y121.458 E4.65907
G1 X107.237 Y121.405 E4.68248
G1 X106.6 Y121.27 E4.71075
G1 X106.08 Y121.099 E4.73449
G1 X105.594 Y120.883 E4.75759
G1 X105.221 Y120.676 E4.7761
G1 X104.774 Y120.372 E4.79956
G1 X104.36 Y120.026 E4.82297
G1 X103.983 Y119.641 E4.84638
G1 X103.645 Y119.218 E4.86986
G1 X103.528 Y119.044 E4.87899
G1 X103.415 Y118.957 E4.88518
G1 X102.754 Y118.728 E4.91556
G1 X102.269 Y118.496 E4.93889
G1 X101.808 Y118.215 E4.9623
G1 X101.378 Y117.89 E4.9857
G1 X100.982 Y117.523 E5.00916
G1 X100.695 Y117.206 E5.0277
G1 X100.37 Y116.774 E5.05116
G1 X100.091 Y116.313 E5.07456
G1 X99.859 Y115.828 E5.09792
G1 X99.644 Y115.212 E5.12625
G1 X99.544 Y114.798 E5.14474
G1 X99.466 Y114.263 E5.16819
G1 X99.44 Y113.722 E5.19168
G1 X99.448 Y113.512 E5.2008
G1 X99.407 Y113.374 E5.20709
G1 X99.066 Y112.897 E5.2325
G1 X98.751 Y112.328 E5.26075
G1 X98.544 Y111.83 E5.28416
G1 X98.415 Y111.424 E5.30267
G1 X98.301 Y110.903 E5.32582
G1 X98.237 Y110.361 E5.34951
G1 X98.228 Y109.82 E5.37297
G1 X98.272 Y109.285 E5.39631
G1 X98.396 Y108.651 E5.42433
G1 X98.557 Y108.132 E5.44792
G1 X98.768 Y107.637 E5.47128
G1 X99.025 Y107.169 E5.49444
G1 X99.406 Y106.631 E5.52308
G1 X99.447 Y106.503 E5.52891
G1 X99.451 Y105.916 E5.55437
G1 X99.512 Y105.381 E5.57773
G1 X99.624 Y104.862 E5.60082
G1 X99.791 Y104.343 E5.62447
G1 X100.058 Y103.748 E5.65279
G1 X100.331 Y103.284 E5.67615
G1 X100.651 Y102.848 E5.6996
G1 X100.906 Y102.558 E5.7164
G1 X101.243 Y102.854 F18000
G1 F3000
G1 X101.261 Y102.835 E5.71753
G1 X101.62 Y102.494 E5.73904
G1 X102.095 Y102.134 E5.76491
G1 X102.513 Y101.883 E5.78608
G1 X102.861 Y101.714 E5.80285
G1 X103.507 Y101.486 E5.83259
G1 X103.764 Y101.342 E5.84539
G1 X103.886 Y101.225 E5.85272
G1 X104.212 Y100.784 E5.87651
G1 X104.615 Y100.351 E5.90221
G1 X104.999 Y100.022 E5.92416
G1 X105.397 Y99.744 E5.94522
G1 X105.728 Y99.553 E5.96183
G1 X106.28 Y99.306 E5.98808
G1 X106.748 Y99.155 E6.00943
G1 X107.247 Y99.048 E6.03159
G1 X107.629 Y99.002 E6.04826
G1 X108.224 Y98.989 E6.0741
G1 X108.613 Y99.02 E6.09106
G1 X109.116 Y99.105 E6.11317
G1 X109.751 Y99.296 E6.14199
G1 X110.039 Y99.331 E6.15458
G1 X110.204 Y99.309 E6.16179
G1 X110.846 Y99.114 E6.1909
G1 X111.313 Y99.029 E6.2115
G1 X111.814 Y98.988 E6.23335
G1 X112.3 Y98.997 E6.25445
G1 X112.804 Y99.057 E6.27649
G1 X113.289 Y99.165 E6.29806
G1 X113.664 Y99.285 E6.31514
G1 X114.107 Y99.471 E6.33602
G1 X114.549 Y99.711 E6.35784
G1 X115.032 Y100.046 E6.38334
G1 X115.415 Y100.379 E6.40538
G1 X115.684 Y100.661 E6.4223
G1 X116.091 Y101.194 E6.45138
G1 X116.209 Y101.32 E6.45889
G1 X116.456 Y101.473 E6.4715
G1 X116.973 Y101.645 E6.49514
G1 X117.421 Y101.849 E6.51652
G1 X117.866 Y102.108 E6.53886
G1 X118.26 Y102.395 E6.56002
G1 X118.693 Y102.788 E6.58542
G1 X119.028 Y103.166 E6.60735
G1 X119.312 Y103.559 E6.6284
G1 X119.51 Y103.892 E6.6452
G1 X119.728 Y104.35 E6.66724
G1 X119.922 Y104.905 E6.69273
G1 X120.032 Y105.384 E6.71407
G1 X120.096 Y105.884 E6.73595
G1 X120.103 Y106.489 E6.76224
G1 X120.167 Y106.761 E6.77437
G1 X120.234 Y106.895 E6.78089
G1 X120.558 Y107.349 E6.80507
G1 X120.843 Y107.865 E6.83064
G1 X120.999 Y108.228 E6.84782
G1 X121.151 Y108.695 E6.86915
G1 X121.258 Y109.185 E6.89091
G1 X121.315 Y109.664 E6.91182
G1 X121.323 Y110.154 E6.9331
G1 X121.268 Y110.753 E6.95923
G1 X121.17 Y111.235 E6.98058
G1 X121.023 Y111.707 E7.00205
G1 X120.825 Y112.173 E7.024
G1 X120.598 Y112.586 E7.04446
G1 X120.234 Y113.102 E7.07189
G1 X120.168 Y113.234 E7.0783
G1 X120.105 Y113.501 E7.09021
G1 X120.093 Y114.157 E7.11868
G1 X120.046 Y114.537 E7.13529
G1 X119.938 Y115.036 E7.15745
G1 X119.79 Y115.494 E7.17834
G1 X119.595 Y115.943 E7.19962
G1 X119.287 Y116.478 E7.2264
G1 X119.003 Y116.866 E7.24727
G1 X118.751 Y117.154 E7.26389
G1 X118.297 Y117.576 E7.29078
G1 X117.903 Y117.868 E7.31207
G1 X117.479 Y118.121 E7.33353
G1 X117.034 Y118.329 E7.35483
G1 X116.461 Y118.524 E7.38111
G1 X116.222 Y118.668 E7.39325
G1 X116.115 Y118.775 E7.39978
G1 X115.787 Y119.218 E7.42373
G1 X115.459 Y119.577 E7.44481
G1 X115.091 Y119.907 E7.4663
G1 X114.692 Y120.199 E7.48777
G1 X114.254 Y120.456 E7.50981
G1 X113.816 Y120.657 E7.5307
G1 X113.349 Y120.818 E7.55216
G1 X112.857 Y120.934 E7.57408
G1 X112.274 Y121.005 E7.59957
G1 X111.779 Y121.011 E7.62108
G1 X111.377 Y120.979 E7.63858
G1 X110.807 Y120.876 E7.66373
G1 X110.213 Y120.692 E7.69074
G1 X110.064 Y120.67 E7.69726
G1 X109.786 Y120.694 E7.70939
G1 X109.259 Y120.86 E7.73337
G1 X108.684 Y120.971 E7.75877
G1 X108.19 Y121.012 E7.78029
G1 X107.791 Y121.009 E7.7976
G1 X107.313 Y120.962 E7.81848
G1 X106.724 Y120.838 E7.8446
G1 X106.248 Y120.682 E7.86633
G1 X105.8 Y120.484 E7.88761
G1 X105.452 Y120.29 E7.90491
G1 X105.05 Y120.017 E7.92597
G1 X104.67 Y119.701 E7.94744
G1 X104.324 Y119.348 E7.9689
G1 X103.909 Y118.806 E7.99852
G1 X103.793 Y118.682 E8.00591
G1 X103.551 Y118.529 E8.01832
G1 X102.932 Y118.315 E8.04677
G1 X102.489 Y118.104 E8.06805
G1 X102.056 Y117.84 E8.0901
G1 X101.661 Y117.541 E8.11156
G1 X101.305 Y117.212 E8.13262
G1 X101.038 Y116.916 E8.14993
G1 X100.739 Y116.517 E8.17157
G1 X100.489 Y116.106 E8.19245
G1 X100.277 Y115.663 E8.21374
G1 X100.073 Y115.078 E8.24064
G1 X99.984 Y114.706 E8.25724
G1 X99.914 Y114.226 E8.2783
G1 X99.897 Y113.544 E8.30792
G1 X99.839 Y113.255 E8.32071
G1 X99.765 Y113.104 E8.32803
G1 X99.442 Y112.651 E8.35217
G1 X99.159 Y112.139 E8.37756
G1 X98.968 Y111.682 E8.39909
G1 X98.848 Y111.302 E8.41638
G1 X98.743 Y110.822 E8.43772
G1 X98.686 Y110.337 E8.45888
G1 X98.677 Y109.842 E8.48039
G1 X98.719 Y109.339 E8.5023
G1 X98.833 Y108.754 E8.52818
G1 X98.982 Y108.281 E8.5497
G1 X99.175 Y107.827 E8.57111
G1 X99.402 Y107.414 E8.59157
G1 X99.766 Y106.898 E8.61899
G1 X99.833 Y106.764 E8.62551
G1 X99.895 Y106.492 E8.63762
G1 X99.9 Y105.95 E8.66111
G1 X99.954 Y105.461 E8.6825
G1 X100.06 Y104.971 E8.70423
G1 X100.213 Y104.497 E8.72586
G1 X100.454 Y103.961 E8.75139
G1 X100.71 Y103.526 E8.77331
G1 X100.997 Y103.134 E8.79437
G1 X101.217 Y102.884 E8.80882
G1 X101.554 Y103.181 F18000
G1 F3000
G1 X101.588 Y103.142 E8.81106
G1 X101.917 Y102.832 E8.83067
G1 X102.341 Y102.51 E8.85379
G1 X102.732 Y102.275 E8.87361
G1 X103.04 Y102.127 E8.88842
G1 X103.735 Y101.873 E8.92056
G1 X104.081 Y101.659 E8.93822
G1 X104.251 Y101.484 E8.9488
G1 X104.562 Y101.066 E8.97143
G1 X104.921 Y100.681 E8.99429
G1 X105.28 Y100.373 E9.0148
G1 X105.632 Y100.126 E9.03347
G1 X105.927 Y99.957 E9.04822
G1 X106.435 Y99.728 E9.0724
G1 X106.871 Y99.587 E9.09231
G1 X107.327 Y99.49 E9.11256
G1 X107.667 Y99.45 E9.12741
G1 X108.205 Y99.438 E9.15075
G1 X108.552 Y99.465 E9.16587
G1 X109.019 Y99.545 E9.18646
G1 X109.707 Y99.742 E9.21752
G1 X110.106 Y99.775 E9.23488
G1 X110.343 Y99.736 E9.2453
G1 X110.959 Y99.55 E9.27325
G1 X111.365 Y99.475 E9.29115
G1 X111.822 Y99.437 E9.31106
G1 X112.263 Y99.445 E9.33021
G1 X112.722 Y99.499 E9.35028
G1 X113.178 Y99.6 E9.37055
G1 X113.514 Y99.708 E9.38588
G1 X113.907 Y99.873 E9.40438
G1 X114.32 Y100.098 E9.42477
G1 X114.75 Y100.396 E9.4475
G1 X115.109 Y100.709 E9.46816
G1 X115.347 Y100.959 E9.48314
G1 X115.766 Y101.503 E9.51297
G1 X115.982 Y101.706 E9.52584
G1 X116.327 Y101.903 E9.54305
G1 X116.802 Y102.061 E9.56481
G1 X117.209 Y102.245 E9.58419
G1 X117.615 Y102.48 E9.60455
G1 X117.982 Y102.748 E9.62427
G1 X118.368 Y103.098 E9.64692
G1 X118.681 Y103.452 E9.66742
G1 X118.933 Y103.801 E9.68609
G1 X119.116 Y104.109 E9.70166
G1 X119.315 Y104.528 E9.72179
G1 X119.488 Y105.023 E9.74453
G1 X119.589 Y105.456 E9.76384
G1 X119.646 Y105.907 E9.78359
G1 X119.669 Y106.602 E9.81377
G1 X119.772 Y106.974 E9.83052
G1 X119.874 Y107.162 E9.83982
G1 X120.181 Y107.595 E9.86286
G1 X120.436 Y108.056 E9.88573
G1 X120.581 Y108.392 E9.90161
G1 X120.719 Y108.82 E9.92112
G1 X120.816 Y109.266 E9.94093
G1 X120.867 Y109.7 E9.95992
G1 X120.874 Y110.13 E9.97857
G1 X120.824 Y110.68 E10.00255
G1 X120.733 Y111.13 E10.02247
G1 X120.599 Y111.559 E10.04198
G1 X120.418 Y111.982 E10.06198
G1 X120.213 Y112.353 E10.08036
G1 X119.831 Y112.906 E10.10952
G1 X119.729 Y113.141 E10.12063
G1 X119.656 Y113.505 E10.13677
G1 X119.645 Y114.119 E10.16341
G1 X119.604 Y114.456 E10.17816
G1 X119.506 Y114.913 E10.19843
G1 X119.373 Y115.328 E10.21739
G1 X119.196 Y115.734 E10.23659
G1 X118.906 Y116.239 E10.26186
G1 X118.656 Y116.58 E10.28022
G1 X118.423 Y116.845 E10.29554
G1 X118.015 Y117.225 E10.31975
G1 X117.659 Y117.49 E10.33901
G1 X117.274 Y117.721 E10.35852
G1 X116.874 Y117.91 E10.37772
G1 X116.22 Y118.146 E10.4079
G1 X115.897 Y118.359 E10.42468
G1 X115.749 Y118.514 E10.43399
G1 X115.435 Y118.938 E10.45687
G1 X115.148 Y119.253 E10.47538
G1 X114.813 Y119.554 E10.49494
G1 X114.451 Y119.82 E10.51444
G1 X114.04 Y120.061 E10.53511
G1 X113.643 Y120.242 E10.55406
G1 X113.231 Y120.384 E10.57299
G1 X112.771 Y120.492 E10.59347
G1 X112.251 Y120.556 E10.6162
G1 X111.8 Y120.562 E10.6358
G1 X111.428 Y120.533 E10.65199
G1 X110.907 Y120.438 E10.67499
G1 X110.274 Y120.248 E10.70367
G1 X110.014 Y120.224 E10.71499
G1 X109.639 Y120.27 E10.73139
G1 X109.141 Y120.426 E10.75405
G1 X108.63 Y120.525 E10.77664
G1 X108.18 Y120.563 E10.79627
G1 X107.809 Y120.56 E10.81234
G1 X107.388 Y120.518 E10.83072
G1 X106.847 Y120.406 E10.85469
G1 X106.416 Y120.265 E10.8744
G1 X106.006 Y120.084 E10.89386
G1 X105.682 Y119.904 E10.90993
G1 X105.326 Y119.662 E10.92861
G1 X104.98 Y119.375 E10.94814
G1 X104.669 Y119.059 E10.96737
G1 X104.235 Y118.498 E10.99819
G1 X104.023 Y118.297 E11.01086
G1 X103.685 Y118.101 E11.02781
G1 X103.109 Y117.902 E11.05425
G1 X102.709 Y117.712 E11.07347
G1 X102.303 Y117.464 E11.09414
G1 X101.955 Y117.201 E11.11307
G1 X101.629 Y116.9 E11.13233
G1 X101.381 Y116.625 E11.14841
G1 X101.107 Y116.26 E11.16822
G1 X100.881 Y115.886 E11.18719
G1 X100.696 Y115.499 E11.20582
G1 X100.503 Y114.945 E11.23126
G1 X100.424 Y114.615 E11.24599
G1 X100.362 Y114.196 E11.26439
G1 X100.334 Y113.447 E11.29694
G1 X100.239 Y113.052 E11.31458
G1 X100.125 Y112.836 E11.32515
G1 X99.819 Y112.405 E11.34812
G1 X99.567 Y111.95 E11.3707
G1 X99.392 Y111.533 E11.39034
G1 X99.28 Y111.18 E11.40639
G1 X99.187 Y110.754 E11.42534
G1 X99.134 Y110.314 E11.44458
G1 X99.126 Y109.864 E11.46412
G1 X99.165 Y109.394 E11.48458
G1 X99.271 Y108.857 E11.50831
G1 X99.406 Y108.43 E11.52776
G1 X99.582 Y108.018 E11.54723
G1 X99.787 Y107.647 E11.56562
G1 X100.169 Y107.093 E11.59484
G1 X100.272 Y106.854 E11.60614
G1 X100.344 Y106.483 E11.62255
G1 X100.348 Y105.984 E11.64419
G1 X100.397 Y105.54 E11.6636
G1 X100.492 Y105.095 E11.68336
G1 X100.635 Y104.652 E11.70355
G1 X100.85 Y104.174 E11.72631
G1 X101.09 Y103.767 E11.7468
G1 X101.343 Y103.42 E11.76546
G1 X101.528 Y103.211 E11.77756
G1 X101.865 Y103.508 F18000
G1 F3000
G1 X101.916 Y103.45 E11.7809
G1 X102.213 Y103.171 E11.7986
G1 X102.587 Y102.887 E11.819
G1 X102.951 Y102.667 E11.83746
G1 X103.219 Y102.539 E11.85034
G1 X103.981 Y102.248 E11.88576
G1 X104.305 Y102.048 E11.90227
G1 X104.569 Y101.8 E11.918
G1 X104.904 Y101.358 E11.94205
G1 X105.227 Y101.01 E11.96269
G1 X105.561 Y100.724 E11.98177
G1 X105.868 Y100.509 E11.99807
G1 X106.125 Y100.36 E12.01095
G1 X106.589 Y100.15 E12.03305
G1 X106.994 Y100.02 E12.0515
G1 X107.407 Y99.932 E12.06983
G1 X107.705 Y99.898 E12.08285
G1 X108.186 Y99.887 E12.10375
G1 X108.491 Y99.91 E12.11701
G1 X108.926 Y99.985 E12.1362
G1 X109.572 Y100.17 E12.16536
G1 X110.058 Y100.22 E12.18656
G1 X110.41 Y100.179 E12.20196
G1 X111.058 Y99.988 E12.23128
G1 X111.417 Y99.922 E12.24713
G1 X111.83 Y99.887 E12.26511
G1 X112.226 Y99.893 E12.28231
G1 X112.654 Y99.943 E12.301
