; HEADER_BLOCK_START
; generated by AnycubicSlicerNext 1.3.2 on 2025-02-23 at 14:24:59
; total layer number: 160
; filament_density: 1.24
; filament_diameter: 1.75
; max_z_height: 32.04
; exclude_object: 0
; model_instances: 1
; HEADER_BLOCK_END

; THUMBNAIL_BLOCK_START

;
; THUMBNAIL_BLOCK_END

; external perimeters extrusion width = 0.42mm
; perimeters extrusion width = 0.45mm
; infill extrusion width = 0.45mm
; solid infill extrusion width = 0.42mm
; top infill extrusion width = 0.42mm
; first layer extrusion width = 0.50mm

; EXECUTABLE_BLOCK_START
M201 X2000 Y2000 Z800 E2000
M203 X300 Y300 Z8 E100
M204 P2000 R2000 T2000
M205 X10.00 Y10.00 Z2.00 E5.00 ; sets the jerk limits, mm/sec
;TYPE:Custom
G90 ; use absolute coordinates
M83 ; extruder relative mode
M104 S220 ; set extruder temp
M140 S60 ; set bed temp
M190 S60 ; wait for bed temp
M109 S220 ; wait for extruder temp
G28                                        ; move X/Y/Z to min endstops
G1 Z0.28                                   ; lift nozzle a bit 
G92 E0 
G1 Y3 F1800                                    ; zero the extruded length 
G1 X60  E25 F500                       ; Extrude 25mm of filament in a 5cm line. 
G92 E0                                     ; zero the extruded length again 
G1 E-2 F500                                ; Retract a little 
G1 X70 F4000                              ; Quickly wipe away from the filament line
M117
G90
G21
M82 ; use absolute distances for extrusion
G92 E0
; filament start gcode
M106 S0
;LAYER_CHANGE
;Z:0.24
;HEIGHT:0.24
; BEFORE_LAYER_CHANGE 0 @ 0.24mm
G1 E-2.5 F6000
G92 E0
; AFTER_LAYER_CHANGE 0 @ 0.24mm
;_SET_FAN_SPEED_CHANGING_LAYER
M204 P500
; printing object "Axis4mmAdapter.stl" id:0 copy 0
M204 T500
G1 X102.759 Y102.521 F18000
G1 Z.24
G1 E2.5 F6000
;TYPE:Brim
;WIDTH:0.5
G1 F3000
G1 X103.142 Y102.169 E2.52259
G1 X103.542 Y101.836 E2.54518
G1 X103.958 Y101.523 E2.56777
G1 X104.389 Y101.232 E2.59036
G1 X104.835 Y100.962 E2.61296
G1 X105.293 Y100.715 E2.63555
G1 X105.763 Y100.492 E2.65814
G1 X106.243 Y100.292 E2.68073
G1 X106.733 Y100.116 E2.70332
G1 X107.231 Y99.965 E2.72591
G1 X107.736 Y99.839 E2.7485
G1 X108.247 Y99.739 E2.77109
G1 X108.762 Y99.664 E2.79368
G1 X109.278 Y99.615 E2.81619
G1 X110.159 Y99.591 E2.85446
G1 X110.667 Y99.612 E2.8765
G1 X111.185 Y99.658 E2.8991
G1 X111.7 Y99.73 E2.92169
G1 X112.212 Y99.828 E2.94428
G1 X112.717 Y99.951 E2.96687
G1 X113.216 Y100.099 E2.98946
G1 X113.707 Y100.273 E3.01205
G1 X114.188 Y100.47 E3.03465
G1 X114.659 Y100.691 E3.05723
G1 X115.117 Y100.935 E3.07974
G1 X115.859 Y101.396 E3.11766
G1 X116.278 Y101.697 E3.14006
G1 X116.685 Y102.021 E3.16265
G1 X117.076 Y102.365 E3.18524
G1 X117.449 Y102.728 E3.20783
G1 X117.803 Y103.11 E3.23042
G1 X118.137 Y103.508 E3.25302
G1 X118.452 Y103.923 E3.27561
G1 X118.745 Y104.353 E3.29819
G1 X119.016 Y104.797 E3.32078
G1 X119.265 Y105.254 E3.34338
G1 X119.491 Y105.723 E3.36597
G1 X119.692 Y106.203 E3.38856
G1 X119.87 Y106.692 E3.41115
G1 X120.023 Y107.189 E3.43374
G1 X120.151 Y107.694 E3.45633
G1 X120.254 Y108.204 E3.47892
G1 X120.331 Y108.719 E3.50151
G1 X120.381 Y109.234 E3.52399
G1 X120.407 Y110.24 E3.56768
G1 X120.347 Y111.144 E3.607
G1 X120.277 Y111.658 E3.62951
G1 X120.181 Y112.169 E3.65209
G1 X120.06 Y112.675 E3.67469
G1 X119.914 Y113.175 E3.69728
G1 X119.743 Y113.666 E3.71987
G1 X119.547 Y114.149 E3.74246
G1 X119.328 Y114.621 E3.76505
G1 X119.085 Y115.081 E3.78764
G1 X118.82 Y115.529 E3.81023
G1 X118.533 Y115.963 E3.83282
G1 X118.224 Y116.382 E3.85541
G1 X117.895 Y116.785 E3.87801
G1 X117.546 Y117.171 E3.9006
G1 X117.178 Y117.539 E3.92319
G1 X116.792 Y117.888 E3.94578
G1 X116.392 Y118.216 E3.96826
G1 X115.568 Y118.796 E4.01197
G1 X114.783 Y119.246 E4.05127
G1 X114.316 Y119.473 E4.07377
G1 X113.837 Y119.677 E4.09636
G1 X113.349 Y119.856 E4.11895
G1 X112.852 Y120.011 E4.14154
G1 X112.348 Y120.141 E4.16413
G1 X111.839 Y120.246 E4.18672
G1 X111.324 Y120.325 E4.20932
G1 X110.806 Y120.378 E4.23191
G1 X110.287 Y120.406 E4.2545
G1 X109.766 Y120.407 E4.27709
G1 X109.247 Y120.382 E4.29968
G1 X108.729 Y120.332 E4.32227
G1 X108.214 Y120.255 E4.34486
G1 X107.704 Y120.153 E4.36745
G1 X107.199 Y120.026 E4.39004
G1 X106.701 Y119.873 E4.41263
G1 X106.212 Y119.696 E4.43522
G1 X105.732 Y119.495 E4.45781
G1 X105.263 Y119.27 E4.48041
G1 X104.806 Y119.021 E4.503
G1 X104.361 Y118.75 E4.52558
G1 X103.931 Y118.458 E4.54818
G1 X103.516 Y118.144 E4.57077
G1 X103.118 Y117.811 E4.59328
G1 X102.488 Y117.207 E4.63117
G1 X102.14 Y116.825 E4.65359
G1 X101.809 Y116.424 E4.67618
G1 X101.498 Y116.006 E4.69878
G1 X101.208 Y115.574 E4.72136
G1 X100.941 Y115.128 E4.74396
G1 X100.696 Y114.668 E4.76655
G1 X100.474 Y114.198 E4.78913
G1 X100.276 Y113.717 E4.81171
G1 X100.103 Y113.226 E4.83432
G1 X99.954 Y112.729 E4.8568
G1 X99.737 Y111.747 E4.90049
G1 X99.625 Y110.848 E4.93981
G1 X99.595 Y110.33 E4.96231
G1 X99.592 Y109.81 E4.9849
G1 X99.614 Y109.29 E5.00749
G1 X99.663 Y108.772 E5.03009
G1 X99.737 Y108.257 E5.05268
G1 X99.837 Y107.746 E5.07527
G1 X99.962 Y107.241 E5.09786
G1 X100.112 Y106.745 E5.12034
G1 X100.472 Y105.805 E5.16402
G1 X100.873 Y104.993 E5.20335
G1 X101.134 Y104.545 E5.22585
G1 X101.418 Y104.109 E5.24844
G1 X101.723 Y103.687 E5.27104
G1 X102.049 Y103.281 E5.29363
G1 X102.394 Y102.892 E5.31621
G1 X102.731 Y102.55 E5.33707
G1 X103.059 Y102.857 F18000
G1 F3000
G1 X103.074 Y102.841 E5.33798
G1 X103.443 Y102.502 E5.35975
G1 X104.224 Y101.885 E5.40297
G1 X105.063 Y101.349 E5.44619
G1 X105.951 Y100.899 E5.48941
G1 X106.88 Y100.54 E5.53263
G1 X107.84 Y100.276 E5.57585
G1 X108.818 Y100.109 E5.61892
G1 X109.31 Y100.063 E5.64034
G1 X110.161 Y100.04 E5.6773
G1 X110.644 Y100.06 E5.69831
G1 X111.634 Y100.174 E5.74154
G1 X112.606 Y100.386 E5.78476
G1 X113.553 Y100.694 E5.82798
G1 X114.462 Y101.094 E5.87106
G1 X114.897 Y101.326 E5.89248
G1 X115.606 Y101.766 E5.9287
G1 X116.402 Y102.369 E5.97206
G1 X117.132 Y103.047 E6.01528
G1 X117.791 Y103.793 E6.0585
G1 X118.371 Y104.602 E6.10172
G1 X118.862 Y105.453 E6.14436
G1 X119.272 Y106.36 E6.18757
G1 X119.589 Y107.304 E6.23079
G1 X119.81 Y108.275 E6.27401
G1 X119.933 Y109.254 E6.31684
G1 X119.958 Y110.225 E6.359
G1 X119.899 Y111.107 E6.39737
G1 X119.741 Y112.082 E6.44028
G1 X119.484 Y113.044 E6.4835
G1 X119.133 Y113.976 E6.52672
G1 X118.69 Y114.868 E6.56994
G1 X118.161 Y115.711 E6.61316
G1 X117.559 Y116.487 E6.6558
G1 X116.873 Y117.209 E6.69901
G1 X116.124 Y117.856 E6.74198
G1 X115.332 Y118.413 E6.78402
G1 X114.566 Y118.853 E6.82237
G1 X113.678 Y119.257 E6.8647
G1 X113.198 Y119.433 E6.8869
G1 X112.241 Y119.706 E6.93011
G1 X111.26 Y119.881 E6.97334
G1 X110.268 Y119.957 E7.01656
G1 X109.272 Y119.934 E7.05978
G1 X108.284 Y119.812 E7.10299
G1 X107.313 Y119.592 E7.14621
G1 X106.369 Y119.276 E7.18943
G1 X105.461 Y118.867 E7.23265
G1 X104.599 Y118.369 E7.27587
G1 X103.793 Y117.791 E7.31895
G1 X103.415 Y117.473 E7.34037
G1 X102.812 Y116.896 E7.37658
G1 X102.474 Y116.526 E7.39834
G1 X101.86 Y115.742 E7.44157
G1 X101.328 Y114.901 E7.48479
G1 X100.882 Y114.011 E7.528
G1 X100.528 Y113.084 E7.57108
G1 X100.388 Y112.612 E7.59243
G1 X100.181 Y111.676 E7.63403
G1 X100.071 Y110.799 E7.6724
G1 X100.041 Y109.825 E7.71472
G1 X100.063 Y109.314 E7.73692
G1 X100.181 Y108.325 E7.78014
G1 X100.396 Y107.357 E7.82322
G1 X100.539 Y106.886 E7.84456
G1 X100.881 Y105.991 E7.88615
G1 X101.273 Y105.198 E7.92453
G1 X101.792 Y104.357 E7.96744
G1 X102.396 Y103.566 E8.01066
G1 X103.032 Y102.886 E8.05108
G1 X103.36 Y103.192 F18000
G1 F3000
G1 X103.393 Y103.156 E8.05322
G1 X103.738 Y102.84 E8.07352
G1 X104.49 Y102.247 E8.11511
G1 X105.292 Y101.736 E8.15638
G1 X106.14 Y101.307 E8.19765
G1 X107.027 Y100.965 E8.23892
G1 X107.944 Y100.713 E8.28019
G1 X108.882 Y100.554 E8.32149
G1 X109.341 Y100.511 E8.3415
G1 X110.162 Y100.489 E8.37715
G1 X110.615 Y100.508 E8.39681
G1 X111.567 Y100.618 E8.43841
G1 X112.495 Y100.822 E8.47968
G1 X113.399 Y101.117 E8.52096
G1 X114.27 Y101.5 E8.56226
G1 X114.677 Y101.717 E8.58227
G1 X115.346 Y102.133 E8.61649
G1 X116.108 Y102.709 E8.65795
G1 X116.815 Y103.365 E8.69981
G1 X117.443 Y104.079 E8.74108
G1 X117.99 Y104.84 E8.78177
G1 X118.459 Y105.652 E8.82247
G1 X118.851 Y106.518 E8.86374
G1 X119.155 Y107.419 E8.90501
G1 X119.367 Y108.346 E8.94629
G1 X119.484 Y109.281 E8.98719
G1 X119.509 Y110.209 E9.0275
G1 X119.452 Y111.062 E9.0646
G1 X119.3 Y111.995 E9.10563
G1 X119.054 Y112.913 E9.1469
G1 X118.718 Y113.803 E9.18817
G1 X118.302 Y114.642 E9.22886
G1 X117.797 Y115.448 E9.27014
G1 X117.222 Y116.189 E9.31084
G1 X116.568 Y116.879 E9.35211
G1 X115.853 Y117.498 E9.39316
G1 X115.096 Y118.031 E9.43334
G1 X114.355 Y118.456 E9.47043
G1 X113.512 Y118.84 E9.51062
G1 X113.054 Y119.008 E9.5318
G1 X112.133 Y119.269 E9.57337
G1 X111.197 Y119.436 E9.61464
G1 X110.249 Y119.508 E9.65591
G1 X109.298 Y119.486 E9.69718
G1 X108.355 Y119.368 E9.73845
G1 X107.428 Y119.157 E9.77972
G1 X106.527 Y118.855 E9.82099
G1 X105.66 Y118.464 E9.86226
G1 X104.837 Y117.988 E9.90353
G1 X104.064 Y117.433 E9.94483
G1 X103.711 Y117.136 E9.96485
G1 X103.137 Y116.586 E9.99937
G1 X102.814 Y116.232 E10.02017
G1 X102.224 Y115.477 E10.06176
G1 X101.716 Y114.674 E10.10303
G1 X101.291 Y113.823 E10.14429
G1 X100.952 Y112.934 E10.18559
G1 X100.821 Y112.495 E10.2055
G1 X100.625 Y111.606 E10.24501
G1 X100.519 Y110.758 E10.28211
G1 X100.489 Y109.832 E10.32231
G1 X100.511 Y109.345 E10.34348
G1 X100.625 Y108.394 E10.38506
G1 X100.832 Y107.465 E10.42636
G1 X100.965 Y107.027 E10.44626
G1 X101.291 Y106.177 E10.48577
G1 X101.669 Y105.41 E10.52288
G1 X102.166 Y104.606 E10.56391
G1 X102.743 Y103.851 E10.60518
G1 X103.332 Y103.222 E10.6426
G1 X103.66 Y103.529 F18000
G1 F3000
G1 X103.713 Y103.472 E10.64597
G1 X104.033 Y103.179 E10.6648
G1 X104.756 Y102.609 E10.70476
G1 X105.52 Y102.123 E10.74408
G1 X106.329 Y101.715 E10.7834
G1 X107.174 Y101.39 E10.82272
G1 X108.048 Y101.151 E10.86204
G1 X108.946 Y100.998 E10.90157
G1 X109.372 Y100.959 E10.92016
G1 X110.163 Y100.938 E10.95452
G1 X110.584 Y100.956 E10.97281
G1 X111.499 Y101.063 E11.01279
G1 X112.384 Y101.257 E11.05211
G1 X113.245 Y101.539 E11.09144
G1 X114.078 Y101.906 E11.13096
G1 X114.456 Y102.108 E11.14958
G1 X115.087 Y102.5 E11.18181
G1 X115.825 Y103.058 E11.22196
G1 X116.498 Y103.683 E11.26184
G1 X117.096 Y104.364 E11.30116
G1 X117.616 Y105.089 E11.33992
G1 X118.063 Y105.863 E11.3787
G1 X118.431 Y106.676 E11.41744
G1 X118.72 Y107.535 E11.45676
G1 X118.923 Y108.418 E11.49609
G1 X119.035 Y109.308 E11.53507
G1 X119.06 Y110.194 E11.57352
G1 X119.005 Y111.017 E11.60933
G1 X118.859 Y111.907 E11.64848
G1 X118.624 Y112.782 E11.68781
G1 X118.304 Y113.629 E11.72713
G1 X117.906 Y114.429 E11.76588
G1 X117.424 Y115.196 E11.80523
G1 X116.877 Y115.902 E11.84399
G1 X116.263 Y116.55 E11.88274
G1 X115.581 Y117.139 E11.92186
G1 X114.86 Y117.649 E11.96019
G1 X114.144 Y118.059 E11.99599
G1 X113.346 Y118.422 E12.03406
G1 X112.911 Y118.583 E12.05421
G1 X112.026 Y118.833 E12.09413
G1 X111.134 Y118.991 E12.13345
G1 X110.23 Y119.059 E12.17277
G1 X109.325 Y119.037 E12.21209
G1 X108.426 Y118.924 E12.25141
G1 X107.543 Y118.723 E12.29073
G1 X106.685 Y118.434 E12.33005
G1 X105.859 Y118.061 E12.36937
G1 X105.075 Y117.607 E12.4087
G1 X104.336 Y117.075 E12.44822
G1 X104.008 Y116.799 E12.46684
G1 X103.461 Y116.276 E12.49968
G1 X103.154 Y115.938 E12.5195
G1 X102.587 Y115.213 E12.55945
G1 X102.104 Y114.447 E12.59877
G1 X101.699 Y113.637 E12.63809
G1 X101.375 Y112.786 E12.67761
G1 X101.255 Y112.378 E12.69607
G1 X101.069 Y111.536 E12.73351
G1 X100.966 Y110.717 E12.76934
G1 X100.938 Y109.84 E12.80741
G1 X100.959 Y109.377 E12.82755
G1 X101.069 Y108.463 E12.86749
G1 X101.267 Y107.575 E12.90701
G1 X101.391 Y107.168 E12.92547
G1 X101.7 Y106.363 E12.9629
G1 X102.065 Y105.623 E12.99873
G1 X102.54 Y104.855 E13.03788
G1 X103.091 Y104.136 E13.07721
G1 X103.633 Y103.558 E13.11162
G1 X103.96 Y103.865 F18000
G1 F3000
G1 X104.032 Y103.787 E13.11622
G1 X104.327 Y103.518 E13.13357
G1 X105.021 Y102.972 E13.1719
G1 X105.748 Y102.51 E13.20927
G1 X106.517 Y102.123 E13.24664
G1 X107.321 Y101.815 E13.28401
G1 X108.152 Y101.588 E13.3214
G1 X109.009 Y101.443 E13.35915
G1 X109.403 Y101.407 E13.37634
G1 X110.164 Y101.387 E13.40938
G1 X110.554 Y101.404 E13.42631
G1 X111.432 Y101.507 E13.46467
G1 X112.272 Y101.692 E13.50204
G1 X113.091 Y101.961 E13.53942
G1 X113.886 Y102.312 E13.57717
G1 X114.236 Y102.499 E13.59439
G1 X114.828 Y102.867 E13.62464
G1 X115.531 Y103.398 E13.66288
G1 X116.18 Y104.002 E13.70138
G1 X116.748 Y104.649 E13.73875
G1 X117.242 Y105.339 E13.77558
G1 X117.666 Y106.074 E13.81243
G1 X118.015 Y106.847 E13.84925
G1 X118.286 Y107.65 E13.88605
G1 X118.479 Y108.49 E13.92342
G1 X118.587 Y109.336 E13.96048
G1 X118.611 Y110.179 E13.99706
G1 X118.558 Y110.972 E14.03157
G1 X118.418 Y111.819 E14.06883
G1 X118.195 Y112.651 E14.10621
G1 X117.889 Y113.456 E14.14359
G1 X117.511 Y114.215 E14.18041
G1 X117.06 Y114.933 E14.21724
G1 X116.54 Y115.604 E14.25407
G1 X115.957 Y116.22 E14.2909
G1 X115.309 Y116.781 E14.32809
G1 X114.624 Y117.267 E14.36456
G1 X113.934 Y117.662 E14.39908
G1 X113.18 Y118.005 E14.43502
G1 X112.767 Y118.157 E14.45413
G1 X111.919 Y118.396 E14.49239
G1 X111.071 Y118.546 E14.52976
G1 X110.212 Y118.61 E14.56713
G1 X109.352 Y118.588 E14.60451
G1 X108.498 Y118.481 E14.64187
G1 X107.658 Y118.288 E14.67924
G1 X106.843 Y118.013 E14.71661
G1 X106.058 Y117.658 E14.75399
G1 X105.313 Y117.226 E14.79137
G1 X104.608 Y116.718 E14.82912
G1 X104.304 Y116.462 E14.84634
G1 X103.786 Y115.966 E14.87751
G1 X103.493 Y115.645 E14.89635
G1 X102.951 Y114.949 E14.93464
G1 X102.492 Y114.221 E14.97201
G1 X102.108 Y113.45 E15.00939
G1 X101.799 Y112.637 E15.04714
G1 X101.688 Y112.261 E15.06416
G1 X101.513 Y111.465 E15.09953
G1 X101.414 Y110.675 E15.13409
G1 X101.387 Y109.848 E15.17003
G1 X101.406 Y109.408 E15.18914
G1 X101.513 Y108.533 E15.22742
G1 X101.703 Y107.684 E15.26516
G1 X101.817 Y107.309 E15.28218
G1 X102.109 Y106.548 E15.31754
G1 X102.461 Y105.835 E15.35209
G1 X102.913 Y105.105 E15.38936
G1 X103.438 Y104.422 E15.42675
G1 X103.933 Y103.894 E15.45815
G1 X104.252 Y104.215 F18000
G1 F3000
G1 X104.532 Y103.937 E15.47527
G1 X105.144 Y103.436 E15.50959
G1 X105.821 Y102.986 E15.54492
G1 X106.542 Y102.604 E15.58033
G1 X107.299 Y102.295 E15.61581
G1 X108.02 Y102.079 E15.64849
G1 X108.815 Y101.922 E15.68367
G1 X109.626 Y101.844 E15.71902
G1 X110.465 Y101.849 E15.75546
G1 X111.275 Y101.935 E15.79079
G1 X112.049 Y102.097 E15.82511
G1 X112.826 Y102.34 E15.86047
G1 X113.576 Y102.66 E15.89586
G1 X114.28 Y103.047 E15.93073
G1 X114.929 Y103.491 E15.96489
G1 X115.553 Y104.015 E16.00022
G1 X116.119 Y104.595 E16.03541
G1 X116.628 Y105.233 E16.07086
G1 X117.071 Y105.919 E16.10629
G1 X117.419 Y106.593 E16.13921
G1 X117.723 Y107.351 E16.17467
G1 X117.935 Y108.077 E16.20752
G1 X118.087 Y108.877 E16.24287
G1 X118.159 Y109.683 E16.27799
G1 X118.15 Y110.495 E16.31321
G1 X118.059 Y111.306 E16.34866
G1 X117.888 Y112.105 E16.38411
G1 X117.66 Y112.826 E16.41697
G1 X117.342 Y113.572 E16.45215
G1 X116.948 Y114.287 E16.4876
G1 X116.521 Y114.912 E16.52045
G1 X116 Y115.537 E16.55579
G1 X115.424 Y116.103 E16.59081
G1 X114.812 Y116.596 E16.62495
G1 X114.156 Y117.028 E16.65904
G1 X113.435 Y117.407 E16.6944
G1 X112.678 Y117.713 E16.72982
G1 X111.894 Y117.942 E16.76528
G1 X111.152 Y118.083 E16.79805
G1 X110.343 Y118.157 E16.83332
G1 X109.528 Y118.151 E16.86871
G1 X108.742 Y118.067 E16.90303
G1 X107.945 Y117.902 E16.93835
G1 X107.167 Y117.657 E16.97376
G1 X106.424 Y117.34 E17.00881
G1 X105.709 Y116.946 E17.04424
G1 X105.088 Y116.522 E17.07692
G1 X104.465 Y116.002 E17.11212
G1 X103.912 Y115.44 E17.14636
G1 X103.401 Y114.807 E17.18168
