; HEADER_BLOCK_START
; generated by AnycubicSlicerNext 1.3.2 on 2025-02-22 at 12:08:56
; total layer number: 35
; filament_density: 1.24
; filament_diameter: 1.75
; max_z_height: 7.04
; exclude_object: 0
; model_instances: 1
; HEADER_BLOCK_END

; THUMBNAIL_BLOCK_START

;
; THUMBNAIL_BLOCK_END

; external perimeters extrusion width = 0.42mm
; perimeters extrusion width = 0.45mm
; infill extrusion width = 0.45mm
; solid infill extrusion width = 0.42mm
; top infill extrusion width = 0.42mm
; first layer extrusion width = 0.50mm

; EXECUTABLE_BLOCK_START
M201 X2000 Y2000 Z800 E2000
M203 X300 Y300 Z8 E100
M204 P2000 R2000 T2000
M205 X10.00 Y10.00 Z2.00 E5.00 ; sets the jerk limits, mm/sec
;TYPE:Custom
G90 ; use absolute coordinates
M83 ; extruder relative mode
M104 S220 ; set extruder temp
M140 S60 ; set bed temp
M190 S60 ; wait for bed temp
M109 S220 ; wait for extruder temp
G28                                        ; move X/Y/Z to min endstops
G1 Z0.28                                   ; lift nozzle a bit 
G92 E0 
G1 Y3 F1800                                    ; zero the extruded length 
G1 X60  E25 F500                       ; Extrude 25mm of filament in a 5cm line. 
G92 E0                                     ; zero the extruded length again 
G1 E-2 F500                                ; Retract a little 
G1 X70 F4000                              ; Quickly wipe away from the filament line
M117
G90
G21
M82 ; use absolute distances for extrusion
G92 E0
; filament start gcode
M106 S0
;LAYER_CHANGE
;Z:0.24
;HEIGHT:0.24
; BEFORE_LAYER_CHANGE 0 @ 0.24mm
G1 E-2.5 F6000
G92 E0
; AFTER_LAYER_CHANGE 0 @ 0.24mm
;_SET_FAN_SPEED_CHANGING_LAYER
M204 P500
; printing object "AxisGear15n5mm.stl" id:0 copy 0
M204 T500
G1 X98.254 Y100.656 F18000
G1 Z.24
G1 E2.5 F6000
;TYPE:Brim
;WIDTH:0.5
G1 F3000
G1 X98.645 Y100.284 E2.52341
G1 X99.071 Y99.954 E2.54682
G1 X99.528 Y99.667 E2.57023
G1 X100.2 Y99.352 E2.60244
G1 X100.31 Y99.259 E2.6087
G1 X100.663 Y98.667 E2.63862
G1 X100.987 Y98.242 E2.66182
G1 X101.278 Y97.924 E2.68053
G1 X101.765 Y97.488 E2.7089
G1 X102.211 Y97.171 E2.73265
G1 X102.671 Y96.907 E2.75569
G1 X103.164 Y96.687 E2.77913
G1 X103.568 Y96.549 E2.79766
G1 X104.099 Y96.419 E2.82138
G1 X104.737 Y96.335 E2.84931
G1 X105.38 Y96.33 E2.87723
G1 X105.509 Y96.287 E2.88313
G1 X105.978 Y95.949 E2.90822
G1 X106.452 Y95.679 E2.9319
G1 X106.94 Y95.461 E2.95512
G1 X107.448 Y95.292 E2.97837
G1 X108.085 Y95.155 E3.00664
G1 X108.629 Y95.101 E3.03039
G1 X109.16 Y95.1 E3.05343
G1 X109.697 Y95.153 E3.07682
G1 X110.225 Y95.259 E3.10023
G1 X110.739 Y95.417 E3.12357
G1 X111.331 Y95.675 E3.15156
G1 X111.464 Y95.689 E3.15737
G1 X112.143 Y95.555 E3.18743
G1 X112.567 Y95.516 E3.20589
G1 X113.106 Y95.515 E3.2293
G1 X113.754 Y95.586 E3.25762
G1 X114.178 Y95.675 E3.27641
G1 X114.689 Y95.832 E3.29962
G1 X115.286 Y96.09 E3.32785
G1 X115.658 Y96.297 E3.34633
G1 X116.104 Y96.6 E3.36974
G1 X116.599 Y97.022 E3.39796
G1 X117.033 Y97.497 E3.4259
G1 X117.149 Y97.564 E3.4317
G1 X117.824 Y97.718 E3.46175
G1 X118.227 Y97.855 E3.48023
G1 X118.72 Y98.073 E3.50363
G1 X119.284 Y98.401 E3.53196
G1 X119.629 Y98.651 E3.55045
G1 X120.035 Y99.005 E3.57386
G1 X120.475 Y99.483 E3.60204
G1 X120.793 Y99.913 E3.62526
G1 X121.017 Y100.282 E3.64398
G1 X121.298 Y100.87 E3.67229
G1 X121.502 Y101.481 E3.70023
G1 X121.58 Y101.589 E3.70603
G1 X122.134 Y102.004 E3.73609
G1 X122.446 Y102.293 E3.75456
G1 X122.808 Y102.693 E3.77796
G1 X123.19 Y103.223 E3.80629
G1 X123.403 Y103.591 E3.82476
G1 X123.628 Y104.073 E3.84785
G1 X123.839 Y104.698 E3.87648
G1 X123.935 Y105.113 E3.895
G1 X124.008 Y105.648 E3.9184
G1 X124.025 Y106.297 E3.94662
G1 X123.963 Y106.938 E3.97456
G1 X123.991 Y107.069 E3.98037
G1 X124.328 Y107.673 E4.01042
G1 X124.496 Y108.064 E4.02889
G1 X124.663 Y108.577 E4.0523
G1 X124.797 Y109.215 E4.08057
G1 X124.848 Y109.751 E4.10398
G1 X124.851 Y110.177 E4.12247
G1 X124.79 Y110.828 E4.15084
G1 X124.709 Y111.246 E4.16933
G1 X124.558 Y111.764 E4.19274
G1 X124.311 Y112.362 E4.22086
G1 X123.992 Y112.924 E4.24888
G1 X123.964 Y113.055 E4.25469
G1 X124.026 Y113.738 E4.28448
G1 X124.021 Y114.169 E4.30318
G1 X123.966 Y114.707 E4.32663
G1 X123.828 Y115.344 E4.35496
G1 X123.697 Y115.75 E4.37345
G1 X123.486 Y116.246 E4.39685
G1 X123.166 Y116.814 E4.42513
G1 X122.852 Y117.252 E4.44854
G1 X122.574 Y117.574 E4.46703
G1 X122.102 Y118.023 E4.49529
G1 X121.584 Y118.405 E4.52323
G1 X121.505 Y118.513 E4.52903
G1 X121.282 Y119.169 E4.55909
G1 X121.104 Y119.555 E4.57756
G1 X120.835 Y120.022 E4.60097
G1 X120.45 Y120.548 E4.62924
G1 X120.086 Y120.946 E4.65265
G1 X119.771 Y121.233 E4.67113
G1 X119.24 Y121.627 E4.69984
G1 X118.782 Y121.895 E4.72289
G1 X118.397 Y122.076 E4.74136
G1 X117.783 Y122.294 E4.76962
G1 X117.155 Y122.433 E4.79756
G1 X117.039 Y122.499 E4.80336
G1 X116.568 Y123.007 E4.83342
G1 X116.248 Y123.288 E4.85189
G1 X115.813 Y123.605 E4.8753
G1 X115.247 Y123.929 E4.90357
G1 X114.753 Y124.144 E4.92698
G1 X114.349 Y124.278 E4.94547
G1 X113.711 Y124.422 E4.97384
G1 X113.288 Y124.473 E4.99233
G1 X112.749 Y124.49 E5.01574
G1 X112.101 Y124.439 E5.04395
G1 X111.47 Y124.311 E5.07191
G1 X111.335 Y124.325 E5.07781
G1 X110.807 Y124.558 E5.10283
G1 X110.185 Y124.751 E5.13114
G1 X109.767 Y124.836 E5.14963
G1 X109.23 Y124.896 E5.17308
G1 X108.684 Y124.902 E5.19679
G1 X108.152 Y124.854 E5.22
G1 X107.625 Y124.754 E5.24325
G1 X107.001 Y124.563 E5.27158
G1 X106.609 Y124.398 E5.29007
G1 X106.131 Y124.145 E5.31352
G1 X105.522 Y123.721 E5.34574
G1 X105.384 Y123.672 E5.3521
G1 X104.807 Y123.67 E5.37714
G1 X104.161 Y123.593 E5.40539
G1 X103.636 Y123.471 E5.4288
G1 X103.231 Y123.338 E5.44729
G1 X102.634 Y123.073 E5.47566
G1 X102.263 Y122.863 E5.49415
G1 X101.82 Y122.555 E5.51756
G1 X101.328 Y122.127 E5.54588
G1 X101.037 Y121.816 E5.56437
G1 X100.703 Y121.391 E5.58783
G1 X100.32 Y120.756 E5.62004
G1 X100.213 Y120.655 E5.6264
G1 X99.687 Y120.419 E5.65144
G1 X99.127 Y120.085 E5.67974
G1 X98.785 Y119.832 E5.69823
G1 X98.381 Y119.474 E5.72164
G1 X97.944 Y118.989 E5.74996
G1 X97.691 Y118.646 E5.76845
G1 X97.412 Y118.185 E5.79186
G1 X97.137 Y117.594 E5.82018
G1 X96.996 Y117.191 E5.83867
G1 X96.865 Y116.668 E5.86211
G1 X96.773 Y115.931 E5.89434
G1 X96.717 Y115.796 E5.90069
G1 X96.333 Y115.366 E5.92573
G1 X95.959 Y114.838 E5.95378
G1 X95.747 Y114.463 E5.97249
G1 X95.524 Y113.971 E5.99594
G1 X95.321 Y113.352 E6.02422
G1 X95.211 Y112.824 E6.04763
G1 X95.162 Y112.401 E6.06612
G1 X95.151 Y111.748 E6.09449
G1 X95.187 Y111.323 E6.11298
G1 X95.279 Y110.791 E6.13644
G1 X95.495 Y110.081 E6.16865
G1 X95.499 Y109.934 E6.17501
G1 X95.322 Y109.384 E6.20009
G1 X95.212 Y108.857 E6.22348
G1 X95.155 Y108.32 E6.24689
G1 X95.151 Y107.781 E6.2703
G1 X95.201 Y107.244 E6.29371
G1 X95.304 Y106.716 E6.31706
G1 X95.498 Y106.094 E6.34534
G1 X95.714 Y105.601 E6.3687
G1 X95.978 Y105.131 E6.3921
G1 X96.287 Y104.691 E6.41545
G1 X96.715 Y104.209 E6.44344
G1 X96.77 Y104.084 E6.44934
G1 X96.833 Y103.51 E6.47443
G1 X96.946 Y102.983 E6.49782
G1 X97.112 Y102.47 E6.52123
G1 X97.328 Y101.976 E6.54463
G1 X97.592 Y101.506 E6.56804
G1 X97.902 Y101.064 E6.59145
G1 X98.228 Y100.686 E6.61312
G1 X98.568 Y100.978 F18000
G1 F3000
G1 X98.575 Y100.971 E6.61357
G1 X98.933 Y100.63 E6.63503
G1 X99.323 Y100.326 E6.65649
G1 X99.736 Y100.066 E6.67767
G1 X100.378 Y99.764 E6.70847
G1 X100.595 Y99.604 E6.72018
G1 X100.701 Y99.479 E6.72728
G1 X101.04 Y98.913 E6.75594
G1 X101.328 Y98.535 E6.77657
G1 X101.589 Y98.248 E6.7934
G1 X102.051 Y97.835 E6.82033
G1 X102.458 Y97.546 E6.84199
G1 X102.881 Y97.305 E6.86309
G1 X103.323 Y97.107 E6.88414
G1 X103.689 Y96.981 E6.90092
G1 X104.174 Y96.862 E6.92263
G1 X104.76 Y96.784 E6.94825
G1 X105.369 Y96.778 E6.97469
G1 X105.644 Y96.714 E6.98696
G1 X105.78 Y96.645 E6.99357
G1 X106.227 Y96.324 E7.01749
G1 X106.649 Y96.082 E7.03858
G1 X107.096 Y95.882 E7.05986
G1 X107.559 Y95.727 E7.08105
G1 X108.162 Y95.598 E7.10782
G1 X108.659 Y95.549 E7.12947
G1 X109.145 Y95.549 E7.15058
G1 X109.637 Y95.599 E7.17203
G1 X110.121 Y95.697 E7.1935
G1 X110.576 Y95.836 E7.21415
G1 X111.142 Y96.082 E7.24093
G1 X111.287 Y96.12 E7.24742
G1 X111.565 Y96.126 E7.25949
G1 X112.2 Y96.001 E7.2876
G1 X112.581 Y95.965 E7.30422
G1 X113.074 Y95.964 E7.32563
G1 X113.69 Y96.031 E7.35251
G1 X114.071 Y96.112 E7.36941
G1 X114.527 Y96.252 E7.39011
G1 X115.093 Y96.496 E7.4169
G1 X115.428 Y96.683 E7.43352
G1 X115.826 Y96.953 E7.4544
G1 X116.28 Y97.34 E7.4803
G1 X116.695 Y97.792 E7.50696
G1 X116.812 Y97.886 E7.51346
G1 X117.063 Y98.005 E7.52553
G1 X117.695 Y98.148 E7.55363
G1 X118.058 Y98.271 E7.57026
G1 X118.509 Y98.47 E7.59166
G1 X119.044 Y98.782 E7.61855
G1 X119.354 Y99.007 E7.63517
G1 X119.717 Y99.323 E7.65605
G1 X120.133 Y99.775 E7.68274
G1 X120.416 Y100.158 E7.70344
G1 X120.618 Y100.49 E7.72028
G1 X120.877 Y101.031 E7.74634
G1 X121.073 Y101.613 E7.77299
G1 X121.141 Y101.746 E7.77949
G1 X121.323 Y101.957 E7.79156
G1 X121.841 Y102.345 E7.81967
G1 X122.123 Y102.605 E7.83629
G1 X122.454 Y102.97 E7.85769
G1 X122.816 Y103.473 E7.88459
G1 X123.007 Y103.804 E7.90119
G1 X123.208 Y104.233 E7.92176
G1 X123.409 Y104.827 E7.94895
G1 X123.494 Y105.2 E7.96559
G1 X123.559 Y105.677 E7.98647
G1 X123.576 Y106.273 E8.01237
G1 X123.518 Y106.885 E8.03903
G1 X123.526 Y107.034 E8.04552
G1 X123.606 Y107.3 E8.05759
G1 X123.922 Y107.866 E8.0857
G1 X124.073 Y108.217 E8.10232
G1 X124.227 Y108.686 E8.12373
G1 X124.353 Y109.29 E8.1505
G1 X124.399 Y109.768 E8.17138
G1 X124.402 Y110.151 E8.188
G1 X124.345 Y110.771 E8.21501
G1 X124.271 Y111.146 E8.23162
G1 X124.137 Y111.608 E8.2525
G1 X123.91 Y112.158 E8.27831
G1 X123.607 Y112.694 E8.30504
G1 X123.554 Y112.834 E8.31155
G1 X123.519 Y113.11 E8.32363
G1 X123.577 Y113.749 E8.35148
G1 X123.573 Y114.137 E8.36832
G1 X123.523 Y114.629 E8.38977
G1 X123.392 Y115.234 E8.41666
G1 X123.274 Y115.598 E8.43327
G1 X123.085 Y116.041 E8.45415
G1 X122.783 Y116.578 E8.48093
G1 X122.503 Y116.969 E8.5018
G1 X122.253 Y117.26 E8.51842
G1 X121.819 Y117.673 E8.54444
G1 X121.326 Y118.039 E8.5711
G1 X121.22 Y118.145 E8.57759
G1 X121.076 Y118.382 E8.58966
G1 X120.867 Y118.995 E8.61777
G1 X120.707 Y119.343 E8.6344
G1 X120.462 Y119.771 E8.6558
G1 X120.098 Y120.269 E8.68257
G1 X119.773 Y120.623 E8.70345
G1 X119.491 Y120.882 E8.72005
G1 X118.986 Y121.256 E8.74733
G1 X118.578 Y121.495 E8.76785
G1 X118.232 Y121.658 E8.78445
G1 X117.667 Y121.859 E8.81047
G1 X117.068 Y121.993 E8.83713
G1 X116.929 Y122.047 E8.84363
G1 X116.7 Y122.205 E8.8557
G1 X116.26 Y122.68 E8.8838
G1 X115.972 Y122.933 E8.90043
G1 X115.574 Y123.224 E8.92183
G1 X115.039 Y123.531 E8.94861
G1 X114.598 Y123.722 E8.96949
G1 X114.235 Y123.844 E8.9861
G1 X113.628 Y123.98 E9.01311
G1 X113.248 Y124.026 E9.02972
G1 X112.767 Y124.041 E9.0506
G1 X112.172 Y123.995 E9.07651
G1 X111.574 Y123.874 E9.10298
G1 X111.292 Y123.88 E9.11525
G1 X111.145 Y123.919 E9.12186
G1 X110.643 Y124.139 E9.14565
G1 X110.066 Y124.317 E9.17182
G1 X109.691 Y124.393 E9.18844
G1 X109.21 Y124.447 E9.20948
G1 X108.708 Y124.453 E9.23124
G1 X108.22 Y124.41 E9.25252
G1 X107.741 Y124.32 E9.2737
G1 X107.148 Y124.138 E9.3006
G1 X106.795 Y123.989 E9.31721
G1 X106.373 Y123.766 E9.33799
G1 X105.79 Y123.36 E9.36878
G1 X105.538 Y123.252 E9.38069
G1 X105.375 Y123.224 E9.3879
G1 X104.827 Y123.221 E9.41166
G1 X104.231 Y123.149 E9.43772
G1 X103.763 Y123.04 E9.4586
G1 X103.399 Y122.921 E9.47521
G1 X102.83 Y122.669 E9.50222
G1 X102.498 Y122.479 E9.51883
G1 X102.102 Y122.205 E9.53972
G1 X101.635 Y121.798 E9.56661
G1 X101.373 Y121.519 E9.58322
G1 X101.078 Y121.142 E9.60399
G1 X100.711 Y120.536 E9.63478
G1 X100.525 Y120.334 E9.6467
G1 X100.387 Y120.242 E9.6539
G1 X99.888 Y120.016 E9.67767
G1 X99.37 Y119.707 E9.70384
G1 X99.063 Y119.479 E9.72046
G1 X98.703 Y119.16 E9.74134
G1 X98.288 Y118.7 E9.76823
G1 X98.061 Y118.391 E9.78485
G1 X97.812 Y117.98 E9.80573
G1 X97.551 Y117.418 E9.83262
G1 X97.425 Y117.057 E9.84923
G1 X97.309 Y116.593 E9.86999
G1 X97.22 Y115.889 E9.90078
G1 X97.132 Y115.629 E9.9127
G1 X97.044 Y115.489 E9.9199
G1 X96.68 Y115.08 E9.94367
G1 X96.335 Y114.592 E9.9696
G1 X96.144 Y114.254 E9.98643
G1 X95.945 Y113.815 E10.00735
G1 X95.754 Y113.229 E10.03413
G1 X95.656 Y112.758 E10.05501
G1 X95.611 Y112.378 E10.07162
G1 X95.6 Y111.756 E10.09863
G1 X95.633 Y111.375 E10.11524
G1 X95.715 Y110.903 E10.13602
G1 X95.92 Y110.224 E10.1668
G1 X95.946 Y109.951 E10.17872
G1 X95.922 Y109.787 E10.18592
G1 X95.755 Y109.262 E10.20981
G1 X95.657 Y108.793 E10.23061
G1 X95.604 Y108.302 E10.25208
G1 X95.6 Y107.807 E10.27354
G1 X95.645 Y107.315 E10.29501
G1 X95.738 Y106.834 E10.31629
G1 X95.922 Y106.245 E10.34306
G1 X96.119 Y105.796 E10.36435
G1 X96.362 Y105.365 E10.38581
G1 X96.636 Y104.976 E10.40646
G1 X97.044 Y104.514 E10.43323
G1 X97.126 Y104.386 E10.43983
G1 X97.217 Y104.118 E10.45211
G1 X97.275 Y103.588 E10.47523
G1 X97.382 Y103.093 E10.49723
G1 X97.53 Y102.635 E10.51811
G1 X97.727 Y102.182 E10.53957
G1 X97.969 Y101.751 E10.56103
G1 X98.252 Y101.346 E10.5825
G1 X98.542 Y101.009 E10.60178
G1 X98.883 Y101.301 F18000
G1 F3000
G1 X98.896 Y101.285 E10.60267
G1 X99.221 Y100.974 E10.62219
G1 X99.575 Y100.698 E10.64171
G1 X99.945 Y100.465 E10.66066
G1 X100.559 Y100.175 E10.69013
G1 X100.857 Y99.968 E10.70588
G1 X101.09 Y99.702 E10.72125
G1 X101.416 Y99.158 E10.74875
G1 X101.669 Y98.827 E10.76685
G1 X101.9 Y98.572 E10.78179
G1 X102.338 Y98.181 E10.80725
G1 X102.706 Y97.921 E10.82681
G1 X103.09 Y97.703 E10.84599
G1 X103.483 Y97.527 E10.86468
G1 X103.81 Y97.414 E10.87971
G1 X104.251 Y97.305 E10.89941
G1 X104.8 Y97.232 E10.92346
G1 X105.361 Y97.227 E10.9478
G1 X105.736 Y97.153 E10.96441
G1 X105.978 Y97.047 E10.97587
G1 X106.466 Y96.705 E11.00174
G1 X106.847 Y96.486 E11.02082
G1 X107.253 Y96.303 E11.04017
G1 X107.671 Y96.163 E11.05927
G1 X108.239 Y96.041 E11.08451
G1 X108.674 Y95.998 E11.10349
G1 X109.116 Y95.998 E11.12266
G1 X109.576 Y96.044 E11.14275
G1 X110.017 Y96.134 E11.16228
G1 X110.426 Y96.26 E11.18087
G1 X111.033 Y96.516 E11.20944
G1 X111.287 Y96.568 E11.2207
G1 X111.664 Y96.564 E11.23707
G1 X112.258 Y96.447 E11.26335
G1 X112.597 Y96.414 E11.27813
G1 X113.043 Y96.412 E11.29751
G1 X113.626 Y96.475 E11.32295
G1 X113.964 Y96.548 E11.33795
G1 X114.364 Y96.671 E11.35615
G1 X114.901 Y96.902 E11.3815
G1 X115.197 Y97.068 E11.39624
G1 X115.547 Y97.306 E11.41462
G1 X115.973 Y97.669 E11.43889
G1 X116.419 Y98.144 E11.46719
G1 X116.63 Y98.295 E11.47846
G1 X116.976 Y98.445 E11.49482
G1 X117.566 Y98.579 E11.5211
G1 X117.889 Y98.687 E11.53588
G1 X118.298 Y98.867 E11.55527
G1 X118.804 Y99.162 E11.58071
G1 X119.079 Y99.362 E11.59544
G1 X119.398 Y99.64 E11.61382
G1 X119.791 Y100.066 E11.639
G1 X120.04 Y100.404 E11.65721
G1 X120.22 Y100.698 E11.67216
G1 X120.463 Y101.207 E11.69664
G1 X120.677 Y101.823 E11.72494
G1 X120.808 Y102.046 E11.73621
G1 X121.064 Y102.323 E11.75257
G1 X121.548 Y102.686 E11.77885
G1 X121.799 Y102.917 E11.79364
G1 X122.099 Y103.247 E11.81302
G1 X122.443 Y103.723 E11.83846
G1 X122.612 Y104.016 E11.85318
G1 X122.788 Y104.394 E11.87126
G1 X122.978 Y104.956 E11.897
G1 X123.053 Y105.287 E11.91174
G1 X123.111 Y105.706 E11.93013
G1 X123.126 Y106.265 E11.9544
G1 X123.071 Y106.915 E11.9827
G1 X123.1 Y107.173 E11.99396
G1 X123.221 Y107.53 E12.01032
G1 X123.516 Y108.058 E12.0366
G1 X123.651 Y108.371 E12.05139
G1 X123.791 Y108.795 E12.07077
G1 X123.91 Y109.364 E12.09603
G1 X123.951 Y109.786 E12.1144
G1 X123.954 Y110.125 E12.12913
G1 X123.899 Y110.713 E12.15476
G1 X123.833 Y111.046 E12.16949
G1 X123.715 Y111.453 E12.18789
G1 X123.502 Y111.967 E12.21205
G1 X123.187 Y112.54 E12.24043
G1 X123.108 Y112.788 E12.25171
G1 X123.073 Y113.163 E12.26809
G1 X123.128 Y113.76 E12.29411
G1 X123.125 Y114.106 E12.30911
G1 X123.08 Y114.551 E12.32853
G1 X122.956 Y115.124 E12.35397
G1 X122.851 Y115.446 E12.36869
G1 X122.685 Y115.836 E12.38706
G1 X122.4 Y116.343 E12.41234
G1 X122.153 Y116.687 E12.43071
G1 X121.932 Y116.945 E12.44545
G1 X121.524 Y117.333 E12.4699
G1 X121.004 Y117.727 E12.4982
G1 X120.832 Y117.921 E12.50947
G1 X120.648 Y118.249 E12.52583
G1 X120.452 Y118.822 E12.55211
G1 X120.311 Y119.132 E12.56689
G1 X120.089 Y119.52 E12.58628
G1 X119.745 Y119.989 E12.61153
G1 X119.459 Y120.301 E12.62991
