; HEADER_BLOCK_START
; generated by AnycubicSlicerNext 1.3.3.1 on 2025-03-11 at 03:36:29
; total layer number: 60
; filament_density: 1.24
; filament_diameter: 1.75
; max_z_height: 12.04
; exclude_object: 0
; model_instances: 1
; HEADER_BLOCK_END

; THUMBNAIL_BLOCK_START
; THUMBNAIL_BLOCK_END

; external perimeters extrusion width = 0.42mm
; perimeters extrusion width = 0.45mm
; infill extrusion width = 0.45mm
; solid infill extrusion width = 0.42mm
; top infill extrusion width = 0.42mm
; support material extrusion width = 0.40mm
; first layer extrusion width = 0.50mm

; EXECUTABLE_BLOCK_START
M201 X2000 Y2000 Z800 E2000
M203 X300 Y300 Z8 E100
M204 P2000 R2000 T2000
M205 X10.00 Y10.00 Z2.00 E5.00 ; sets the jerk limits, mm/sec
;TYPE:Custom
G90 ; use absolute coordinates
M83 ; extruder relative mode
M104 S220 ; set extruder temp
M140 S60 ; set bed temp
M190 S60 ; wait for bed temp
M109 S220 ; wait for extruder temp
G28                                        ; move X/Y/Z to min endstops
G1 Z0.28                                   ; lift nozzle a bit 
G92 E0 
G1 Y3 F1800                                    ; zero the extruded length 
G1 X60  E25 F500                       ; Extrude 25mm of filament in a 5cm line. 
G92 E0                                     ; zero the extruded length again 
G1 E-2 F500                                ; Retract a little 
G1 X70 F4000                              ; Quickly wipe away from the filament line
M117
G90
G21
M83 ; use relative distances for extrusion
; filament start gcode
M106 S0
;LAYER_CHANGE
;Z:0.24
;HEIGHT:0.24
; BEFORE_LAYER_CHANGE 0 @ 0.24mm
G92 E0
G1 E-2.5 F6000
; AFTER_LAYER_CHANGE 0 @ 0.24mm
M204 P500
; printing object "PCB-AssemblingFormerPlate.stl" id:0 copy 0
M204 T500
G1 X41.844 Y97.174 F18000
G1 Z.24
G1 E2.5 F6000
;TYPE:Brim
;WIDTH:0.5
;MM3_PER_MM:0.107639
G1 F3000
G1 X42.551 Y96.947 E.03225
G1 X43.183 Y96.851 E.02772
G1 X43.504 Y96.839 E.01397
G1 X75.492 Y96.839 E1.38853
G1 X76.134 Y96.887 E.02796
G1 X76.752 Y97.028 E.02751
G1 X77.484 Y97.33 E.03436
G1 X78.144 Y97.731 E.03355
G1 X78.625 Y98.142 E.02744
G1 X78.681 Y98.209 E.0038
G1 X78.853 Y98.289 E.00825
G1 X110.492 Y98.289 E1.37339
G1 X111.134 Y98.337 E.02796
G1 X111.756 Y98.479 E.02768
G1 X112.233 Y98.656 E.02208
G1 X112.804 Y98.945 E.02778
G1 X113.232 Y99.248 E.02277
G1 X113.362 Y99.289 E.00591
G1 X145.492 Y99.289 E1.39472
G1 X146.134 Y99.337 E.02796
G1 X146.751 Y99.478 E.02747
G1 X147.542 Y99.811 E.03727
G1 X148.199 Y100.224 E.03369
G1 X148.673 Y100.642 E.0274
G1 X148.763 Y100.755 E.00629
G1 X148.939 Y100.839 E.00845
G1 X163.492 Y100.839 E.63173
G1 X164.134 Y100.887 E.02796
G1 X164.756 Y101.029 E.02768
G1 X165.233 Y101.206 E.02208
G1 X165.804 Y101.495 E.02778
G1 X166.243 Y101.806 E.02336
G1 X166.372 Y101.847 E.00587
G1 X176.51 Y101.889 E.4401
G1 X177.152 Y101.94 E.02796
G1 X177.772 Y102.084 E.02763
G1 X178.326 Y102.299 E.0258
G1 X178.89 Y102.6 E.02774
G1 X179.4 Y102.979 E.02759
G1 X179.848 Y103.43 E.02759
G1 X180.222 Y103.94 E.02745
G1 X180.619 Y104.752 E.03922
G1 X180.804 Y105.355 E.02738
G1 X180.911 Y106.313 E.04184
G1 X180.911 Y113.692 E.32032
G1 X180.863 Y114.334 E.02796
G1 X180.721 Y114.955 E.02763
G1 X180.509 Y115.51 E.0258
G1 X180.21 Y116.075 E.02774
G1 X179.833 Y116.586 E.02759
G1 X179.384 Y117.036 E.02759
G1 X178.875 Y117.413 E.0275
G1 X178.156 Y117.776 E.03495
G1 X177.449 Y118.003 E.03225
G1 X176.817 Y118.099 E.02772
G1 X176.496 Y118.111 E.01398
G1 X166.427 Y118.111 E.43708
G1 X166.299 Y118.15 E.00579
G1 X165.689 Y118.571 E.03216
G1 X165.182 Y118.814 E.02445
G1 X164.577 Y119.022 E.02775
G1 X163.949 Y119.137 E.0277
G1 X163.494 Y119.161 E.01978
G1 X148.952 Y119.161 E.63127
G1 X148.795 Y119.225 E.00735
G1 X148.37 Y119.64 E.02581
G1 X147.661 Y120.124 E.03727
G1 X146.958 Y120.453 E.03369
G1 X146.35 Y120.624 E.0274
G1 X145.489 Y120.711 E.03757
G1 X113.362 Y120.711 E1.39457
G1 X113.216 Y120.765 E.00677
G1 X113.137 Y120.833 E.00453
G1 X112.597 Y121.173 E.02768
G1 X112.134 Y121.384 E.02208
G1 X111.526 Y121.585 E.02778
G1 X110.897 Y121.692 E.02773
G1 X110.495 Y121.711 E.01747
G1 X78.86 Y121.711 E1.37321
G1 X78.708 Y121.77 E.00707
G1 X78.265 Y122.177 E.02615
G1 X77.601 Y122.608 E.03436
G1 X76.896 Y122.925 E.03355
G1 X76.285 Y123.087 E.02744
G1 X75.49 Y123.161 E.03466
G1 X43.508 Y123.161 E1.38826
G1 X42.866 Y123.113 E.02796
G1 X42.245 Y122.971 E.02763
G1 X41.69 Y122.759 E.0258
G1 X41.125 Y122.46 E.02774
G1 X40.614 Y122.083 E.02759
G1 X40.164 Y121.634 E.02759
G1 X39.787 Y121.125 E.0275
G1 X39.424 Y120.406 E.03495
G1 X39.197 Y119.699 E.03225
G1 X39.101 Y119.067 E.02772
G1 X39.089 Y118.746 E.01397
G1 X39.089 Y101.258 E.7591
G1 X39.137 Y100.616 E.02796
G1 X39.279 Y99.995 E.02763
G1 X39.491 Y99.44 E.0258
G1 X39.79 Y98.875 E.02774
G1 X40.167 Y98.364 E.02759
G1 X40.616 Y97.914 E.02759
G1 X41.125 Y97.537 E.0275
G1 X41.808 Y97.192 E.03321
G1 X42.005 Y97.595 F18000
G1 F3000
G1 X42.643 Y97.388 E.02914
G1 X43.217 Y97.3 E.0252
G1 X43.51 Y97.288 E.01273
G1 X75.48 Y97.288 E1.38776
G1 X76.057 Y97.331 E.02512
G1 X76.605 Y97.455 E.02436
G1 X77.271 Y97.727 E.03126
G1 X77.888 Y98.102 E.03133
G1 X78.507 Y98.623 E.03512
G1 X78.65 Y98.689 E.00683
G1 X78.868 Y98.738 E.0097
G1 X110.47 Y98.738 E1.3718
G1 X111.057 Y98.781 E.02556
G1 X111.635 Y98.913 E.02575
G1 X112.06 Y99.071 E.01965
G1 X112.563 Y99.325 E.02447
G1 X112.964 Y99.608 E.0213
G1 X113.1 Y99.676 E.00661
G1 X113.376 Y99.738 E.01229
G1 X145.47 Y99.738 E1.39313
G1 X146.057 Y99.781 E.02556
G1 X146.601 Y99.904 E.02423
G1 X147.324 Y100.206 E.03402
G1 X147.938 Y100.592 E.03146
G1 X148.338 Y100.944 E.02313
G1 X148.403 Y101.023 E.00443
G1 X148.582 Y101.165 E.00995
G1 X148.73 Y101.237 E.00713
G1 X148.954 Y101.288 E.00995
G1 X163.48 Y101.288 E.63056
G1 X164.077 Y101.334 E.02599
G1 X164.635 Y101.463 E.02488
G1 X165.06 Y101.621 E.01965
G1 X165.563 Y101.875 E.02447
G1 X165.975 Y102.166 E.02188
G1 X166.11 Y102.233 E.00657
G1 X166.384 Y102.296 E.0122
G1 X176.486 Y102.338 E.43851
G1 X177.093 Y102.387 E.02642
G1 X177.63 Y102.512 E.02394
G1 X178.146 Y102.711 E.024
G1 X178.657 Y102.986 E.02519
G1 X179.113 Y103.326 E.02468
G1 X179.512 Y103.73 E.02468
G1 X179.842 Y104.184 E.02433
G1 X180.196 Y104.907 E.03497
G1 X180.359 Y105.434 E.02394
G1 X180.462 Y106.345 E.0398
G1 X180.462 Y113.67 E.31796
G1 X180.416 Y114.277 E.02643
G1 X180.293 Y114.815 E.02394
G1 X180.096 Y115.331 E.02401
G1 X179.823 Y115.844 E.02519
G1 X179.485 Y116.3 E.02468
G1 X179.082 Y116.702 E.02468
G1 X178.628 Y117.035 E.02445
G1 X177.995 Y117.355 E.0308
G1 X177.336 Y117.567 E.03007
G1 X176.783 Y117.65 E.02427
G1 X176.485 Y117.662 E.01295
G1 X166.441 Y117.662 E.43597
G1 X166.171 Y117.722 E.01203
G1 X166.037 Y117.787 E.00647
G1 X165.472 Y118.176 E.02974
G1 X165.004 Y118.401 E.02258
G1 X164.453 Y118.588 E.02524
G1 X163.905 Y118.689 E.02419
G1 X163.486 Y118.712 E.01824
G1 X148.965 Y118.712 E.63034
G1 X148.77 Y118.75 E.0086
G1 X148.638 Y118.804 E.00621
G1 X148.472 Y118.913 E.0086
G1 X148.075 Y119.298 E.02404
G1 X147.447 Y119.727 E.033
G1 X146.811 Y120.026 E.03051
G1 X146.254 Y120.183 E.02509
G1 X145.46 Y120.262 E.03467
G1 X113.374 Y120.262 E1.39279
G1 X113.195 Y120.294 E.00791
G1 X113.073 Y120.34 E.00564
G1 X112.391 Y120.772 E.03505
G1 X111.963 Y120.969 E.02044
G1 X111.408 Y121.15 E.02534
G1 X110.856 Y121.244 E.02429
G1 X110.487 Y121.262 E.01604
G1 X78.873 Y121.262 E1.37234
G1 X78.686 Y121.297 E.00826
G1 X78.557 Y121.347 E.00598
G1 X78.396 Y121.448 E.00826
G1 X77.98 Y121.828 E.02446
G1 X77.394 Y122.208 E.03029
G1 X76.755 Y122.496 E.03043
G1 X76.195 Y122.645 E.02518
G1 X75.463 Y122.712 E.03191
G1 X43.52 Y122.712 E1.38658
G1 X42.943 Y122.669 E.02512
G1 X42.385 Y122.543 E.02481
G1 X41.869 Y122.346 E.02401
G1 X41.373 Y122.084 E.02432
G1 X40.9 Y121.735 E.02554
G1 X40.512 Y121.347 E.02381
G1 X40.177 Y120.898 E.02434
G1 X39.845 Y120.245 E.03178
G1 X39.638 Y119.607 E.02914
G1 X39.55 Y119.033 E.0252
G1 X39.538 Y118.74 E.01273
G1 X39.538 Y101.27 E.75833
G1 X39.581 Y100.693 E.02512
G1 X39.707 Y100.135 E.02481
G1 X39.904 Y99.619 E.02401
G1 X40.166 Y99.123 E.02432
G1 X40.515 Y98.65 E.02554
G1 X40.903 Y98.262 E.02381
G1 X41.352 Y97.927 E.02434
G1 X41.969 Y97.613 E.03005
G1 X42.167 Y98.015 F18000
G1 F3000
G1 X42.737 Y97.829 E.02603
G1 X43.253 Y97.748 E.02268
G1 X43.522 Y97.736 E.01168
G1 X75.458 Y97.737 E1.3863
G1 X75.981 Y97.775 E.02275
G1 X76.458 Y97.881 E.02124
G1 X77.059 Y98.125 E.02812
G1 X77.617 Y98.462 E.0283
G1 X78.211 Y98.96 E.03368
G1 X78.322 Y99.031 E.00571
G1 X78.561 Y99.129 E.0112
G1 X78.88 Y99.186 E.01406
G1 X110.448 Y99.186 E1.37034
G1 X111 Y99.228 E.02402
G1 X111.515 Y99.347 E.02294
G1 X111.886 Y99.486 E.0172
G1 X112.323 Y99.706 E.02123
G1 X112.699 Y99.97 E.01993
G1 X112.895 Y100.074 E.00963
G1 X113.008 Y100.114 E.00522
G1 X113.389 Y100.186 E.01684
G1 X145.458 Y100.187 E1.39208
G1 X145.981 Y100.225 E.02275
G1 X146.453 Y100.33 E.021
G1 X147.107 Y100.602 E.03073
G1 X147.66 Y100.946 E.02827
G1 X148.125 Y101.374 E.02746
G1 X148.396 Y101.573 E.01457
G1 X148.639 Y101.676 E.01146
G1 X148.966 Y101.736 E.01442
G1 X163.468 Y101.737 E.6295
G1 X163.999 Y101.778 E.02312
G1 X164.514 Y101.896 E.02296
G1 X164.886 Y102.036 E.01723
G1 X165.323 Y102.256 E.02122
G1 X165.71 Y102.528 E.02052
G1 X165.904 Y102.631 E.00957
G1 X166.017 Y102.672 E.00518
G1 X166.395 Y102.744 E.01673
G1 X176.462 Y102.786 E.437
G1 X177.034 Y102.833 E.02489
G1 X177.507 Y102.945 E.02111
G1 X177.966 Y103.123 E.02137
G1 X178.424 Y103.371 E.0226
G1 X178.824 Y103.672 E.02176
G1 X179.175 Y104.03 E.02175
G1 X179.461 Y104.426 E.02122
G1 X179.773 Y105.064 E.0308
G1 X179.914 Y105.514 E.0205
G1 X180.014 Y106.378 E.03773
G1 X180.014 Y113.647 E.31556
G1 X179.969 Y114.219 E.02489
G1 X179.859 Y114.693 E.0211
G1 X179.683 Y115.152 E.02137
G1 X179.437 Y115.612 E.0226
G1 X179.137 Y116.013 E.02176
G1 X178.781 Y116.366 E.02175
G1 X178.383 Y116.657 E.02141
G1 X177.814 Y116.942 E.02762
G1 X177.222 Y117.13 E.02696
G1 X176.747 Y117.202 E.02085
G1 X176.473 Y117.214 E.01192
G1 X166.454 Y117.214 E.43492
G1 X166.08 Y117.283 E.01648
G1 X165.969 Y117.321 E.0051
G1 X165.775 Y117.422 E.00949
G1 X165.255 Y117.781 E.02742
G1 X164.826 Y117.988 E.02069
G1 X164.33 Y118.155 E.0227
G1 X163.86 Y118.241 E.02074
G1 X163.477 Y118.263 E.01667
G1 X148.975 Y118.264 E.62949
G1 X148.695 Y118.309 E.01234
G1 X148.383 Y118.436 E.01461
G1 X148.152 Y118.598 E.01226
G1 X147.78 Y118.956 E.02241
G1 X147.232 Y119.33 E.02882
G1 X146.663 Y119.6 E.02732
G1 X146.159 Y119.742 E.02275
G1 X145.431 Y119.814 E.03177
G1 X113.384 Y119.814 E1.3911
G1 X113.123 Y119.852 E.01146
G1 X112.927 Y119.916 E.00893
G1 X112.182 Y120.373 E.03793
G1 X111.792 Y120.553 E.01865
G1 X111.291 Y120.715 E.02288
G1 X110.815 Y120.796 E.02093
G1 X110.48 Y120.813 E.0146
G1 X78.883 Y120.814 E1.37156
G1 X78.613 Y120.855 E.01185
G1 X78.312 Y120.973 E.01404
G1 X78.086 Y121.124 E.01178
G1 X77.695 Y121.478 E.0229
G1 X77.187 Y121.807 E.02628
G1 X76.615 Y122.068 E.0273
G1 X76.105 Y122.203 E.0229
G1 X75.436 Y122.264 E.02916
G1 X43.532 Y122.263 E1.38491
G1 X43.019 Y122.225 E.02232
G1 X42.525 Y122.115 E.02198
G1 X42.062 Y121.939 E.02149
G1 X41.621 Y121.708 E.0216
G1 X41.186 Y121.387 E.0235
G1 X40.846 Y121.045 E.02091
G1 X40.566 Y120.67 E.02034
G1 X40.265 Y120.083 E.02862
G1 X40.079 Y119.513 E.02603
G1 X39.998 Y118.997 E.02268
G1 X39.986 Y118.733 E.01144
G1 X39.987 Y101.282 E.75755
G1 X40.025 Y100.769 E.02231
G1 X40.135 Y100.275 E.02198
G1 X40.311 Y99.812 E.02149
G1 X40.542 Y99.371 E.0216
G1 X40.863 Y98.936 E.0235
G1 X41.205 Y98.596 E.02091
G1 X41.58 Y98.316 E.02034
G1 X42.131 Y98.034 E.02688
G1 X42.331 Y98.436 F18000
G1 F3000
G1 X42.832 Y98.27 E.02293
G1 X43.291 Y98.196 E.02016
G1 X43.535 Y98.185 E.01061
G1 X75.437 Y98.185 E1.38481
G1 X75.906 Y98.22 E.02042
G1 X76.314 Y98.309 E.01813
G1 X76.847 Y98.523 E.02498
G1 X77.363 Y98.835 E.02616
G1 X77.918 Y99.299 E.03141
G1 X78.072 Y99.403 E.00804
G1 X78.493 Y99.572 E.01972
G1 X78.89 Y99.635 E.01746
G1 X110.426 Y99.635 E1.36892
G1 X110.922 Y99.672 E.02161
G1 X111.394 Y99.78 E.021
G1 X111.712 Y99.901 E.01477
G1 X112.083 Y100.088 E.01805
G1 X112.435 Y100.332 E.01858
G1 X112.751 Y100.499 E.01553
G1 X112.932 Y100.556 E.0082
G1 X113.4 Y100.635 E.02063
G1 X145.447 Y100.636 E1.39109
G1 X145.906 Y100.67 E.01998
G1 X146.306 Y100.757 E.01779
G1 X146.891 Y100.997 E.02745
G1 X147.376 Y101.298 E.02478
G1 X147.864 Y101.739 E.02854
G1 X148.232 Y101.99 E.01934
G1 X148.568 Y102.118 E.0156
G1 X148.977 Y102.185 E.01798
G1 X163.456 Y102.186 E.6285
G1 X163.941 Y102.225 E.02113
G1 X164.393 Y102.33 E.02016
G1 X164.712 Y102.451 E.0148
G1 X165.083 Y102.638 E.01804
G1 X165.446 Y102.89 E.01917
G1 X165.76 Y103.056 E.01543
G1 X165.939 Y103.113 E.00815
G1 X166.404 Y103.193 E.02049
G1 X176.437 Y103.234 E.43553
G1 X176.953 Y103.277 E.02247
G1 X177.382 Y103.377 E.01913
G1 X177.784 Y103.535 E.01874
G1 X178.189 Y103.756 E.02001
G1 X178.535 Y104.018 E.01884
G1 X178.838 Y104.328 E.01882
G1 X179.08 Y104.668 E.01813
G1 X179.351 Y105.221 E.02673
G1 X179.47 Y105.596 E.01707
G1 X179.565 Y106.412 E.03565
G1 X179.565 Y113.625 E.31311
G1 X179.525 Y114.141 E.02248
G1 X179.426 Y114.57 E.01913
G1 X179.27 Y114.973 E.01875
G1 X179.051 Y115.378 E.02
G1 X178.791 Y115.725 E.01884
G1 X178.482 Y116.03 E.01882
G1 X178.139 Y116.277 E.01837
G1 X177.635 Y116.529 E.02445
G1 X177.11 Y116.693 E.02388
G1 X176.691 Y116.755 E.01837
G1 X166.465 Y116.765 E.44392
G1 X166.008 Y116.84 E.02011
G1 X165.754 Y116.928 E.01165
G1 X165.515 Y117.057 E.0118
G1 X165.038 Y117.386 E.02516
G1 X164.648 Y117.575 E.01878
G1 X164.208 Y117.721 E.02013
G1 X163.815 Y117.793 E.01736
G1 X163.468 Y117.815 E.0151
G1 X148.897 Y117.823 E.63251
G1 X148.516 Y117.898 E.01686
G1 X148.115 Y118.076 E.01904
G1 X147.835 Y118.281 E.01507
G1 X147.487 Y118.613 E.02087
G1 X147.017 Y118.934 E.02471
G1 X146.516 Y119.174 E.02411
G1 X146.064 Y119.301 E.02038
G1 X145.402 Y119.365 E.02887
G1 X113.392 Y119.365 E1.38948
G1 X113.066 Y119.407 E.01429
G1 X112.793 Y119.488 E.01234
G1 X111.978 Y119.973 E.0412
G1 X111.621 Y120.137 E.01702
G1 X111.174 Y120.28 E.02039
G1 X110.774 Y120.348 E.01763
G1 X110.471 Y120.365 E.01314
G1 X78.894 Y120.365 E1.37071
G1 X78.439 Y120.442 E.02002
G1 X78.053 Y120.606 E.01825
G1 X77.778 Y120.797 E.0145
G1 X77.412 Y121.127 E.02142
G1 X76.962 Y121.417 E.02323
G1 X76.474 Y121.639 E.02328
G1 X76.015 Y121.761 E.02059
G1 X75.409 Y121.815 E.0264
G1 X43.544 Y121.814 E1.38325
G1 X43.095 Y121.78 E.01955
G1 X42.663 Y121.686 E.01918
G1 X42.254 Y121.533 E.01897
G1 X41.869 Y121.331 E.01885
G1 X41.472 Y121.039 E.02141
G1 X41.193 Y120.759 E.01715
G1 X40.955 Y120.441 E.01725
G1 X40.686 Y119.919 E.02547
G1 X40.52 Y119.418 E.02293
G1 X40.446 Y118.959 E.02016
G1 X40.435 Y118.727 E.01012
G1 X40.436 Y101.294 E.75674
G1 X40.47 Y100.845 E.01955
G1 X40.564 Y100.413 E.01918
G1 X40.717 Y100.004 E.01897
G1 X40.919 Y99.619 E.01885
G1 X41.211 Y99.222 E.02141
G1 X41.491 Y98.943 E.01715
G1 X41.809 Y98.705 E.01725
G1 X42.295 Y98.454 E.02373
G1 X42.495 Y98.855 F18000
G1 F3000
G1 X42.929 Y98.711 E.01983
G1 X43.329 Y98.644 E.01763
G1 X43.548 Y98.633 E.00952
G1 X75.415 Y98.634 E1.3833
G1 X75.831 Y98.664 E.01812
G1 X76.17 Y98.736 E.01503
G1 X76.637 Y98.922 E.0218
G1 X77.093 Y99.195 E.02309
G1 X77.623 Y99.637 E.02996
G1 X77.915 Y99.823 E.015
G1 X78.435 Y100.017 E.02411
G1 X78.9 Y100.083 E.02038
G1 X110.404 Y100.083 E1.36755
G1 X110.845 Y100.116 E.01919
G1 X111.272 Y100.214 E.01903
G1 X111.537 Y100.315 E.01231
G1 X111.845 Y100.47 E.01494
G1 X112.232 Y100.732 E.02029
G1 X112.624 Y100.929 E.01906
G1 X112.865 Y101 E.01088
G1 X113.41 Y101.083 E.02397
G1 X145.435 Y101.084 E1.39014
G1 X145.831 Y101.114 E.01726
G1 X146.16 Y101.184 E.0146
G1 X146.676 Y101.394 E.02416
G1 X147.095 Y101.652 E.02137
G1 X147.557 Y102.066 E.02694
G1 X147.969 Y102.353 E.02178
G1 X148.399 Y102.533 E.02025
G1 X148.896 Y102.626 E.02194
G1 X163.432 Y102.634 E.63101
G1 X163.862 Y102.669 E.01871
G1 X164.271 Y102.763 E.01823
G1 X164.537 Y102.865 E.01238
G1 X164.845 Y103.02 E.01493
G1 X165.242 Y103.29 E.02086
G1 X165.632 Y103.486 E.01894
G1 X165.871 Y103.556 E.01081
G1 X166.413 Y103.641 E.02382
G1 X176.413 Y103.683 E.4341
G1 X176.873 Y103.72 E.02006
G1 X177.239 Y103.805 E.01629
