; HEADER_BLOCK_START
; generated by AnycubicSlicerNext 1.3.5.5 on 2025-07-13 at 17:47:02
; total layer number: 85
; filament_density: 1.24
; filament_diameter: 1.75
; max_z_height: 17.04
; exclude_object: 0
; model_instances: 1
; source_info: {"models":[{"file_source":0,"mo_file_id":-1,"name":"Rail.stl_id_0_copy_0"}],"models_from":0,"plate_index":1,"slice_paras_process":1,"software_version":"AnycubicSlicerNext 1.3.5.5 20250625193040"}
; HEADER_BLOCK_END

; THUMBNAIL_BLOCK_START
; THUMBNAIL_BLOCK_END

; external perimeters extrusion width = 0.42mm
; perimeters extrusion width = 0.45mm
; infill extrusion width = 0.45mm
; solid infill extrusion width = 0.42mm
; top infill extrusion width = 0.42mm
; support material extrusion width = 0.40mm
; first layer extrusion width = 0.50mm

; EXECUTABLE_BLOCK_START
M201 X2000 Y2000 Z800 E2000 ; sets machine_max_acceleration_x, y, z, e (mm/sec^2)
M203 X300 Y300 Z8 E100 ; sets machine_max_speed_x, y, z, e (mm/sec)
M204 P2000 R2000 T2000 ; sets machine_max_acceleration(mm/sec^2) M204 P[print] R[retract] T[travel]
M205 X10.00 Y10.00 Z2.00 E5.00 ; sets the jerk limits, mm/sec
;TYPE:Custom
G90 ; use absolute coordinates
M83 ; extruder relative mode
M104 S220 ; set extruder temp
M140 S60 ; set bed temp
M190 S60 ; wait for bed temp
M109 S220 ; wait for extruder temp
G28                                        ; move X/Y/Z to min endstops
G1 Z0.28                                   ; lift nozzle a bit 
G92 E0 
G1 Y3 F1800                                    ; zero the extruded length 
G1 X60  E25 F500                       ; Extrude 25mm of filament in a 5cm line. 
G92 E0                                     ; zero the extruded length again 
G1 E-2 F500                                ; Retract a little 
G1 X70 F4000                              ; Quickly wipe away from the filament line
M117
G90
G21
M83 ; use relative distances for extrusion
; filament start gcode
M106 S0
;LAYER_CHANGE
;Z:0.24
;HEIGHT:0.24
; BEFORE_LAYER_CHANGE 0 @ 0.24mm
G92 E0
G1 E-2.5 F6000
; AFTER_LAYER_CHANGE 0 @ 0.24mm
M204 P500
; printing object "Rail.stl" id:0 copy 0
G1 X115.236 Y50.086 F18000
G1 Z.24
G1 E2.5 F6000
;TYPE:Support
;WIDTH:0.5
G1 F1200
G1 X115.666 Y50.156 E.0189
G1 X116.507 Y50.491 E.03929
G1 X117.256 Y50.999 E.03929
G1 X117.709 Y51.477 E.02858
G1 X117.891 Y51.336 E.01001
G1 X118.347 Y51.047 E.02344
G1 X119.162 Y50.752 E.0376
G1 X120.029 Y50.674 E.03777
G1 X120.451 Y50.731 E.01851
G1 X120.962 Y50.828 E.02255
G1 X121.763 Y51.188 E.03812
G1 X122.273 Y51.6 E.02847
G1 X96.553 Y51.6 E1.11646
G1 X96.934 Y51.18 E.02461
G1 X97.686 Y50.66 E.03967
G1 X98.536 Y50.325 E.03968
G1 X99.419 Y50.194 E.03876
G1 X99.93 Y50.224 E.02221
G1 X100.377 Y50.274 E.01951
G1 X101.222 Y50.546 E.03853
G1 X102.173 Y51.116 E.04813
G1 X102.624 Y50.733 E.02572
G1 X103.422 Y50.31 E.03921
G1 X104.293 Y50.068 E.03921
G1 X105.195 Y50.019 E.03921
G1 X106.086 Y50.165 E.03921
G1 X106.925 Y50.5 E.03921
G1 X107.225 Y50.703 E.01573
G1 X107.589 Y50.474 E.01867
G1 X108.46 Y50.168 E.04009
G1 X109.378 Y50.064 E.04008
G1 X110.297 Y50.167 E.04015
G1 X111.169 Y50.472 E.04009
G1 X111.931 Y50.951 E.03909
G1 X112.197 Y50.725 E.01512
G1 X112.997 Y50.301 E.03929
G1 X113.869 Y50.059 E.03929
G1 X114.773 Y50.01 E.03929
G1 X115.17 Y50.075 E.01747
G1 E-1.75 F6000
;WIPE_START
G1 F1200
G1 X114.773 Y50.01 E-.30182
G1 X114.176 Y50.042 E-.44818
;WIPE_END
G1 X120.465 Y51.398 F18000
G1 E2.5 F6000
G1 F1200
G1 X120.465 Y51.144 E.01102
G1 X120.02 Y51.08 E.01952
G1 X119.967 Y51.085 E.00232
G1 X119.967 Y51.196 E.00484
G1 X119.468 Y51.196 E.02163
G1 X119.468 Y50.927 E.01168
G1 X116.478 Y51.398 F18000
G1 F1200
G1 X116.478 Y50.96 E.01904
G1 X116.317 Y50.85 E.00846
G1 X115.98 Y50.716 E.01574
G1 X115.98 Y51.196 E.02085
G1 X115.482 Y51.196 E.02163
G1 X115.482 Y50.535 E.0287
G1 X114.983 Y50.453 E.02192
G1 X114.983 Y51.196 E.03225
G1 X114.485 Y51.196 E.02163
G1 X114.485 Y50.43 E.03328
G1 X113.987 Y50.457 E.02166
G1 X113.987 Y51.196 E.0321
G1 X113.488 Y51.196 E.02163
G1 X113.488 Y50.584 E.0266
G1 X113.147 Y50.678 E.01537
G1 X112.99 Y50.762 E.00772
G1 X112.99 Y51.196 E.01887
G1 X112.492 Y51.196 E.02163
G1 X112.492 Y50.797 E.01732
G1 X111.495 Y51.398 F18000
G1 F1200
G1 X111.495 Y51.153 E.01063
G1 X110.997 Y50.84 E.02554
G1 X110.997 Y51.196 E.01545
G1 X110.498 Y51.196 E.02163
G1 X110.498 Y50.665 E.02305
G1 X110.207 Y50.563 E.01341
G1 X110 Y50.54 E.00903
G1 X110 Y51.196 E.02849
G1 X109.502 Y51.196 E.02163
G1 X109.502 Y50.484 E.03091
G1 X109.378 Y50.471 E.00539
G1 X109.003 Y50.513 E.01638
G1 X109.003 Y51.196 E.02966
G1 X108.505 Y51.196 E.02163
G1 X108.505 Y50.58 E.02673
G1 X108.007 Y50.755 E.02292
G1 X108.007 Y51.196 E.01915
G1 X107.508 Y51.196 E.02163
G1 X107.508 Y51.002 E.00846
G1 X107.217 Y51.185 E.01496
G1 X107.01 Y51.045 E.01084
G1 X107.01 Y51.196 E.00657
G1 X106.512 Y51.196 E.02163
G1 X106.512 Y50.769 E.01853
G1 X106.013 Y50.571 E.02329
G1 X106.013 Y51.196 E.02715
G1 X105.515 Y51.196 E.02163
G1 X105.515 Y50.481 E.03106
G1 X105.173 Y50.425 E.01507
G1 X105.017 Y50.433 E.00677
G1 X105.017 Y51.196 E.03313
G1 X104.518 Y51.196 E.02163
G1 X104.518 Y50.46 E.03196
G1 X104.358 Y50.469 E.00696
G1 X104.02 Y50.563 E.01524
G1 X104.02 Y51.196 E.02751
G1 X103.522 Y51.196 E.02163
G1 X103.522 Y50.714 E.02094
G1 X103.023 Y50.978 E.02448
G1 X103.023 Y51.398 E.01824
G1 X101.03 Y51.398 F18000
G1 F1200
G1 X101.03 Y50.908 E.02126
G1 X100.532 Y50.748 E.02272
G1 X100.532 Y51.196 E.01946
G1 X100.033 Y51.196 E.02163
G1 X100.033 Y50.642 E.02407
G1 X99.535 Y50.605 E.02169
G1 X99.535 Y51.196 E.02566
G1 X99.037 Y51.196 E.02163
G1 X99.037 Y50.659 E.02333
G1 X98.641 Y50.717 E.01736
G1 X98.538 Y50.758 E.0048
G1 X98.538 Y51.196 E.01903
G1 X98.04 Y51.196 E.02163
G1 X98.04 Y50.738 E.01991
G1 E-1.75 F6000
;WIPE_START
G1 F1200
G1 X98.04 Y51.196 E-.34407
G1 X98.538 Y51.196 E-.37375
G1 X98.538 Y51.153 E-.03218
;WIPE_END
G1 X123.768 Y169.018 F18000
G1 E2.5 F6000
G1 F1200
G1 X122.99 Y169.507 E.03988
G1 X122.123 Y169.81 E.03988
G1 X121.21 Y169.913 E.03988
G1 X120.297 Y169.81 E.03988
G1 X119.429 Y169.507 E.03988
G1 X118.857 Y169.147 E.02934
G1 X118.253 Y169.527 E.03098
G1 X117.381 Y169.832 E.0401
G1 X116.463 Y169.935 E.0401
G1 X115.545 Y169.832 E.0401
G1 X114.673 Y169.527 E.0401
G1 X113.855 Y169.013 E.0419
G1 X113.125 Y169.509 E.0383
G1 X112.284 Y169.844 E.03929
G1 X111.391 Y169.99 E.03929
G1 X110.487 Y169.941 E.03929
G1 X109.615 Y169.699 E.03929
G1 X109.254 Y169.508 E.01771
G1 X108.409 Y169.824 E.03917
G1 X107.507 Y169.95 E.03954
G1 X106.599 Y169.875 E.03954
G1 X105.73 Y169.604 E.03953
G1 X105.352 Y169.386 E.01896
G1 X105.182 Y169.5 E.00888
G1 X104.343 Y169.835 E.03921
G1 X103.452 Y169.981 E.03921
G1 X102.55 Y169.932 E.03921
G1 X101.68 Y169.69 E.03921
G1 X100.883 Y169.268 E.03917
G1 X100.502 Y169.507 E.01952
G1 X99.635 Y169.81 E.03988
G1 X98.721 Y169.913 E.03988
G1 X97.808 Y169.81 E.03988
G1 X96.941 Y169.507 E.03988
G1 X96.163 Y169.018 E.03988
G1 X95.545 Y168.4 E.03794
G1 X124.386 Y168.4 E1.25194
G1 X123.816 Y168.97 E.03502
G1 X122.957 Y169.29 F18000
G1 F1200
G1 X122.957 Y168.804 E.02109
G1 X122.458 Y168.804 E.02163
G1 X122.458 Y169.265 E.02004
G1 X122.032 Y169.414 E.01958
G1 X121.96 Y169.422 E.00317
G1 X121.96 Y168.804 E.02686
G1 X121.462 Y168.804 E.02163
G1 X121.462 Y169.479 E.0293
G1 X121.21 Y169.507 E.011
G1 X120.963 Y169.479 E.01077
G1 X120.963 Y168.804 E.02933
G1 X120.465 Y168.804 E.02163
G1 X120.465 Y169.423 E.02689
G1 X120.387 Y169.414 E.0034
G1 X119.967 Y169.267 E.01934
G1 X119.967 Y168.804 E.02012
G1 X119.468 Y168.804 E.02163
G1 X119.468 Y169.293 E.02124
G1 X118.472 Y169.151 F18000
G1 F1200
G1 X118.472 Y168.804 E.01508
G1 X117.973 Y168.804 E.02163
G1 X117.973 Y169.197 E.01708
G1 X117.475 Y169.371 E.02292
G1 X117.475 Y168.804 E.02465
G1 X116.977 Y168.804 E.02163
G1 X116.977 Y169.471 E.02899
G1 X116.478 Y169.528 E.02177
G1 X116.478 Y168.804 E.03142
G1 X115.98 Y168.804 E.02163
G1 X115.98 Y169.475 E.02914
G1 X115.635 Y169.436 E.01506
G1 X115.482 Y169.382 E.00706
G1 X115.482 Y168.804 E.02512
G1 X114.983 Y168.804 E.02163
G1 X114.983 Y169.208 E.01755
G1 X114.849 Y169.161 E.00618
G1 X114.485 Y168.932 E.01866
G1 X114.485 Y168.602 E.01434
G1 X112.99 Y169.345 F18000
G1 F1200
G1 X112.99 Y168.804 E.02351
G1 X112.492 Y168.804 E.02163
G1 X112.492 Y169.326 E.02269
G1 X112.176 Y169.452 E.01477
G1 X111.993 Y169.482 E.00802
G1 X111.993 Y168.804 E.02946
G1 X111.495 Y168.804 E.02163
G1 X111.495 Y169.564 E.033
G1 X111.369 Y169.585 E.00555
G1 X110.997 Y169.564 E.01618
G1 X110.997 Y168.804 E.03303
G1 X110.498 Y168.804 E.02163
G1 X110.498 Y169.525 E.03132
G1 X110 Y169.387 E.02245
G1 X110 Y168.804 E.02532
G1 X109.502 Y168.804 E.02163
G1 X109.502 Y169.182 E.01643
G1 X109.283 Y169.066 E.01075
G1 X109.003 Y169.171 E.01296
G1 X109.003 Y168.804 E.01594
G1 X108.505 Y168.804 E.02163
G1 X108.505 Y169.358 E.02404
G1 X108.309 Y169.431 E.00907
G1 X108.007 Y169.473 E.01327
G1 X108.007 Y168.804 E.02905
G1 X107.508 Y168.804 E.02163
G1 X107.508 Y169.542 E.03206
G1 X107.496 Y169.544 E.00055
G1 X107.01 Y169.504 E.02116
G1 X107.01 Y168.804 E.0304
G1 X106.512 Y168.804 E.02163
G1 X106.512 Y169.425 E.02697
G1 X106.013 Y169.269 E.02266
G1 X106.013 Y168.804 E.02022
G1 X105.515 Y168.804 E.02163
G1 X105.515 Y169.014 E.00913
G1 X105.334 Y168.91 E.00906
G1 X105.017 Y169.125 E.01666
G1 X105.017 Y168.804 E.01395
G1 X104.518 Y168.804 E.02163
G1 X104.518 Y169.33 E.02287
G1 X104.235 Y169.443 E.01326
G1 X104.02 Y169.479 E.00944
G1 X104.02 Y168.804 E.0293
G1 X103.522 Y168.804 E.02163
G1 X103.522 Y169.56 E.03285
G1 X103.43 Y169.575 E.00403
G1 X103.023 Y169.553 E.01768
G1 X103.023 Y168.804 E.03254
G1 X102.525 Y168.804 E.02163
G1 X102.525 Y169.506 E.03049
G1 X102.027 Y169.368 E.02245
G1 X102.027 Y168.804 E.02449
G1 X101.528 Y168.804 E.02163
G1 X101.528 Y169.153 E.01517
G1 X101.03 Y168.889 E.02448
G1 X101.03 Y168.602 E.01246
G1 X100.532 Y169.25 F18000
G1 F1200
G1 X100.532 Y168.804 E.01936
G1 X100.033 Y168.804 E.02163
G1 X100.033 Y169.243 E.01908
G1 X99.535 Y169.415 E.02289
G1 X99.535 Y168.804 E.02655
G1 X99.037 Y168.804 E.02163
G1 X99.037 Y169.471 E.02899
G1 X98.721 Y169.507 E.01377
G1 X98.538 Y169.486 E.00799
G1 X98.538 Y168.804 E.02964
G1 X98.04 Y168.804 E.02163
G1 X98.04 Y169.43 E.0272
G1 X97.899 Y169.414 E.00617
G1 X97.542 Y169.289 E.01642
G1 X97.542 Y168.804 E.02108
G1 X97.043 Y168.804 E.02163
G1 X97.043 Y169.329 E.0228
G1 E-1.75 F6000
;WIPE_START
G1 F1200
G1 X97.043 Y168.804 E-.39388
G1 X97.518 Y168.804 E-.35612
;WIPE_END
G1 X97.043 Y167.41 F18000
G1 E2.5 F6000
;TYPE:Brim
G1 F1200
G1 X94.008 Y167.411 E.13172
G1 X93.366 Y167.363 E.02796
G1 X92.745 Y167.221 E.02763
G1 X92.19 Y167.009 E.0258
G1 X91.625 Y166.71 E.02774
G1 X91.114 Y166.333 E.02759
G1 X90.664 Y165.884 E.02759
G1 X90.288 Y165.376 E.02745
G1 X89.885 Y164.557 E.03964
G1 X89.697 Y163.95 E.02755
G1 X89.601 Y163.317 E.02777
G1 X89.589 Y162.996 E.01397
G1 X89.589 Y57.008 E4.60076
G1 X89.637 Y56.366 E.02796
G1 X89.779 Y55.745 E.02763
G1 X89.991 Y55.19 E.0258
G1 X90.29 Y54.625 E.02774
G1 X90.667 Y54.114 E.02759
G1 X91.116 Y53.664 E.02759
G1 X91.625 Y53.287 E.0275
G1 X92.344 Y52.924 E.03495
G1 X93.051 Y52.697 E.03225
G1 X93.683 Y52.601 E.02772
G1 X125.992 Y52.589 E1.40249
G1 X126.634 Y52.637 E.02796
G1 X127.256 Y52.779 E.02768
G1 X127.702 Y52.944 E.02066
G1 X128.376 Y53.29 E.03288
G1 X128.886 Y53.667 E.02754
G1 X129.336 Y54.116 E.02759
G1 X129.712 Y54.624 E.02745
G1 X130.115 Y55.443 E.03964
G1 X130.303 Y56.05 E.02755
G1 X130.399 Y56.683 E.02777
G1 X130.411 Y57.004 E.01398
G1 X130.411 Y162.992 E4.60076
G1 X130.363 Y163.634 E.02796
G1 X130.221 Y164.255 E.02763
G1 X130.009 Y164.81 E.0258
G1 X129.71 Y165.375 E.02774
G1 X129.333 Y165.886 E.02759
G1 X128.884 Y166.336 E.02759
G1 X128.375 Y166.713 E.0275
G1 X127.656 Y167.076 E.03495
G1 X126.949 Y167.303 E.03225
G1 X126.317 Y167.399 E.02772
G1 X97.083 Y167.41 E1.26904
G1 X97.083 Y166.961 F18000
G1 F1200
G1 X94.03 Y166.962 E.1325
G1 X93.443 Y166.919 E.02555
G1 X92.885 Y166.793 E.02481
G1 X92.369 Y166.596 E.02401
G1 X91.856 Y166.323 E.02519
G1 X91.4 Y165.985 E.02468
G1 X90.998 Y165.582 E.02468
G1 X90.667 Y165.131 E.02432
G1 X90.299 Y164.38 E.03628
G1 X90.134 Y163.84 E.02453
G1 X90.05 Y163.283 E.02446
G1 X90.038 Y162.99 E.01273
G1 X90.038 Y57.03 E4.59955
G1 X90.081 Y56.443 E.02556
G1 X90.207 Y55.885 E.02481
G1 X90.404 Y55.369 E.02401
G1 X90.677 Y54.856 E.02519
G1 X91.015 Y54.4 E.02468
G1 X91.418 Y53.998 E.02468
G1 X91.872 Y53.665 E.02445
G1 X92.505 Y53.345 E.0308
G1 X93.143 Y53.138 E.02914
G1 X93.706 Y53.051 E.02473
G1 X125.98 Y53.038 E1.40095
G1 X126.577 Y53.084 E.02598
G1 X127.119 Y53.208 E.02413
G1 X127.513 Y53.353 E.01825
G1 X128.129 Y53.668 E.03002
G1 X128.6 Y54.015 E.02541
G1 X128.988 Y54.403 E.02381
G1 X129.32 Y54.849 E.02414
G1 X129.693 Y55.6 E.0364
G1 X129.866 Y56.16 E.02544
G1 X129.95 Y56.717 E.02446
G1 X129.962 Y57.01 E.01273
G1 X129.962 Y162.97 E4.59955
G1 X129.919 Y163.557 E.02556
G1 X129.793 Y164.115 E.02481
G1 X129.596 Y164.631 E.02401
G1 X129.323 Y165.144 E.02519
G1 X128.985 Y165.6 E.02468
G1 X128.582 Y166.002 E.02468
G1 X128.128 Y166.335 E.02445
G1 X127.495 Y166.655 E.0308
G1 X126.857 Y166.862 E.02914
G1 X126.274 Y166.95 E.0256
G1 X97.123 Y166.961 E1.2654
G1 X97.122 Y166.513 F18000
G1 F1200
G1 X94.052 Y166.514 E.1333
G1 X93.519 Y166.475 E.02318
G1 X93.025 Y166.365 E.02198
G1 X92.548 Y166.183 E.02218
G1 X92.088 Y165.937 E.0226
G1 X91.687 Y165.637 E.02176
G1 X91.334 Y165.281 E.02175
G1 X91.047 Y164.887 E.02119
G1 X90.715 Y164.205 E.03293
G1 X90.571 Y163.73 E.02151
G1 X90.498 Y163.247 E.02121
G1 X90.486 Y162.983 E.01146
G1 X90.486 Y57.052 E4.59834
G1 X90.525 Y56.519 E.02318
G1 X90.635 Y56.025 E.02198
G1 X90.817 Y55.548 E.02218
G1 X91.063 Y55.088 E.0226
G1 X91.363 Y54.687 E.02176
G1 X91.719 Y54.334 E.02175
G1 X92.117 Y54.043 E.02141
G1 X92.686 Y53.758 E.02764
G1 X93.237 Y53.579 E.02514
G1 X93.751 Y53.5 E.02258
G1 X125.968 Y53.487 E1.39848
G1 X126.519 Y53.531 E.024
G1 X126.983 Y53.637 E.02065
G1 X127.326 Y53.762 E.01584
G1 X127.883 Y54.046 E.02714
G1 X128.314 Y54.363 E.02327
G1 X128.641 Y54.69 E.02005
G1 X128.929 Y55.074 E.02086
G1 X129.27 Y55.757 E.03313
G1 X129.429 Y56.271 E.02332
G1 X129.502 Y56.753 E.02117
G1 X129.514 Y57.017 E.01147
G1 X129.514 Y162.948 E4.59834
G1 X129.475 Y163.481 E.02318
G1 X129.365 Y163.975 E.02198
G1 X129.183 Y164.452 E.02218
G1 X128.937 Y164.912 E.0226
G1 X128.637 Y165.313 E.02176
G1 X128.281 Y165.666 E.02175
G1 X127.883 Y165.957 E.02141
G1 X127.314 Y166.242 E.02764
G1 X126.764 Y166.42 E.02511
G1 X126.229 Y166.502 E.02345
G1 X97.162 Y166.513 E1.26176
G1 X97.162 Y166.064 F18000
G1 F1200
G1 X94.073 Y166.065 E.1341
G1 X93.594 Y166.03 E.02083
G1 X93.164 Y165.936 E.01914
G1 X92.726 Y165.77 E.02031
G1 X92.322 Y165.551 E.01997
G1 X91.975 Y165.291 E.01884
G1 X91.671 Y164.982 E.01881
G1 X91.428 Y164.644 E.01806
G1 X91.131 Y164.03 E.02961
G1 X91.008 Y163.622 E.01851
G1 X90.946 Y163.211 E.01804
G1 X90.935 Y162.971 E.01044
G1 X90.935 Y57.073 E4.59686
G1 X90.97 Y56.594 E.02084
G1 X91.064 Y56.164 E.01914
G1 X91.23 Y55.726 E.02031
G1 X91.449 Y55.322 E.01997
G1 X91.709 Y54.975 E.01884
G1 X92.018 Y54.67 E.01882
G1 X92.361 Y54.423 E.01837
G1 X92.866 Y54.171 E.02451
G1 X93.331 Y54.021 E.02118
G1 X93.796 Y53.948 E.02044
G1 X125.956 Y53.936 E1.39599
G1 X126.46 Y53.978 E.02199
G1 X126.847 Y54.066 E.01723
G1 X127.139 Y54.171 E.01343
G1 X127.636 Y54.424 E.02424
G1 X128.029 Y54.712 E.02112
G1 X128.307 Y54.992 E.01716
G1 X128.539 Y55.301 E.01676
G1 X128.848 Y55.915 E.02984
G1 X128.992 Y56.381 E.02117
G1 X129.054 Y56.789 E.01792
G1 X129.065 Y57.023 E.01018
G1 X129.065 Y162.927 E4.59711
