; Postprocessed by [ArcWelder](https://github.com/FormerLurker/ArcWelderLib)
; Copyright(C) 2021 - Brad Hochgesang
; Version: 1.2.0, Branch: master, BuildDate: 2021-11-21T20:04:00Z
; resolution=0.05mm
; path_tolerance=5.0%
; max_radius=9999.00mm
; default_xyz_precision=3
; default_e_precision=5
; extrusion_rate_variance=5.0%

; generated by AnycubicSlicer 1.4.4 on 2025-07-13 at 15:20:18 UTC




; 

; external perimeters extrusion width = 0.42mm
; perimeters extrusion width = 0.45mm
; infill extrusion width = 0.45mm
; solid infill extrusion width = 0.50mm
; top infill extrusion width = 0.42mm
; support material extrusion width = 0.42mm
; first layer extrusion width = 0.56mm

M201 X2500 Y2500 Z800 E2500 ; sets maximum accelerations, mm/sec^2
M203 X250 Y250 Z8 E80 ; sets maximum feedrates, mm / sec
M204 S2500 T2500 ; sets acceleration (S) and retract acceleration (R), mm/sec^2
M205 X10.00 Y10.00 Z2.00 E10.00 ; sets the jerk limits, mm/sec
M205 S0 T0 ; sets the minimum extruding and travel feed rate, mm/sec
;TYPE:Custom
G90 ; use absolute coordinates
M83 ; extruder relative mode
M104 S215 ; set extruder temp
M140 S60 ; set bed temp
M190 S60 ; wait for bed temp
M109 S215 ; wait for extruder temp
G28                                        ; move X/Y/Z to min endstops
G1 Z0.28                                   ; lift nozzle a bit 
G92 E0 
G1 Y3 F1800                                    ; zero the extruded length 
G1 X60  E25 F500                       ; Extrude 25mm of filament in a 5cm line. 
G92 E0                                     ; zero the extruded length again 
G1 E-2 F500                                ; Retract a little 
G1 X70 F4000                              ; Quickly wipe away from the filament line
M117
G21 ; set units to millimeters
G90 ; use absolute coordinates
M82 ; use absolute distances for extrusion
G92 E0
M107
;LAYER_CHANGE
;Z:0.28
;HEIGHT:0.28
; BEFORE_LAYER_CHANGE 0 @ 0.28mm
G1 E-2 F4800
G92 E0
G1 Z.28 F7200
; AFTER_LAYER_CHANGE 0 @ 0.28mm
G1 X91.592 Y55.33
G1 E2 F4800
;TYPE:Skirt/Brim
;WIDTH:0.56
G1 F1800
G1 X92.217 Y54.681 E2.05243
G1 X92.629 Y54.41 E2.08113
G1 X93.085 Y54.216 E2.10997
G1 X93.712 Y54.09 E2.14719
G1 X126.344 Y54.095 E4.04621
G3 X128.910 Y56.710 I-0.349 J2.909 E4.27648
G1 X128.91 Y163.283 E10.47849
G3 X128.408 Y164.670 I-2.858 J-0.250 E10.56523
G1 X127.783 Y165.319 E10.61766
G3 X126.288 Y165.910 I-1.725 J-2.178 E10.71242
G1 X93.717 Y165.91 E12.60789
G3 X92.330 Y165.408 I0.250 J-2.858 E12.69463
G1 X91.681 Y164.783 E12.74706
G3 X91.090 Y163.288 I2.178 J-1.725 E12.84182
G1 X91.09 Y56.717 E19.04371
G3 X91.562 Y55.382 I2.728 J0.214 E19.12696
G1 X91.99 Y55.639 F7200
G1 F1800
G1 X92.518 Y55.081 E19.17167
G3 X93.736 Y54.590 I1.423 J1.773 E19.24908
G1 X126.316 Y54.595 E21.14507
G3 X128.410 Y56.735 I-0.319 J2.407 E21.33282
G1 X128.41 Y163.261 E27.53209
G3 X127.995 Y164.388 I-2.340 J-0.222 E27.60270
G1 X127.482 Y164.919 E27.64567
G3 X126.264 Y165.410 I-1.423 J-1.773 E27.72308
G1 X93.739 Y165.41 E29.61587
G3 X92.612 Y164.995 I0.222 J-2.340 E29.68648
G1 X92.081 Y164.482 E29.72945
G3 X91.590 Y163.264 I1.773 J-1.423 E29.80686
G1 X91.59 Y56.739 E36.00608
G3 X91.959 Y55.690 I2.149 J0.166 E36.07142
G1 X92.384 Y55.951 F7200
G1 F1800
G1 X92.417 Y55.898 E36.07505
G3 X93.761 Y55.090 I1.597 J1.134 E36.16890
G1 X126.289 Y55.095 E38.06186
G3 X127.910 Y56.761 I-0.293 J1.907 E38.20705
G1 X127.91 Y163.239 E44.40353
G3 X126.239 Y164.910 I-1.911 J-0.240 E44.55163
G1 X93.761 Y164.91 E46.44169
G3 X92.090 Y163.239 I0.240 J-1.911 E46.58979
G1 X92.09 Y56.761 E52.78627
G3 X92.353 Y56.002 I1.550 J0.112 E52.83342
G1 X92.773 Y56.268 F7200
G1 F1800
G3 X93.785 Y55.590 I1.202 J0.701 E52.90653
G1 X126.261 Y55.595 E54.79647
G3 X127.410 Y56.785 I-0.267 J1.408 E54.89906
G1 X127.41 Y163.218 E61.09292
G3 X126.215 Y164.410 I-1.413 J-0.221 E61.19800
G1 X93.782 Y164.41 E63.08544
G3 X92.590 Y163.215 I0.221 J-1.413 E63.19052
G1 X92.59 Y56.782 E69.38438
G3 X92.742 Y56.320 I1.185 J0.134 E69.41281
G1 X93.195 Y56.532 F7200
G1 F1800
G3 X93.810 Y56.090 I0.808 J0.475 E69.45784
G1 X126.19 Y56.09 E71.34219
G3 X126.900 Y56.761 I-0.195 J0.917 E71.40166
G1 X126.91 Y163.19 E77.59529
G3 X126.239 Y163.900 I-0.917 J-0.195 E77.65476
G1 X93.81 Y163.91 E79.54196
G3 X93.100 Y163.239 I0.195 J-0.917 E79.60143
G1 X93.09 Y56.81 E85.79506
G1 X93.172 Y56.588 E85.80883
G1 X93.628 Y56.792 F7200
G1 F1800
G3 X93.884 Y56.590 I0.371 J0.207 E85.82812
G1 X126.116 Y56.59 E87.70386
G3 X126.410 Y56.884 I-0.115 J0.409 E87.72894
G1 X126.41 Y163.116 E93.9111
G3 X126.116 Y163.410 I-0.409 J-0.115 E93.93618
G1 X93.884 Y163.41 E95.81192
G3 X93.590 Y163.116 I0.115 J-0.409 E95.83700
G1 X93.59 Y56.884 E102.01916
G1 X93.605 Y56.848 E102.02143
G1 E100.62143 F4800
;WIPE_START
G1 F5760
G1 X93.792 Y56.628 E100.39285
G1 X93.884 Y56.59 E100.31405
G1 X94.254 Y56.59 E100.02143
;WIPE_END
G92 E0
G1 X118.544 Y46.582 F7200
G1 E2 F4800
;TYPE:Support material
G1 F1800
G1 X119.289 Y46.733 E2.04424
G1 X120.506 Y47.227 E2.12068
G1 X121.678 Y48.016 E2.2029
G1 X122.637 Y48.173 E2.25945
G1 X123.892 Y48.673 E2.33807
G1 X125.009 Y49.43 E2.4166
G1 X125.938 Y50.411 E2.49523
G1 X126.634 Y51.568 E2.57381
G1 X127.065 Y52.848 E2.65241
G1 X127.175 Y53.854 E2.7113
G1 X126.036 Y53.56 E2.77976
G1 X93.96 Y53.56 E4.64642
G1 X93.182 Y53.785 E4.69355
G1 X93.182 Y53.515 E4.70926
G1 X93.472 Y52.196 E4.78785
G1 X94.039 Y50.971 E4.8664
G1 X94.856 Y49.896 E4.94498
G1 X95.886 Y49.021 E5.02363
G1 X97.079 Y48.389 E5.1022
G1 X98.38 Y48.028 E5.18077
G1 X99.728 Y47.954 E5.25933
G1 X101.061 Y48.173 E5.33794
G1 X102.315 Y48.673 E5.4165
G1 X102.578 Y48.851 E5.43498
G1 X103.055 Y48.575 E5.46705
G1 X104.342 Y48.171 E5.54555
G1 X105.641 Y48.063 E5.62141
G3 X107.069 Y48.260 I-1.270 J14.479 E5.70533
G1 X108.289 Y48.716 E5.78113
G1 X108.609 Y48.925 E5.80337
G1 X109.621 Y48.389 E5.87001
G1 X110.922 Y48.028 E5.94858
G1 X112.271 Y47.954 E6.0272
G1 X113.142 Y48.097 E6.07857
G1 X114.1 Y47.398 E6.14758
G3 X116.598 Y46.516 I3.804 J6.796 E6.30257
G1 X117.878 Y46.481 E6.37709
G1 X118.469 Y46.571 E6.41188
G1 X126.108 Y53.346 F7200
G1 F1800
G1 X126.108 Y51.567 E6.51541
G1 X125.553 Y50.659 E6.57734
G1 X125.553 Y53.11 E6.71998
G1 X124.997 Y53.11 E6.75234
G1 X124.997 Y50.072 E6.92914
G2 X124.442 Y49.589 I-1.374 J1.019 E6.97220
G1 X124.442 Y53.11 E7.1771
G1 X123.886 Y53.11 E7.20946
G1 X123.886 Y49.213 E7.43625
G2 X123.331 Y48.934 I-0.908 J1.114 E7.47260
G1 X123.331 Y53.11 E7.71562
G1 X122.776 Y53.11 E7.74792
G1 X122.776 Y48.712 E8.00386
G2 X122.220 Y48.560 I-0.629 J1.209 E8.03759
G1 X122.22 Y53.11 E8.30238
G1 X121.665 Y53.11 E8.33468
G1 X121.665 Y48.469 E8.60476
G1 X121.508 Y48.444 E8.61401
G1 X121.109 Y48.175 E8.64201
G1 X121.109 Y53.11 E8.9292
G1 X120.554 Y53.11 E8.9615
G1 X120.554 Y47.802 E9.2704
G2 X119.998 Y47.507 I-0.990 J1.194 E9.30722
G1 X119.998 Y53.11 E9.63329
G1 X119.443 Y53.11 E9.66559
G1 X119.443 Y47.281 E10.00481
G2 X118.887 Y47.111 I-0.732 J1.399 E10.03879
G1 X118.887 Y53.11 E10.3879
G1 X118.332 Y53.11 E10.4202
G1 X118.332 Y47.005 E10.77548
G2 X117.776 Y46.934 I-0.476 J1.516 E10.80816
G1 X117.776 Y53.11 E11.16757
G1 X117.221 Y53.11 E11.19987
G1 X117.221 Y46.949 E11.55841
G1 X116.665 Y46.965 E11.59078
G1 X116.665 Y53.11 E11.94839
G1 X116.11 Y53.11 E11.98069
G1 X116.11 Y47.095 E12.33073
G1 X115.555 Y47.226 E12.36392
G1 X115.555 Y53.11 E12.70634
G1 X114.999 Y53.11 E12.7387
G1 X114.999 Y47.457 E13.06768
G1 X114.444 Y47.729 E13.10365
G1 X114.444 Y53.11 E13.4168
G1 X113.888 Y53.11 E13.44916
G1 X113.888 Y48.11 E13.74013
G1 X113.333 Y48.515 E13.78011
G1 X113.333 Y53.11 E14.04752
G1 X112.777 Y53.11 E14.07988
G1 X112.777 Y48.493 E14.34857
G1 X112.246 Y48.406 E14.37988
G1 X112.222 Y48.408 E14.38128
G1 X112.222 Y53.11 E14.65491
G1 X111.666 Y53.11 E14.68727
G1 X111.666 Y48.438 E14.95916
G1 X111.111 Y48.468 E14.99151
G1 X111.111 Y53.11 E15.26165
G1 X110.555 Y53.11 E15.29401
G1 X110.555 Y48.596 E15.5567
G1 X110 Y48.751 E15.59023
G1 X110 Y53.11 E15.8439
G1 X109.445 Y53.11 E15.8762
G1 X109.445 Y48.992 E16.11585
G1 X108.889 Y49.286 E16.15245
G1 X108.889 Y53.11 E16.37499
G1 X108.334 Y53.11 E16.40729
G1 X108.334 Y49.283 E16.63
G2 X107.778 Y49.006 I-0.886 J1.081 E16.66638
G1 X107.778 Y53.11 E16.90521
G1 X107.223 Y53.11 E16.93751
G1 X107.223 Y48.798 E17.18845
G2 X106.667 Y48.650 I-0.653 J1.333 E17.22210
G1 X106.667 Y53.11 E17.48165
G1 X106.112 Y53.11 E17.51395
G1 X106.112 Y48.569 E17.77821
G2 X105.556 Y48.521 I-0.403 J1.427 E17.81075
G1 X105.556 Y53.11 E18.07781
G1 X105.001 Y53.11 E18.11011
G1 X105.001 Y48.568 E18.37443
G1 X104.445 Y48.614 E18.4069
G1 X104.445 Y53.11 E18.66854
G1 X103.89 Y53.11 E18.70084
G1 X103.89 Y48.784 E18.95259
G1 X103.335 Y48.959 E18.98646
G1 X103.335 Y53.11 E19.22803
G1 X102.779 Y53.11 E19.26039
G1 X102.779 Y49.254 E19.48479
G1 X102.559 Y49.381 E19.49957
G1 X102.224 Y49.154 E19.52312
G1 X102.224 Y53.11 E19.75334
G1 X101.668 Y53.11 E19.7857
G1 X101.668 Y48.899 E20.03076
G1 X101.113 Y48.678 E20.06552
G1 X101.113 Y53.11 E20.32344
G1 X100.557 Y53.11 E20.3558
G1 X100.557 Y48.546 E20.6214
G1 X100.002 Y48.455 E20.65413
G1 X100.002 Y53.11 E20.92503
G1 X99.446 Y53.11 E20.95739
G1 X99.446 Y48.42 E21.23032
G1 X98.891 Y48.45 E21.26267
G1 X98.891 Y53.11 E21.53386
G1 X98.335 Y53.11 E21.56622
G1 X98.335 Y48.507 E21.83409
G1 X97.78 Y48.661 E21.86761
G1 X97.78 Y53.11 E22.12652
G1 X97.224 Y53.11 E22.15888
G1 X97.224 Y48.821 E22.40848
G1 X96.669 Y49.115 E22.44503
G1 X96.669 Y53.11 E22.67752
G1 X96.114 Y53.11 E22.70982
G1 X96.114 Y49.418 E22.92468
G1 X95.558 Y49.89 E22.96712
G1 X95.558 Y53.11 E23.15451
G1 X95.003 Y53.11 E23.18681
G1 X95.003 Y50.447 E23.34178
G1 X94.447 Y51.177 E23.39518
G1 X94.447 Y53.11 E23.50767
G1 X93.892 Y53.112 E23.53997
G1 X93.892 Y51.825 E23.61487
G1 E22.21487 F4800
;WIPE_START
G1 F5760
G1 X93.892 Y52.583 E21.61487
;WIPE_END
G92 E0
G1 X93.964 Y166.44 F7200
G1 E2 F4800
G1 F1800
G1 X125.827 Y166.44 E3.85427
G1 X125.74 Y167.169 E3.897
G1 X125.251 Y168.449 E3.97674
G1 X124.437 Y169.607 E4.05911
G1 X123.404 Y170.5 E4.13857
G1 X122.204 Y171.105 E4.21678
G3 X120.763 Y171.424 I-3.958 J-14.466 E4.30269
G1 X119.434 Y171.39 E4.38006
G1 X118.163 Y171.036 E4.45684
G1 X117.351 Y170.61 E4.5102
G1 X116.315 Y171.312 E4.58303
G1 X115.064 Y171.81 E4.66139
G1 X113.735 Y172.028 E4.73976
G1 X112.391 Y171.955 E4.81809
G1 X111.093 Y171.595 E4.89648
G1 X110.756 Y171.416 E4.91869
G1 X109.759 Y171.837 E4.98167
G1 X108.493 Y172.076 E5.05665
G3 X107.056 Y172.037 I-0.363 J-13.100 E5.14034
G1 X105.807 Y171.733 E5.21515
G1 X105.469 Y171.568 E5.23704
G1 X104.861 Y171.81 E5.27512
G1 X103.532 Y172.028 E5.35349
G1 X102.188 Y171.955 E5.43182
G1 X100.933 Y171.607 E5.50761
G1 X100.381 Y171.827 E5.54219
G1 X99.048 Y172.046 E5.6208
G1 X97.7 Y171.972 E5.69936
G1 X96.399 Y171.611 E5.77793
G1 X95.206 Y170.979 E5.8565
G1 X94.176 Y170.105 E5.93511
G1 X93.359 Y169.03 E6.01369
G1 X92.792 Y167.804 E6.0923
G1 X92.502 Y166.485 E6.17089
G1 X92.502 Y166.063 E6.19545
G1 X93.892 Y166.421 E6.27898
G1 X124.997 Y168.42 F7200
G1 F1800
G1 X124.997 Y166.89 E6.36802
G1 X124.442 Y166.89 E6.40032
G1 X124.442 Y168.827 E6.51304
G3 X123.886 Y169.488 I-1.658 J-0.831 E6.56362
G1 X123.886 Y166.89 E6.71481
G1 X123.331 Y166.89 E6.74711
G1 X123.331 Y169.968 E6.92623
G3 X122.776 Y170.313 I-0.965 J-0.934 E6.96453
G1 X122.776 Y166.89 E7.16373
G1 X122.22 Y166.89 E7.19609
G1 X122.22 Y170.593 E7.41159
G3 X121.665 Y170.774 I-0.673 J-1.124 E7.44575
G1 X121.665 Y166.89 E7.67178
G1 X121.109 Y166.89 E7.70414
G1 X121.109 Y170.899 E7.93744
G3 X120.554 Y170.969 I-0.439 J-1.243 E7.97015
G1 X120.554 Y166.89 E8.20753
G1 X119.998 Y166.89 E8.23989
G1 X119.998 Y170.954 E8.47639
G1 X119.501 Y170.942 E8.50532
G1 X119.443 Y170.926 E8.50882
G1 X119.443 Y166.89 E8.74369
G1 X118.887 Y166.89 E8.77605
G1 X118.887 Y170.771 E9.0019
G1 X118.332 Y170.616 E9.03543
G1 X118.332 Y166.89 E9.25226
G1 X117.776 Y166.89 E9.28462
G1 X117.776 Y170.325 E9.48452
G1 X117.321 Y170.086 E9.51443
G1 X117.221 Y170.154 E9.52147
G1 X117.221 Y166.89 E9.71142
G1 X116.665 Y166.89 E9.74378
G1 X116.665 Y170.531 E9.95567
G1 X116.11 Y170.907 E9.99468
G1 X116.11 Y166.89 E10.22845
G1 X115.555 Y166.89 E10.26075
G1 X115.555 Y171.131 E10.50755
G1 X114.999 Y171.352 E10.54237
G1 X114.999 Y166.89 E10.80204
G1 X114.444 Y166.89 E10.83434
G1 X114.444 Y171.456 E11.10006
G1 X113.888 Y171.547 E11.13285
G1 X113.888 Y166.89 E11.40386
G1 X113.333 Y166.89 E11.43616
G1 X113.333 Y171.556 E11.7077
G1 X112.777 Y171.526 E11.7401
G1 X112.777 Y166.89 E12.00989
G1 X112.222 Y166.89 E12.04219
G1 X112.222 Y171.441 E12.30704
G1 X111.666 Y171.287 E12.34061
G1 X111.666 Y166.89 E12.59649
G1 X111.111 Y166.89 E12.62879
G1 X111.111 Y171.095 E12.8735
G1 X110.778 Y170.919 E12.89542
G1 X110.555 Y171.012 E12.90948
G1 X110.555 Y166.89 E13.14936
G1 X110 Y166.89 E13.18166
G1 X110 Y171.247 E13.43522
G3 X109.445 Y171.439 I-0.723 J-1.191 E13.46956
G1 X109.445 Y166.89 E13.73429
G1 X108.889 Y166.89 E13.76665
G1 X108.889 Y171.543 E14.03743
G3 X108.334 Y171.626 I-0.497 J-1.423 E14.07018
G1 X108.334 Y166.89 E14.34579
G1 X107.778 Y166.89 E14.37815
G1 X107.778 Y171.626 E14.65376
G1 X107.223 Y171.596 E14.68611
G1 X107.223 Y166.89 E14.95998
G1 X106.667 Y166.89 E14.99234
G1 X106.667 Y171.479 E15.2594
G1 X106.112 Y171.344 E15.29264
G1 X106.112 Y166.89 E15.55184
G1 X105.556 Y166.89 E15.5842
G1 X105.556 Y171.11 E15.82978
G1 X105.487 Y171.077 E15.83423
G1 X105.001 Y171.27 E15.86466
G1 X105.001 Y166.89 E16.11955
G1 X104.445 Y166.89 E16.15191
G1 X104.445 Y171.423 E16.41571
G1 X103.89 Y171.514 E16.44844
G1 X103.89 Y166.89 E16.71753
G1 X103.335 Y166.89 E16.74983
G1 X103.335 Y171.567 E17.02201
G1 X102.779 Y171.537 E17.05441
G1 X102.779 Y166.89 E17.32484
G1 X102.224 Y166.89 E17.35714
G1 X102.224 Y171.498 E17.6253
G1 X101.668 Y171.344 E17.65887
G1 X101.668 Y166.89 E17.91807
G1 X101.113 Y166.89 E17.95037
G1 X101.113 Y171.19 E18.20061
G1 X100.907 Y171.133 E18.21305
G1 X100.557 Y171.272 E18.23497
G1 X100.557 Y166.89 E18.48998
G1 X100.002 Y166.89 E18.52228
G1 X100.002 Y171.433 E18.78666
G1 X99.446 Y171.524 E18.81945
G1 X99.446 Y166.89 E19.08913
G1 X98.891 Y166.89 E19.12143
G1 X98.891 Y171.586 E19.39471
G1 X98.335 Y171.556 E19.42711
G1 X98.335 Y166.89 E19.69865
G1 X97.78 Y166.89 E19.73095
G1 X97.78 Y171.526 E20.00074
G1 X97.224 Y171.374 E20.03428
G1 X97.224 Y166.89 E20.29523
G1 X96.669 Y166.89 E20.32753
G1 X96.669 Y171.219 E20.57946
G3 X96.114 Y170.951 I0.314 J-1.359 E20.61545
G1 X96.114 Y166.89 E20.85178
G1 X95.558 Y166.89 E20.88414
G1 X95.558 Y170.656 E21.1033
G1 X95.46 Y170.604 E21.10976
G1 X95.003 Y170.216 E21.14465
G1 X95.003 Y166.89 E21.33821
G1 X94.447 Y166.89 E21.37057
G1 X94.447 Y169.717 E21.53509
G1 X93.892 Y168.987 E21.58846
G1 X93.892 Y166.886 E21.71073
G1 X93.336 Y166.743 E21.74414
G1 X93.336 Y168.444 E21.84313
G1 E20.44313 F4800
;WIPE_START
G1 F5760
G1 X93.336 Y167.686 E19.84313
;WIPE_END
G92 E0
G1 X125.72 Y162.72 F7200
G1 E2 F4800
;TYPE:External perimeter
G1 F1800
G1 X94.28 Y162.72 E3.82965
G1 X94.28 Y57.28 E9.96572
G1 X125.72 Y57.28 E11.79537
G1 X125.72 Y162.66 E17.92795
G1 X125.356 Y162.554 F7200
G1 X125.22 Y162.22
;TYPE:Perimeter
G1 F1800
G1 X94.78 Y162.22 E19.6994
G1 X94.78 Y57.78 E25.77728
G1 X125.22 Y57.78 E27.54873
G1 X125.22 Y162.16 E33.62312
G1 X124.72 Y161.72 F7200
G1 F1800
G1 X95.28 Y161.72 E35.33638
G1 X95.28 Y58.28 E41.35606
G1 X124.72 Y58.28 E43.06932
G1 X124.72 Y161.66 E49.08551
G1 E47.68551 F4800
;WIPE_START
G1 F5760
G1 X123.962 Y161.662 E47.08551
;WIPE_END
G92 E0
G1 X123.504 Y58.48 F7200
G1 E2 F4800
;TYPE:Solid infill
;WIDTH:0.562594
G1 F1800
G1 X124.295 Y59.271 E2.06544
G1 X124.295 Y59.982 E2.10703
G1 X123.018 Y58.705 E2.21267
G1 X122.308 Y58.705 E2.2542
G1 X124.295 Y60.692 E2.41858
G1 X124.295 Y61.403 E2.46017
G1 X121.597 Y58.705 E2.68337
G1 X120.887 Y58.705 E2.7249
G1 X124.295 Y62.113 E3.00683
G1 X124.295 Y62.824 E3.04842
G1 X120.176 Y58.705 E3.38917
G1 X119.465 Y58.705 E3.43076
G1 X124.295 Y63.535 E3.83033
G1 X124.295 Y64.245 E3.87186
G1 X118.755 Y58.705 E4.33017
G1 X118.044 Y58.705 E4.37176
G1 X124.295 Y64.956 E4.88889
G1 X124.295 Y65.667 E4.93048
G1 X117.333 Y58.705 E5.50643
G1 X116.623 Y58.705 E5.54796
G1 X124.295 Y66.377 E6.18264
G1 X124.295 Y67.088 E6.22423
