; generated by Slic3r 1.3.0 on 2025-07-13 at 19:04:37

; external perimeters extrusion width = 0.55mm (4.37mm^3/s)
; perimeters extrusion width = 0.70mm (11.44mm^3/s)
; infill extrusion width = 0.62mm (13.45mm^3/s)
; solid infill extrusion width = 0.70mm (3.81mm^3/s)
; top infill extrusion width = 0.70mm (2.86mm^3/s)

M107
M104 S200 ; set temperature
G28 ; home all axes
G1 Z5 F5000 ; lift nozzle

; Filament gcode

M109 S200 ; set temperature and wait for it to be reached
G21 ; set units to millimeters
G90 ; use absolute coordinates
M82 ; use absolute distances for extrusion
G92 E0
G1 Z0.350 F7800.000
G1 E-2.00000 F2400.00000
G92 E0
G1 X84.915 Y85.753 F7800.000
G1 E2.00000 F2400.00000
G1 F1800
G1 X86.668 Y84.274 E2.07096
G1 X88.820 Y83.481 E2.14192
G1 X90.000 Y83.375 E2.17858
G1 X93.000 Y83.375 E2.27140
G1 X95.259 Y83.772 E2.34236
G1 X97.247 Y84.915 E2.41332
G1 X98.726 Y86.668 E2.48429
G1 X99.519 Y88.820 E2.55525
G1 X99.625 Y90.000 E2.59190
G1 X99.625 Y110.000 E3.21073
G1 X99.228 Y112.259 E3.28169
G1 X98.085 Y114.247 E3.35265
G1 X96.332 Y115.726 E3.42361
G1 X94.180 Y116.519 E3.49458
G1 X93.000 Y116.625 E3.53123
G1 X90.000 Y116.625 E3.62405
G1 X87.741 Y116.228 E3.69501
G1 X85.753 Y115.085 E3.76598
G1 X84.274 Y113.332 E3.83694
G1 X83.481 Y111.180 E3.90790
G1 X83.375 Y110.000 E3.94455
G1 X83.375 Y90.000 E4.56338
G1 X83.772 Y87.741 E4.63434
G1 X84.878 Y85.818 E4.70298
G1 E2.70298 F2400.00000
G92 E0
G1 X92.025 Y109.025 F7800.000
G1 E2.00000 F2400.00000
G1 F1800
G1 X90.975 Y109.025 E2.03250
G1 X90.975 Y90.975 E2.59099
G1 X92.025 Y90.975 E2.62349
G1 X92.025 Y108.950 E3.17967
G1 X92.650 Y109.650 F7800.000
G1 F1800
G1 X90.350 Y109.650 E3.25083
G1 X90.350 Y90.350 E3.84800
G1 X92.650 Y90.350 E3.91916
G1 X92.650 Y109.575 E4.51401
G1 X92.207 Y109.417 F7800.000
G1 X91.500 Y108.713 F7800.000
G1 F1800
G1 X91.500 Y91.287 E4.81619
G1 Z0.650 F7800.000
G1 X92.164 Y109.164 F7800.000
G1 F889.37
G1 X90.836 Y109.164 E4.85203
G1 X90.836 Y90.836 E5.34648
G1 X92.164 Y90.836 E5.38233
G1 X92.164 Y109.089 E5.87475
G1 X92.725 Y109.725 F7800.000
G1 F1800
G1 X90.275 Y109.725 E5.92524
G1 X90.275 Y90.275 E6.32612
G1 X92.725 Y90.275 E6.37661
G1 X92.725 Y109.650 E6.77594
G1 X92.282 Y109.493 F7800.000
G1 X91.500 Y108.847 F7800.000
G1 F1185.83
G1 X91.500 Y91.153 E7.24809
G1 Z0.950 F7800.000
G1 X92.164 Y109.164 F7800.000
G1 F889.37
G1 X90.836 Y109.164 E7.28393
G1 X90.836 Y90.836 E7.77838
G1 X92.164 Y90.836 E7.81422
G1 X92.164 Y109.089 E8.30665
G1 X92.725 Y109.725 F7800.000
G1 F1800
G1 X90.275 Y109.725 E8.35714
G1 X90.275 Y90.275 E8.75801
G1 X92.725 Y90.275 E8.80851
G1 X92.725 Y109.650 E9.20783
G1 X92.282 Y109.493 F7800.000
G1 X91.500 Y108.847 F7800.000
G1 F1185.83
G1 X91.500 Y91.153 E9.67999
M106 S255
G1 Z1.250 F7800.000
G1 X92.164 Y109.164 F7800.000
G1 F889.37
G1 X90.836 Y109.164 E9.71583
G1 X90.836 Y90.836 E10.21028
G1 X92.164 Y90.836 E10.24612
G1 X92.164 Y109.089 E10.73855
G1 X92.725 Y109.725 F7800.000
G1 F1800
G1 X90.275 Y109.725 E10.78904
G1 X90.275 Y90.275 E11.18991
G1 X92.725 Y90.275 E11.24041
G1 X92.725 Y109.650 E11.63973
G1 X92.282 Y109.493 F7800.000
G1 X91.500 Y108.847 F7800.000
G1 F1185.83
G1 X91.500 Y91.153 E12.11188
G1 Z1.550 F7800.000
G1 X92.164 Y109.164 F7800.000
G1 F889.37
G1 X90.836 Y109.164 E12.14773
G1 X90.836 Y90.836 E12.64218
G1 X92.164 Y90.836 E12.67802
G1 X92.164 Y109.089 E13.17044
G1 X92.725 Y109.725 F7800.000
G1 F1800
G1 X90.275 Y109.725 E13.22094
G1 X90.275 Y90.275 E13.62181
G1 X92.725 Y90.275 E13.67231
G1 X92.725 Y109.650 E14.07163
G1 X92.282 Y109.493 F7800.000
G1 X91.500 Y108.847 F7800.000
G1 F1185.83
G1 X91.500 Y91.153 E14.54378
G1 Z1.850 F7800.000
G1 X92.164 Y109.164 F7800.000
G1 F889.37
G1 X90.836 Y109.164 E14.57963
G1 X90.836 Y90.836 E15.07407
G1 X92.164 Y90.836 E15.10992
G1 X92.164 Y109.089 E15.60234
G1 X92.725 Y109.725 F7800.000
G1 F1800
G1 X90.275 Y109.725 E15.65284
G1 X90.275 Y90.275 E16.05371
G1 X92.725 Y90.275 E16.10420
G1 X92.725 Y109.650 E16.50353
G1 X92.282 Y109.493 F7800.000
G1 X91.500 Y108.847 F7800.000
G1 F1185.83
G1 X91.500 Y91.153 E16.97568
G1 Z2.150 F7800.000
G1 X92.164 Y109.164 F7800.000
G1 F889.37
G1 X90.836 Y109.164 E17.01153
G1 X90.836 Y90.836 E17.50597
G1 X92.164 Y90.836 E17.54182
G1 X92.164 Y109.089 E18.03424
G1 X92.725 Y109.725 F7800.000
G1 F1800
G1 X90.275 Y109.725 E18.08474
G1 X90.275 Y90.275 E18.48561
G1 X92.725 Y90.275 E18.53610
G1 X92.725 Y109.650 E18.93543
G1 X92.282 Y109.493 F7800.000
G1 X91.500 Y108.847 F7800.000
G1 F1185.83
G1 X91.500 Y91.153 E19.40758
G1 Z2.450 F7800.000
G1 E17.40758 F2400.00000
G92 E0
G1 X92.164 Y109.164 F7800.000
G1 E2.00000 F2400.00000
G1 F889.37
G1 X90.836 Y109.164 E2.03585
G1 X90.836 Y90.836 E2.53029
G1 X92.164 Y90.836 E2.56614
G1 X92.164 Y109.089 E3.05856
G1 X92.725 Y109.725 F7800.000
G1 F1800
G1 X90.275 Y109.725 E3.10906
G1 X90.275 Y90.275 E3.50993
G1 X92.725 Y90.275 E3.56042
G1 X92.725 Y109.650 E3.95975
G1 X92.282 Y109.493 F7800.000
G1 X91.500 Y108.847 F7800.000
G1 F1185.83
G1 X91.500 Y91.153 E4.43190
M106 S249.9
G1 Z2.750 F7800.000
G1 E2.43190 F2400.00000
G92 E0
G1 X92.164 Y109.164 F7800.000
G1 E2.00000 F2400.00000
G1 F900
G1 X90.836 Y109.164 E2.03585
G1 X90.836 Y101.368 E2.24617
G1 X92.164 Y101.368 E2.28201
G1 X92.164 Y109.089 E2.49031
G1 X92.725 Y109.725 F7800.000
G1 F900
G1 X90.275 Y109.725 E2.54081
G1 X90.275 Y100.807 E2.72461
G1 X92.725 Y100.807 E2.77510
G1 X92.725 Y109.650 E2.95735
G1 X92.271 Y109.515 F7800.000
G1 X91.500 Y108.847 F7800.000
G1 F1200
G1 X91.500 Y101.686 E3.14845
G1 E1.14845 F2400.00000
G92 E0
G1 X92.164 Y98.632 F7800.000
G1 E2.00000 F2400.00000
G1 F900
G1 X90.836 Y98.632 E2.03585
G1 X90.836 Y90.836 E2.24617
G1 X92.164 Y90.836 E2.28201
G1 X92.164 Y98.557 E2.49031
G1 X92.725 Y99.193 F7800.000
G1 F900
G1 X90.275 Y99.193 E2.54081
G1 X90.275 Y90.275 E2.72461
G1 X92.725 Y90.275 E2.77510
G1 X92.725 Y99.118 E2.95735
G1 X92.271 Y98.982 F7800.000
G1 X91.500 Y98.314 F7800.000
G1 F1200
G1 X91.500 Y91.153 E3.14845
G1 Z3.050 F7800.000
G1 E1.14845 F2400.00000
G92 E0
G1 X92.164 Y101.851 F7800.000
G1 E2.00000 F2400.00000
G1 F900
G1 X92.164 Y109.164 E2.19728
G1 X90.836 Y109.164 E2.23312
G1 X90.836 Y101.851 E2.43040
G1 X92.089 Y101.851 E2.46422
G1 X92.725 Y101.291 F7800.000
G1 F900
G1 X92.725 Y109.725 E2.63806
G1 X90.275 Y109.725 E2.68855
G1 X90.275 Y101.291 E2.86238
G1 X92.650 Y101.291 E2.91133
G1 X92.678 Y101.789 F7800.000
G1 X91.500 Y102.169 F7800.000
G1 F1200
G1 X91.500 Y108.847 E3.08952
G1 E1.08952 F2400.00000
G92 E0
G1 X92.164 Y98.149 F7800.000
G1 E2.00000 F2400.00000
G1 F900
G1 X90.836 Y98.149 E2.03585
G1 X90.836 Y90.836 E2.23312
G1 X92.164 Y90.836 E2.26897
G1 X92.164 Y98.074 E2.46422
G1 X92.725 Y98.709 F7800.000
G1 F900
G1 X90.275 Y98.709 E2.51472
G1 X90.275 Y90.275 E2.68855
G1 X92.725 Y90.275 E2.73905
G1 X92.725 Y98.634 E2.91133
G1 X92.270 Y98.501 F7800.000
G1 X91.500 Y97.831 F7800.000
G1 F1200
G1 X91.500 Y91.153 E3.08952
M106 S252.45
G1 Z3.350 F7800.000
G1 E1.08952 F2400.00000
G92 E0
G1 X92.164 Y102.101 F7800.000
G1 E2.00000 F2400.00000
G1 F900
G1 X92.164 Y109.164 E2.19054
G1 X90.836 Y109.164 E2.22638
G1 X90.836 Y102.101 E2.41692
G1 X92.089 Y102.101 E2.45075
G1 X92.725 Y101.541 F7800.000
G1 F900
G1 X92.725 Y109.725 E2.61943
G1 X90.275 Y109.725 E2.66992
G1 X90.275 Y101.541 E2.83861
G1 X92.650 Y101.541 E2.88756
G1 X92.677 Y102.038 F7800.000
G1 X91.500 Y102.419 F7800.000
G1 F1200
G1 X91.500 Y108.847 E3.05908
G1 E1.05908 F2400.00000
G92 E0
G1 X92.164 Y97.899 F7800.000
G1 E2.00000 F2400.00000
G1 F900
G1 X90.836 Y97.899 E2.03585
G1 X90.836 Y90.836 E2.22638
G1 X92.164 Y90.836 E2.26223
G1 X92.164 Y97.824 E2.45075
G1 X92.725 Y98.459 F7800.000
G1 F900
G1 X90.275 Y98.459 E2.50124
G1 X90.275 Y90.275 E2.66992
G1 X92.725 Y90.275 E2.72042
G1 X92.725 Y98.384 E2.88756
G1 X92.270 Y98.252 F7800.000
G1 X91.500 Y97.581 F7800.000
G1 F1200
G1 X91.500 Y91.153 E3.05908
G1 Z3.650 F7800.000
G1 E1.05908 F2400.00000
G92 E0
G1 X92.164 Y102.247 F7800.000
G1 E2.00000 F2400.00000
G1 F900
G1 X92.164 Y109.164 E2.18662
G1 X90.836 Y109.164 E2.22246
G1 X90.836 Y102.247 E2.40908
G1 X92.089 Y102.247 E2.44290
G1 X92.725 Y101.686 F7800.000
G1 F900
G1 X92.725 Y109.725 E2.60859
G1 X90.275 Y109.725 E2.65909
G1 X90.275 Y101.686 E2.82478
G1 X92.650 Y101.686 E2.87372
G1 X92.676 Y102.184 F7800.000
G1 X91.500 Y102.564 F7800.000
G1 F1200
G1 X91.500 Y108.847 E3.04137
G1 E1.04137 F2400.00000
G92 E0
G1 X92.164 Y97.753 F7800.000
G1 E2.00000 F2400.00000
G1 F900
G1 X90.836 Y97.753 E2.03585
G1 X90.836 Y90.836 E2.22246
G1 X92.164 Y90.836 E2.25831
G1 X92.164 Y97.678 E2.44290
G1 X92.725 Y98.314 F7800.000
G1 F900
G1 X90.275 Y98.314 E2.49340
G1 X90.275 Y90.275 E2.65909
G1 X92.725 Y90.275 E2.70958
G1 X92.725 Y98.239 E2.87372
G1 X92.269 Y98.108 F7800.000
G1 X91.500 Y97.436 F7800.000
G1 F1200
G1 X91.500 Y91.153 E3.04137
G1 Z3.950 F7800.000
G1 E1.04137 F2400.00000
G92 E0
G1 X92.164 Y102.322 F7800.000
G1 E2.00000 F2400.00000
G1 F900
G1 X92.164 Y109.164 E2.18459
G1 X90.836 Y109.164 E2.22043
G1 X90.836 Y102.322 E2.40502
G1 X92.089 Y102.322 E2.43884
G1 X92.725 Y101.761 F7800.000
G1 F900
G1 X92.725 Y109.725 E2.60297
G1 X90.275 Y109.725 E2.65347
G1 X90.275 Y101.761 E2.81760
G1 X92.650 Y101.761 E2.86655
G1 X92.675 Y102.259 F7800.000
G1 X91.500 Y102.640 F7800.000
G1 F1200
G1 X91.500 Y108.847 E3.03218
G1 E1.03218 F2400.00000
G92 E0
G1 X92.164 Y97.678 F7800.000
G1 E2.00000 F2400.00000
G1 F900
G1 X90.836 Y97.678 E2.03585
G1 X90.836 Y90.836 E2.22043
G1 X92.164 Y90.836 E2.25628
G1 X92.164 Y97.603 E2.43884
G1 X92.725 Y98.239 F7800.000
G1 F900
G1 X90.275 Y98.239 E2.48933
G1 X90.275 Y90.275 E2.65347
G1 X92.725 Y90.275 E2.70396
G1 X92.725 Y98.164 E2.86655
G1 X92.269 Y98.033 F7800.000
G1 X91.500 Y97.360 F7800.000
G1 F1200
G1 X91.500 Y91.153 E3.03218
G1 Z4.250 F7800.000
G1 E1.03218 F2400.00000
G92 E0
G1 X92.164 Y102.329 F7800.000
G1 E2.00000 F2400.00000
G1 F900
G1 X92.164 Y109.164 E2.18439
G1 X90.836 Y109.164 E2.22024
G1 X90.836 Y102.329 E2.40463
G1 X92.089 Y102.329 E2.43845
G1 X92.725 Y101.768 F7800.000
G1 F900
G1 X92.725 Y109.725 E2.60244
G1 X90.275 Y109.725 E2.65294
G1 X90.275 Y101.768 E2.81692
G1 X92.650 Y101.768 E2.86587
G1 X92.675 Y102.266 F7800.000
G1 X91.500 Y102.647 F7800.000
G1 F1200
G1 X91.500 Y108.847 E3.03132
G1 E1.03132 F2400.00000
G92 E0
G1 X92.164 Y97.671 F7800.000
G1 E2.00000 F2400.00000
G1 F900
G1 X90.836 Y97.671 E2.03585
G1 X90.836 Y90.836 E2.22024
G1 X92.164 Y90.836 E2.25608
G1 X92.164 Y97.596 E2.43845
G1 X92.725 Y98.232 F7800.000
G1 F900
G1 X90.275 Y98.232 E2.48895
G1 X90.275 Y90.275 E2.65294
G1 X92.725 Y90.275 E2.70343
G1 X92.725 Y98.157 E2.86587
G1 X92.269 Y98.026 F7800.000
G1 X91.500 Y97.353 F7800.000
G1 F1200
G1 X91.500 Y91.153 E3.03132
G1 Z4.550 F7800.000
G1 E1.03132 F2400.00000
G92 E0
G1 X92.164 Y102.281 F7800.000
G1 E2.00000 F2400.00000
G1 F900
G1 X92.164 Y109.164 E2.18570
G1 X90.836 Y109.164 E2.22155
G1 X90.836 Y102.281 E2.40725
G1 X92.089 Y102.281 E2.44107
G1 X92.725 Y101.720 F7800.000
G1 F900
G1 X92.725 Y109.725 E2.60606
G1 X90.275 Y109.725 E2.65656
G1 X90.275 Y101.720 E2.82154
G1 X92.650 Y101.720 E2.87049
G1 X92.676 Y102.217 F7800.000
G1 X91.500 Y102.598 F7800.000
G1 F1200
G1 X91.500 Y108.847 E3.03723
G1 E1.03723 F2400.00000
G92 E0
G1 X92.164 Y97.719 F7800.000
G1 E2.00000 F2400.00000
G1 F900
G1 X90.836 Y97.719 E2.03585
G1 X90.836 Y90.836 E2.22155
G1 X92.164 Y90.836 E2.25739
G1 X92.164 Y97.644 E2.44107
G1 X92.725 Y98.280 F7800.000
G1 F900
G1 X90.275 Y98.280 E2.49157
G1 X90.275 Y90.275 E2.65656
G1 X92.725 Y90.275 E2.70705
G1 X92.725 Y98.205 E2.87049
G1 X92.269 Y98.074 F7800.000
G1 X91.500 Y97.402 F7800.000
G1 F1200
G1 X91.500 Y91.153 E3.03723
G1 Z4.850 F7800.000
G1 E1.03723 F2400.00000
G92 E0
G1 X92.164 Y102.159 F7800.000
G1 E2.00000 F2400.00000
G1 F900
G1 X92.164 Y109.164 E2.18897
G1 X90.836 Y109.164 E2.22482
G1 X90.836 Y102.159 E2.41379
G1 X92.089 Y102.159 E2.44761
G1 X92.725 Y101.599 F7800.000
G1 F900
G1 X92.725 Y109.725 E2.61510
G1 X90.275 Y109.725 E2.66559
G1 X90.275 Y101.599 E2.83308
G1 X92.650 Y101.599 E2.88203
G1 X92.676 Y102.096 F7800.000
G1 X91.500 Y102.477 F7800.000
G1 F1200
G1 X91.500 Y108.847 E3.05200
G1 E1.05200 F2400.00000
G92 E0
G1 X92.164 Y97.841 F7800.000
G1 E2.00000 F2400.00000
G1 F900
G1 X90.836 Y97.841 E2.03585
G1 X90.836 Y90.836 E2.22482
G1 X92.164 Y90.836 E2.26066
G1 X92.164 Y97.766 E2.44761
G1 X92.725 Y98.401 F7800.000
G1 F900
G1 X90.275 Y98.401 E2.49811
G1 X90.275 Y90.275 E2.66559
G1 X92.725 Y90.275 E2.71609
G1 X92.725 Y98.326 E2.88203
G1 X92.270 Y98.195 F7800.000
G1 X91.500 Y97.523 F7800.000
G1 F1200
G1 X91.500 Y91.153 E3.05200
G1 Z5.150 F7800.000
G1 E1.05200 F2400.00000
G92 E0
G1 X92.164 Y101.949 F7800.000
G1 E2.00000 F2400.00000
G1 F900
G1 X92.164 Y109.164 E2.19463
G1 X90.836 Y109.164 E2.23048
G1 X90.836 Y101.949 E2.42511
G1 X92.089 Y101.949 E2.45893
G1 X92.725 Y101.389 F7800.000
G1 F900
G1 X92.725 Y109.725 E2.63074
G1 X90.275 Y109.725 E2.68124
G1 X90.275 Y101.389 E2.85305
G1 X92.650 Y101.389 E2.90200
G1 X92.677 Y101.887 F7800.000
G1 X91.500 Y102.267 F7800.000
G1 F1200
G1 X91.500 Y108.847 E3.07757
G1 E1.07757 F2400.00000
G92 E0
G1 X92.164 Y98.051 F7800.000
G1 E2.00000 F2400.00000
G1 F900
G1 X90.836 Y98.051 E2.03585
G1 X90.836 Y90.836 E2.23048
G1 X92.164 Y90.836 E2.26632
G1 X92.164 Y97.976 E2.45893
G1 X92.725 Y98.611 F7800.000
G1 F900
G1 X90.275 Y98.611 E2.50943
G1 X90.275 Y90.275 E2.68124
G1 X92.725 Y90.275 E2.73173
G1 X92.725 Y98.536 E2.90200
G1 X92.270 Y98.403 F7800.000
G1 X91.500 Y97.733 F7800.000
G1 F1200
G1 X91.500 Y91.153 E3.07757
M106 S249.9
G1 Z5.450 F7800.000
G1 E1.07757 F2400.00000
G92 E0
G1 X92.164 Y101.584 F7800.000
G1 E2.00000 F2400.00000
G1 F900
G1 X92.164 Y109.164 E2.20450
G1 X90.836 Y109.164 E2.24035
G1 X90.836 Y101.584 E2.44485
G1 X92.089 Y101.584 E2.47867
G1 X92.725 Y101.023 F7800.000
G1 F900
G1 X92.725 Y109.725 E2.65802
G1 X90.275 Y109.725 E2.70852
G1 X90.275 Y101.023 E2.88787
G1 X92.650 Y101.023 E2.93682
G1 X92.679 Y101.521 F7800.000
G1 X91.500 Y101.901 F7800.000
G1 F1200
G1 X91.500 Y108.847 E3.12215
G1 E1.12215 F2400.00000
G92 E0
G1 X92.164 Y98.416 F7800.000
G1 E2.00000 F2400.00000
G1 F900
G1 X90.836 Y98.416 E2.03585
G1 X90.836 Y90.836 E2.24035
G1 X92.164 Y90.836 E2.27619
G1 X92.164 Y98.341 E2.47867
G1 X92.725 Y98.977 F7800.000
G1 F900
G1 X90.275 Y98.977 E2.52917
G1 X90.275 Y90.275 E2.70852
G1 X92.725 Y90.275 E2.75901
G1 X92.725 Y98.902 E2.93682
G1 X92.271 Y98.768 F7800.000
G1 X91.500 Y98.099 F7800.000
G1 F1200
G1 X91.500 Y91.153 E3.12215
M106 S255
G1 Z5.750 F7800.000
G1 X92.164 Y90.836 F7800.000
G1 F1529.89
G1 X92.164 Y99.502 E3.35594
M106 S255

G1 F3600
G1 X92.164 Y100.498 E3.38361
M106 S255

G1 F1529.89
G1 X92.164 Y109.164 E3.61739
G1 X90.836 Y109.164 E3.65324
G1 X90.836 Y100.498 E3.88703
M106 S255

G1 F3600
G1 X90.836 Y99.502 E3.91470
M106 S255

G1 F1529.89
G1 X90.836 Y90.836 E4.14848
G1 X92.089 Y90.836 E4.18231
G1 X92.725 Y90.275 F7800.000
G1 F1800
G1 X92.725 Y99.502 E4.37248
M106 S255

G1 F3600
G1 X92.725 Y100.498 E4.40015
M106 S255

G1 F1800
G1 X92.725 Y109.725 E4.59032
G1 X90.275 Y109.725 E4.64081
G1 X90.275 Y100.498 E4.83098
M106 S255

G1 F3600
G1 X90.275 Y99.502 E4.85865
M106 S255

G1 F1800
G1 X90.275 Y90.275 E5.04882
G1 X92.650 Y90.275 E5.09777
G1 X92.682 Y90.773 F7800.000
G1 X91.500 Y91.153 F7800.000
G1 F600
G1 X91.500 Y108.847 E5.56992
G1 Z6.050 F7800.000
G1 X92.164 Y90.836 F7800.000
G1 F889.37
G1 X92.164 Y109.164 E6.06437
G1 X90.836 Y109.164 E6.10021
G1 X90.836 Y90.836 E6.59466
G1 X92.089 Y90.836 E6.62848
G1 X92.725 Y90.275 F7800.000
G1 F1800
G1 X92.725 Y109.725 E7.02935
G1 X90.275 Y109.725 E7.07985
G1 X90.275 Y90.275 E7.48072
G1 X92.650 Y90.275 E7.52967
G1 X92.704 Y90.775 F7800.000
G1 X91.500 Y91.153 F7800.000
G1 F1185.83
G1 X91.500 Y108.847 E8.00182
G1 Z6.350 F7800.000
G1 X92.164 Y90.836 F7800.000
G1 F889.37
G1 X92.164 Y109.164 E8.49627
G1 X90.836 Y109.164 E8.53211
G1 X90.836 Y90.836 E9.02656
G1 X92.089 Y90.836 E9.06038
G1 X92.725 Y90.275 F7800.000
G1 F1800
G1 X92.725 Y109.725 E9.46125
G1 X90.275 Y109.725 E9.51175
G1 X90.275 Y90.275 E9.91262
G1 X92.650 Y90.275 E9.96157
G1 X92.704 Y90.775 F7800.000
G1 X91.500 Y91.153 F7800.000
G1 F1185.83
G1 X91.500 Y108.847 E10.43372
G1 Z6.650 F7800.000
G1 X92.164 Y90.836 F7800.000
