; HEADER_BLOCK_START
; generated by AnycubicSlicerNext 1.3.5.5 on 2025-07-13 at 19:03:45
; total layer number: 100
; filament_density: 1.24
; filament_diameter: 1.75
; max_z_height: 20.04
; exclude_object: 0
; model_instances: 2
; source_info: {"models":[{"file_source":0,"mo_file_id":-1,"name":"Sled.stl_id_0_copy_0"},{"file_source":0,"mo_file_id":-1,"name":"Sled.stl_id_1_copy_0"}],"models_from":0,"plate_index":1,"slice_paras_process":1,"software_version":"AnycubicSlicerNext 1.3.5.5 20250625193040"}
; HEADER_BLOCK_END

; THUMBNAIL_BLOCK_START
; THUMBNAIL_BLOCK_END

; external perimeters extrusion width = 0.42mm
; perimeters extrusion width = 0.45mm
; infill extrusion width = 0.45mm
; solid infill extrusion width = 0.42mm
; top infill extrusion width = 0.42mm
; first layer extrusion width = 0.50mm

; external perimeters extrusion width = 0.42mm
; perimeters extrusion width = 0.45mm
; infill extrusion width = 0.45mm
; solid infill extrusion width = 0.42mm
; top infill extrusion width = 0.42mm
; first layer extrusion width = 0.50mm

; EXECUTABLE_BLOCK_START
M201 X2000 Y2000 Z800 E2000 ; sets machine_max_acceleration_x, y, z, e (mm/sec^2)
M203 X300 Y300 Z8 E100 ; sets machine_max_speed_x, y, z, e (mm/sec)
M204 P2000 R2000 T2000 ; sets machine_max_acceleration(mm/sec^2) M204 P[print] R[retract] T[travel]
M205 X10.00 Y10.00 Z2.00 E5.00 ; sets the jerk limits, mm/sec
;TYPE:Custom
G90 ; use absolute coordinates
M83 ; extruder relative mode
M104 S220 ; set extruder temp
M140 S60 ; set bed temp
M190 S60 ; wait for bed temp
M109 S220 ; wait for extruder temp
G28                                        ; move X/Y/Z to min endstops
G1 Z0.28                                   ; lift nozzle a bit 
G92 E0 
G1 Y3 F1800                                    ; zero the extruded length 
G1 X60  E25 F500                       ; Extrude 25mm of filament in a 5cm line. 
G92 E0                                     ; zero the extruded length again 
G1 E-2 F500                                ; Retract a little 
G1 X70 F4000                              ; Quickly wipe away from the filament line
M117
G90
G21
M83 ; use relative distances for extrusion
; filament start gcode
M106 S0
;LAYER_CHANGE
;Z:0.24
;HEIGHT:0.24
; BEFORE_LAYER_CHANGE 0 @ 0.24mm
G92 E0
G1 E-2.5 F6000
; AFTER_LAYER_CHANGE 0 @ 0.24mm
M204 P500
; printing object "Sled.stl" id:0 copy 0
G1 X119.174 Y99.077 F18000
G1 Z.24
G1 E2.5 F6000
;TYPE:Brim
;WIDTH:0.5
G1 F1200
G1 X119.587 Y98.599 E.02745
G1 X120.298 Y98.025 E.03964
G1 X120.848 Y97.709 E.02755
G1 X121.441 Y97.478 E.02761
G1 X124.67 Y96.737 E.14382
G1 X125.307 Y96.643 E.02794
G1 X125.943 Y96.644 E.02763
G1 X126.531 Y96.73 E.0258
G1 X127.148 Y96.896 E.02774
G1 X127.73 Y97.152 E.02759
G1 X128.268 Y97.491 E.02759
G1 X128.746 Y97.904 E.02744
G1 X129.333 Y98.633 E.04061
G1 X129.459 Y98.711 E.00641
G1 X129.557 Y98.711 E.00428
G1 X135.084 Y97.465 E.24594
G1 X135.722 Y97.371 E.02796
G1 X136.358 Y97.372 E.02763
G1 X136.946 Y97.457 E.0258
G1 X137.563 Y97.624 E.02774
G1 X138.145 Y97.88 E.02759
G1 X138.683 Y98.219 E.02759
G1 X139.162 Y98.633 E.0275
G1 X139.675 Y99.254 E.03495
G1 X140.051 Y99.894 E.03225
G1 X140.284 Y100.489 E.02772
G1 X140.366 Y100.8 E.01397
G1 X141.023 Y103.715 E.12968
G1 X141.117 Y104.352 E.02796
G1 X141.116 Y104.988 E.02763
G1 X141.03 Y105.576 E.0258
G1 X140.864 Y106.193 E.02774
G1 X140.608 Y106.775 E.02759
G1 X140.269 Y107.313 E.02759
G1 X139.855 Y107.792 E.0275
G1 X139.234 Y108.305 E.03495
G1 X138.594 Y108.682 E.03225
G1 X138.002 Y108.912 E.02756
G1 X134.408 Y109.735 E.16005
G1 X134.283 Y109.814 E.00641
G1 X134.24 Y110.003 E.00844
G1 X136.957 Y122.058 E.53639
G1 X137.051 Y122.695 E.02796
G1 X137.049 Y123.332 E.02768
G1 X136.986 Y123.804 E.02066
G1 X136.797 Y124.537 E.03288
G1 X136.542 Y125.118 E.02754
G1 X136.203 Y125.656 E.02759
G1 X135.814 Y126.107 E.02585
G1 X135.759 Y126.253 E.00677
G1 X135.758 Y126.698 E.01931
G1 X135.673 Y127.286 E.0258
G1 X135.506 Y127.902 E.02774
G1 X135.25 Y128.485 E.02759
G1 X134.911 Y129.022 E.02759
G1 X134.497 Y129.502 E.0275
G1 X133.876 Y130.014 E.03495
G1 X133.236 Y130.391 E.03225
G1 X132.641 Y130.623 E.02772
G1 X132.33 Y130.706 E.01397
G1 X129.416 Y131.362 E.12968
G1 X128.778 Y131.457 E.02796
G1 X128.141 Y131.455 E.02768
G1 X127.669 Y131.392 E.02066
G1 X126.936 Y131.203 E.03288
G1 X126.355 Y130.948 E.02754
G1 X125.817 Y130.608 E.02759
G1 X125.338 Y130.194 E.0275
G1 X124.825 Y129.574 E.03495
G1 X124.449 Y128.933 E.03225
G1 X124.405 Y128.823 E.00515
G1 X124.287 Y128.699 E.00745
G1 X123.744 Y128.461 E.02572
G1 X123.207 Y128.122 E.02759
G1 X122.727 Y127.708 E.0275
G1 X122.215 Y127.087 E.03495
G1 X121.838 Y126.446 E.03225
G1 X121.606 Y125.851 E.02772
G1 X121.523 Y125.54 E.01397
G1 X117.129 Y106.042 E.86762
G1 X117.034 Y105.405 E.02796
G1 X117.036 Y104.767 E.02768
G1 X117.099 Y104.295 E.02066
G1 X117.288 Y103.562 E.03288
G1 X117.543 Y102.981 E.02754
G1 X117.882 Y102.444 E.02759
G1 X118.272 Y101.993 E.02585
G1 X118.326 Y101.847 E.00677
G1 X118.327 Y101.402 E.01931
G1 X118.412 Y100.814 E.0258
G1 X118.579 Y100.197 E.02774
G1 X118.835 Y99.615 E.02759
G1 X119.153 Y99.111 E.02586
G1 X119.53 Y99.354 F18000
G1 F1200
G1 X119.892 Y98.932 E.02414
G1 X120.561 Y98.391 E.03732
G1 X121.052 Y98.111 E.02453
G1 X121.583 Y97.906 E.02471
G1 X124.758 Y97.177 E.14143
G1 X125.329 Y97.093 E.02505
G1 X125.901 Y97.093 E.02481
G1 X126.448 Y97.172 E.024
G1 X126.989 Y97.318 E.02432
G1 X127.528 Y97.554 E.02554
G1 X127.992 Y97.847 E.02381
G1 X128.413 Y98.209 E.02413
G1 X128.977 Y98.905 E.03888
G1 X129.106 Y99.019 E.00747
G1 X129.206 Y99.081 E.0051
G1 X129.474 Y99.158 E.01209
G1 X129.666 Y99.146 E.00839
G1 X135.162 Y97.907 E.24453
G1 X135.744 Y97.821 E.02556
G1 X136.316 Y97.821 E.02481
G1 X136.863 Y97.9 E.024
G1 X137.404 Y98.046 E.02432
G1 X137.925 Y98.273 E.02468
G1 X138.423 Y98.587 E.02554
G1 X138.848 Y98.956 E.02445
G1 X139.299 Y99.504 E.0308
G1 X139.651 Y100.101 E.03006
G1 X139.854 Y100.622 E.02427
G1 X139.931 Y100.91 E.01295
G1 X140.581 Y103.792 E.12826
G1 X140.667 Y104.374 E.02556
G1 X140.667 Y104.946 E.02481
G1 X140.588 Y105.493 E.024
G1 X140.442 Y106.034 E.02432
G1 X140.215 Y106.555 E.02468
G1 X139.913 Y107.037 E.02468
G1 X139.548 Y107.462 E.02434
G1 X138.984 Y107.93 E.03178
G1 X138.407 Y108.271 E.02914
G1 X137.86 Y108.485 E.02545
G1 X134.319 Y109.296 E.1577
G1 X134.057 Y109.427 E.01273
G1 X133.913 Y109.565 E.00866
G1 X133.843 Y109.725 E.00758
G1 X133.806 Y109.888 E.00724
G1 X133.805 Y110.117 E.00993
G1 X136.514 Y122.135 E.53478
G1 X136.602 Y122.737 E.02642
G1 X136.601 Y123.293 E.02413
G1 X136.546 Y123.71 E.01824
G1 X136.374 Y124.38 E.03002
G1 X136.139 Y124.916 E.02541
G1 X135.847 Y125.38 E.02381
G1 X135.482 Y125.804 E.02431
G1 X135.389 Y125.961 E.0079
G1 X135.343 Y126.085 E.00573
G1 X135.31 Y126.264 E.0079
G1 X135.308 Y126.674 E.01782
G1 X135.231 Y127.202 E.02318
G1 X135.084 Y127.743 E.02432
G1 X134.857 Y128.264 E.02468
G1 X134.543 Y128.762 E.02554
G1 X134.174 Y129.187 E.02445
G1 X133.626 Y129.639 E.0308
G1 X133.029 Y129.99 E.03006
G1 X132.509 Y130.193 E.02427
G1 X132.221 Y130.27 E.01295
G1 X129.338 Y130.92 E.12826
G1 X128.756 Y131.007 E.02556
G1 X128.18 Y131.007 E.025
G1 X127.763 Y130.952 E.01824
G1 X127.093 Y130.78 E.03002
G1 X126.575 Y130.555 E.02454
G1 X126.093 Y130.252 E.02468
G1 X125.652 Y129.871 E.02532
G1 X125.201 Y129.324 E.0308
G1 X124.833 Y128.68 E.03216
G1 X124.72 Y128.503 E.00915
G1 X124.619 Y128.398 E.0063
G1 X124.455 Y128.283 E.00872
G1 X123.947 Y128.058 E.02412
G1 X123.483 Y127.766 E.02381
G1 X123.057 Y127.4 E.02434
G1 X122.59 Y126.837 E.03178
G1 X122.239 Y126.24 E.03006
G1 X122.036 Y125.719 E.02427
G1 X121.958 Y125.431 E.01295
G1 X117.571 Y105.965 E.8662
G1 X117.484 Y105.382 E.02556
G1 X117.484 Y104.806 E.025
G1 X117.539 Y104.39 E.01824
G1 X117.718 Y103.699 E.03095
G1 X117.946 Y103.184 E.02448
G1 X118.238 Y102.72 E.02381
G1 X118.603 Y102.295 E.02431
G1 X118.696 Y102.139 E.0079
G1 X118.742 Y102.015 E.00573
G1 X118.775 Y101.836 E.0079
G1 X118.777 Y101.425 E.01782
G1 X118.851 Y100.913 E.02248
G1 X119.007 Y100.337 E.02589
G1 X119.237 Y99.817 E.02468
G1 X119.509 Y99.387 E.02207
G1 X119.886 Y99.629 F18000
G1 F1200
G1 X120.198 Y99.264 E.02083
G1 X120.824 Y98.757 E.03496
G1 X121.254 Y98.514 E.02146
G1 X121.724 Y98.333 E.02183
G1 X124.836 Y97.62 E.13861
G1 X125.353 Y97.543 E.02266
G1 X125.878 Y97.543 E.02282
G1 X126.365 Y97.614 E.02136
G1 X126.83 Y97.74 E.0209
G1 X127.325 Y97.957 E.0235
G1 X127.716 Y98.204 E.02005
G1 X128.081 Y98.515 E.02083
G1 X128.622 Y99.179 E.03716
G1 X128.874 Y99.402 E.01464
G1 X129.095 Y99.516 E.01079
G1 X129.339 Y99.586 E.01101
G1 X129.511 Y99.605 E.00752
G1 X129.774 Y99.581 E.01143
G1 X135.239 Y98.35 E.2432
G1 X135.768 Y98.271 E.02318
G1 X136.274 Y98.269 E.02198
G1 X136.764 Y98.338 E.02149
G1 X137.245 Y98.468 E.02164
G1 X137.705 Y98.666 E.02174
G1 X138.146 Y98.942 E.02257
G1 X138.533 Y99.279 E.02226
G1 X138.936 Y99.771 E.02762
G1 X139.25 Y100.307 E.02696
G1 X139.424 Y100.755 E.02085
G1 X139.496 Y101.02 E.01192
G1 X140.138 Y103.869 E.12681
G1 X140.217 Y104.398 E.02318
G1 X140.219 Y104.904 E.02198
G1 X140.15 Y105.394 E.02149
G1 X140.02 Y105.876 E.02164
G1 X139.821 Y106.336 E.02178
G1 X139.556 Y106.761 E.02176
G1 X139.24 Y107.132 E.02117
G1 X138.733 Y107.555 E.02862
G1 X138.219 Y107.861 E.026
G1 X137.718 Y108.057 E.02333
G1 X134.227 Y108.857 E.15549
G1 X134.112 Y108.898 E.0053
G1 X133.866 Y109.021 E.01194
G1 X133.738 Y109.111 E.00681
G1 X133.611 Y109.233 E.00764
G1 X133.498 Y109.396 E.0086
G1 X133.405 Y109.631 E.01097
G1 X133.358 Y109.896 E.01167
G1 X133.371 Y110.227 E.0144
G1 X136.072 Y122.212 E.53328
G1 X136.154 Y122.779 E.02489
G1 X136.153 Y123.255 E.02064
G1 X136.106 Y123.617 E.01584
G1 X135.952 Y124.222 E.02714
G1 X135.737 Y124.714 E.02327
G1 X135.48 Y125.119 E.02082
G1 X135.092 Y125.584 E.02629
G1 X134.967 Y125.811 E.01127
G1 X134.9 Y126.014 E.00926
G1 X134.871 Y126.173 E.00704
G1 X134.858 Y126.649 E.02069
G1 X134.789 Y127.119 E.02059
G1 X134.663 Y127.585 E.02096
G1 X134.464 Y128.045 E.02174
G1 X134.188 Y128.485 E.02257
G1 X133.851 Y128.872 E.02226
G1 X133.359 Y129.276 E.02762
G1 X132.823 Y129.589 E.02696
G1 X132.375 Y129.764 E.02085
G1 X132.11 Y129.835 E.01192
G1 X129.261 Y130.478 E.12681
G1 X128.732 Y130.557 E.02318
G1 X128.218 Y130.558 E.02233
G1 X127.857 Y130.512 E.01582
G1 X127.25 Y130.357 E.02718
G1 X126.776 Y130.151 E.02242
G1 X126.353 Y129.884 E.02173
G1 X125.967 Y129.548 E.02223
G1 X125.578 Y129.077 E.0265
G1 X125.102 Y128.268 E.04075
G1 X124.948 Y128.094 E.01009
G1 X124.719 Y127.921 E.01245
G1 X124.165 Y127.664 E.02651
G1 X123.758 Y127.409 E.02084
G1 X123.387 Y127.092 E.02119
G1 X122.965 Y126.587 E.02859
G1 X122.64 Y126.033 E.02786
G1 X122.465 Y125.586 E.02085
G1 X122.393 Y125.321 E.01192
G1 X118.013 Y105.887 E.86475
G1 X117.934 Y105.359 E.02318
G1 X117.933 Y104.844 E.02233
G1 X117.979 Y104.484 E.01579
G1 X118.147 Y103.837 E.029
G1 X118.348 Y103.387 E.02141
G1 X118.605 Y102.981 E.02086
G1 X118.993 Y102.516 E.02629
G1 X119.118 Y102.289 E.01127
G1 X119.185 Y102.086 E.00926
G1 X119.214 Y101.926 E.00704
G1 X119.225 Y101.466 E.02
G1 X119.29 Y101.012 E.01989
G1 X119.436 Y100.478 E.02403
G1 X119.639 Y100.02 E.02175
G1 X119.865 Y99.663 E.01835
G1 X120.245 Y99.904 F18000
G1 F1200
G1 X120.255 Y99.888 E.00082
G1 X120.504 Y99.596 E.01668
G1 X121.087 Y99.124 E.03257
G1 X121.456 Y98.917 E.01835
G1 X121.864 Y98.761 E.01898
G1 X124.914 Y98.062 E.13584
G1 X125.396 Y97.991 E.02112
G1 X125.855 Y97.993 E.01995
G1 X126.266 Y98.053 E.01801
G1 X126.671 Y98.161 E.01819
G1 X127.123 Y98.36 E.02145
G1 X127.457 Y98.572 E.01718
G1 X127.75 Y98.822 E.01672
G1 X128.331 Y99.52 E.03942
G1 X128.68 Y99.806 E.0196
G1 X128.983 Y99.951 E.01457
G1 X129.207 Y100.015 E.01012
G1 X129.453 Y100.049 E.01079
G1 X129.882 Y100.017 E.01868
G1 X135.317 Y98.792 E.24185
G1 X135.792 Y98.721 E.02084
G1 X136.233 Y98.718 E.01916
G1 X136.666 Y98.778 E.01896
G1 X137.088 Y98.89 E.01896
G1 X137.487 Y99.06 E.01882
G1 X137.869 Y99.298 E.01954
G1 X138.217 Y99.601 E.02004
G1 X138.572 Y100.037 E.02441
G1 X138.849 Y100.513 E.02388
G1 X138.995 Y100.888 E.0175
G1 X139.061 Y101.13 E.01089
G1 X139.696 Y103.947 E.12534
G1 X139.767 Y104.422 E.02084
G1 X139.77 Y104.863 E.01916
G1 X139.71 Y105.296 E.01896
G1 X139.598 Y105.718 E.01896
G1 X139.427 Y106.118 E.01888
G1 X139.199 Y106.487 E.01884
G1 X138.931 Y106.804 E.018
G1 X138.482 Y107.181 E.02545
G1 X138.031 Y107.451 E.02283
G1 X137.576 Y107.63 E.02119
G1 X134.133 Y108.418 E.15333
G1 X133.966 Y108.474 E.00764
G1 X133.674 Y108.615 E.01408
G1 X133.421 Y108.794 E.01347
G1 X133.239 Y108.984 E.01142
G1 X133.078 Y109.241 E.01318
G1 X132.962 Y109.563 E.01485
G1 X132.918 Y109.809 E.01086
G1 X132.936 Y110.337 E.02289
G1 X135.629 Y122.288 E.53181
G1 X135.705 Y122.821 E.02336
G1 X135.704 Y123.217 E.01721
G1 X135.663 Y123.54 E.01414
G1 X135.529 Y124.065 E.02353
G1 X135.344 Y124.493 E.02022
G1 X135.112 Y124.859 E.01879
G1 X134.694 Y125.377 E.02889
G1 X134.538 Y125.681 E.01485
G1 X134.431 Y126.085 E.01815
G1 X134.411 Y126.604 E.02254
G1 X134.35 Y127.019 E.01821
G1 X134.234 Y127.445 E.01918
G1 X134.06 Y127.844 E.01888
G1 X133.832 Y128.208 E.01866
G1 X133.529 Y128.556 E.02004
G1 X133.093 Y128.912 E.02441
G1 X132.636 Y129.179 E.02296
G1 X132.242 Y129.334 E.01841
G1 X129.183 Y130.035 E.1362
G1 X128.708 Y130.107 E.02086
G1 X128.255 Y130.11 E.01968
G1 X127.949 Y130.072 E.01337
G1 X127.406 Y129.934 E.02431
G1 X126.996 Y129.758 E.01938
G1 X126.614 Y129.516 E.01963
G1 X126.282 Y129.225 E.01915
G1 X125.954 Y128.827 E.02242
G1 X125.494 Y128.05 E.0392
G1 X125.291 Y127.805 E.01379
G1 X124.998 Y127.57 E.01633
G1 X124.385 Y127.272 E.02958
G1 X124.033 Y127.052 E.01801
G1 X123.716 Y126.783 E.01805
G1 X123.34 Y126.336 E.02535
G1 X123.04 Y125.827 E.02564
G1 X122.894 Y125.452 E.01747
G1 X122.828 Y125.21 E.01089
G1 X118.455 Y105.809 E.86328
G1 X118.384 Y105.335 E.02084
G1 X118.381 Y104.881 E.01968
G1 X118.419 Y104.578 E.01328
G1 X118.576 Y103.976 E.02699
G1 X118.74 Y103.608 E.01748
G1 X118.964 Y103.253 E.01821
G1 X119.331 Y102.812 E.02492
G1 X119.506 Y102.513 E.01504
G1 X119.627 Y102.158 E.01628
G1 X119.663 Y101.929 E.01007
G1 X119.674 Y101.495 E.01882
G1 X119.729 Y101.112 E.01683
G1 X119.857 Y100.639 E.02124
G1 X120.041 Y100.224 E.01972
G1 X120.223 Y99.938 E.01472
G1 X120.602 Y100.179 F18000
G1 F1200
G1 X120.611 Y100.163 E.00078
G1 X120.81 Y99.928 E.01339
G1 X121.35 Y99.491 E.03014
G1 X121.656 Y99.32 E.01519
G1 X122.004 Y99.189 E.01615
G1 X124.992 Y98.504 E.13308
G1 X125.418 Y98.441 E.01869
G1 X125.812 Y98.441 E.01713
G1 X126.167 Y98.491 E.01555
G1 X126.512 Y98.583 E.01547
G1 X126.92 Y98.762 E.01936
G1 X127.182 Y98.928 E.01346
G1 X127.421 Y99.131 E.0136
G1 X127.979 Y99.798 E.03775
G1 X128.39 Y100.148 E.02346
G1 X128.493 Y100.214 E.00529
G1 X128.868 Y100.384 E.01788
G1 X129.153 Y100.46 E.0128
G1 X129.377 Y100.491 E.00984
G1 X129.991 Y100.452 E.02669
G1 X135.395 Y99.234 E.24047
G1 X135.817 Y99.17 E.01854
G1 X136.194 Y99.166 E.01636
G1 X136.569 Y99.217 E.01643
G1 X136.932 Y99.312 E.01628
G1 X137.269 Y99.455 E.0159
G1 X137.61 Y99.667 E.0174
G1 X137.901 Y99.923 E.01684
G1 X138.208 Y100.302 E.02117
G1 X138.447 Y100.718 E.02081
G1 X138.566 Y101.023 E.01422
G1 X138.627 Y101.242 E.00987
G1 X139.254 Y104.025 E.12384
G1 X139.318 Y104.447 E.01853
G1 X139.322 Y104.824 E.01636
G1 X139.271 Y105.199 E.01643
G1 X139.176 Y105.562 E.01628
G1 X139.032 Y105.901 E.016
G1 X138.84 Y106.214 E.01593
G1 X138.62 Y106.476 E.01484
G1 X138.211 Y106.82 E.0232
G1 X137.822 Y107.052 E.01967
G1 X137.434 Y107.202 E.01806
G1 X134.04 Y107.979 E.15114
G1 X133.765 Y108.073 E.01262
G1 X133.409 Y108.254 E.01732
G1 X133.091 Y108.491 E.01721
G1 X132.854 Y108.754 E.01538
G1 X132.651 Y109.101 E.01747
G1 X132.543 Y109.402 E.01389
G1 X132.477 Y109.725 E.01428
G1 X132.501 Y110.446 E.03134
G1 X135.187 Y122.364 E.53029
G1 X135.257 Y122.862 E.02182
G1 X135.256 Y123.18 E.0138
G1 X135.219 Y123.464 E.01245
G1 X135.106 Y123.91 E.01996
G1 X134.94 Y124.291 E.01807
G1 X134.742 Y124.603 E.01604
G1 X134.353 Y125.085 E.02691
G1 X134.144 Y125.465 E.01881
G1 X134.001 Y125.96 E.02236
G1 X133.963 Y126.569 E.02649
G1 X133.908 Y126.935 E.01605
G1 X133.813 Y127.287 E.01582
