; HEADER_BLOCK_START
; generated by AnycubicSlicerNext 1.3.3.1 on 2025-03-08 at 14:28:45
; total layer number: 97
; filament_density: 1.24
; filament_diameter: 1.75
; max_z_height: 19.44
; exclude_object: 0
; model_instances: 1
; HEADER_BLOCK_END

; THUMBNAIL_BLOCK_START
; THUMBNAIL_BLOCK_END

; external perimeters extrusion width = 0.42mm
; perimeters extrusion width = 0.45mm
; infill extrusion width = 0.45mm
; solid infill extrusion width = 0.42mm
; top infill extrusion width = 0.42mm
; support material extrusion width = 0.40mm
; first layer extrusion width = 0.50mm

; EXECUTABLE_BLOCK_START
M201 X2000 Y2000 Z800 E2000
M203 X300 Y300 Z8 E100
M204 P2000 R2000 T2000
M205 X10.00 Y10.00 Z2.00 E5.00 ; sets the jerk limits, mm/sec
;TYPE:Custom
G90 ; use absolute coordinates
M83 ; extruder relative mode
M104 S220 ; set extruder temp
M140 S60 ; set bed temp
M190 S60 ; wait for bed temp
M109 S220 ; wait for extruder temp
G28                                        ; move X/Y/Z to min endstops
G1 Z0.28                                   ; lift nozzle a bit 
G92 E0 
G1 Y3 F1800                                    ; zero the extruded length 
G1 X60  E25 F500                       ; Extrude 25mm of filament in a 5cm line. 
G92 E0                                     ; zero the extruded length again 
G1 E-2 F500                                ; Retract a little 
G1 X70 F4000                              ; Quickly wipe away from the filament line
M117
G90
G21
M83 ; use relative distances for extrusion
; filament start gcode
M106 S0
;LAYER_CHANGE
;Z:0.24
;HEIGHT:0.24
; BEFORE_LAYER_CHANGE 0 @ 0.24mm
G92 E0
G1 E-2.5 F6000
; AFTER_LAYER_CHANGE 0 @ 0.24mm
M204 P500
; printing object "Cyclo4Receiver.stl" id:1501061700864 copy 0
M204 T500
G1 X112.108 Y80.762 F18000
G1 Z.24
G1 E2.5 F6000
;TYPE:Support
;WIDTH:0.5
;MM3_PER_MM:0.107639
G1 F3000
G3 X116.098 Y82.699 I-.216 J5.524 E.19814
G3 X122.609 Y84.309 I2.228 J4.961 E.31373
G3 X127.829 Y88.276 I-.126 J5.583 E.30414
G3 X132.763 Y94.314 I-.492 J5.437 E.37698
G3 X136.785 Y100.611 I-1.376 J5.312 E.35678
G3 X138.284 Y106.011 I-3.429 J3.86 E.25715
G3 X137.763 Y112.87 I-4.293 J3.124 E.32485
G3 X136.565 Y118.091 I-4.285 J1.764 E.24791
G3 X134.205 Y124.955 I-4.903 J2.152 E.34623
G3 X129.69 Y130.087 I-5.578 J-.356 E.31923
G3 X123.952 Y134.482 I-5.279 J-.949 E.34427
G3 X117.857 Y137.362 I-4.969 J-2.626 E.3138
G3 X109.964 Y137.059 I-3.802 J-3.903 E.38352
G3 X100.847 Y135.426 I-4.064 J-3.581 E.48229
G3 X92.881 Y132.093 I-2.654 J-4.842 E.43037
G3 X87.613 Y125.856 I-.04 J-5.31 E.40422
G3 X84.513 Y117.068 I.868 J-5.247 E.49305
G3 X82.672 Y110.584 I1.73 J-3.995 E.33463
G3 X83.372 Y102.084 I3.648 J-3.978 E.4268
G3 X87.654 Y94.887 I4.984 J-1.908 E.41801
G3 X92.766 Y87.768 I5.279 J-1.604 E.43958
G3 X99.858 Y84.364 I5.099 J1.534 E.38423
G3 X107.479 Y83.19 I4.272 J2.411 E.38509
G3 X112.041 Y80.759 I4.47 J2.892 E.23427
G1 X109.673 Y84.698 F18000
G1 F3000
G3 X109.605 Y84.699 I.346 J25.301 E6.89855
G1 E-1.75 F6000
;WIPE_START
G1 F3000
G1 X108.607 Y84.763 E-.75
;WIPE_END
G1 X138.903 Y110.533 F18000
G1 E2.5 F6000
G1 F3000
G2 X138.405 Y106.993 I-8.235 J-.646 E.15643
G1 X138.405 Y111.274 E.18582
G3 X137.906 Y112.089 I-2.495 J-.965 E.0417
G1 X137.906 Y103.071 E.39144
G2 X137.408 Y101.938 I-6.609 J2.231 E.05379
G1 X137.408 Y116.241 E.62085
G3 X136.91 Y117.125 I-6.664 J-3.173 E.0441
G1 X136.91 Y100.997 E.7001
G1 X136.411 Y122.249 F18000
G1 F3000
G1 X136.411 Y118.842 E.14793
G2 X136.06 Y117.971 I-2.574 J.534 E.04096
G1 X136.411 Y117.699 E.0193
G1 X136.411 Y98.527 E.83223
G2 X135.913 Y97.164 I-4.005 J.692 E.06334
G1 X135.913 Y122.801 E1.11287
G3 X135.415 Y123.485 I-2.135 J-1.032 E.03693
G1 X135.415 Y113.868 E.41747
G3 X134.916 Y116.323 I-26.024 J-4.003 E.1088
G1 X134.916 Y123.962 E.33158
G3 X134.418 Y124.331 I-1.266 J-1.189 E.02705
G1 X134.411 Y118.064 E.27201
G3 X133.92 Y119.418 I-34.631 J-11.79 E.06251
G1 X133.82 Y124.726 E.23042
G3 X133.421 Y126.714 I-5.827 J-.134 E.0885
G1 X133.421 Y120.599 E.26547
G3 X132.923 Y121.638 I-34.215 J-15.767 E.05003
G1 X132.923 Y127.615 E.25946
G3 X132.425 Y128.229 I-1.941 J-1.066 E.03451
G1 X132.425 Y122.568 E.24576
G3 X131.926 Y123.42 I-20.631 J-11.485 E.04288
G1 X131.926 Y128.696 E.22902
G1 X131.428 Y129.025 E.02592
G1 X131.428 Y124.202 E.20938
G3 X130.93 Y124.926 I-19.243 J-12.702 E.03817
G1 X130.93 Y129.286 E.18926
G1 X130.431 Y129.499 E.02352
G1 X130.431 Y125.602 E.16917
G3 X129.933 Y126.233 I-15.734 J-11.923 E.03489
G1 X129.933 Y129.617 E.14691
G1 X129.435 Y129.731 E.02219
G1 X129.435 Y126.828 E.126
G3 X128.936 Y127.387 I-53.857 J-47.54 E.0325
G1 X128.936 Y131.138 E.16285
G3 X128.438 Y132.019 I-2.677 J-.932 E.04418
G1 X128.438 Y127.915 E.17819
G3 X127.94 Y128.413 I-31.501 J-31.013 E.03059
G1 X127.94 Y132.622 E.1827
G3 X127.441 Y133.08 I-1.513 J-1.144 E.02956
G1 X127.441 Y128.887 E.18204
G3 X126.943 Y129.334 I-13.984 J-15.079 E.02907
G1 X126.943 Y133.409 E.1769
G3 X126.445 Y133.664 I-.95 J-1.246 E.02442
G1 X126.445 Y129.758 E.16955
G3 X125.946 Y130.163 I-9.712 J-11.44 E.02788
G1 X125.946 Y133.875 E.16115
G1 X125.448 Y133.989 E.02219
G1 X125.448 Y130.549 E.14933
G3 X124.95 Y130.914 I-11.916 J-15.761 E.02681
G1 X124.95 Y134.076 E.13729
G1 X124.452 Y134.099 E.02165
G1 X124.452 Y131.261 E.12319
G3 X123.953 Y131.59 I-8.795 J-12.783 E.02592
G1 X123.953 Y134.074 E.10786
G1 X123.715 Y134.042 E.01042
G1 X123.455 Y134.582 E.02603
G1 X123.455 Y131.905 E.11621
G3 X122.957 Y132.204 I-9.497 J-15.307 E.02521
G1 X122.957 Y135.311 E.13491
G3 X122.458 Y135.822 I-1.657 J-1.118 E.03115
G1 X122.458 Y132.486 E.14483
G3 X121.96 Y132.757 I-9.246 J-16.426 E.02462
G1 X121.96 Y136.217 E.1502
G3 X121.462 Y136.537 I-1.131 J-1.214 E.02584
G1 X121.411 Y133.037 E.15195
G3 X120.963 Y133.253 I-8.847 J-17.737 E.0216
G1 X120.963 Y136.75 E.15178
G3 X120.465 Y136.918 I-.713 J-1.29 E.02295
G1 X120.451 Y133.488 E.14888
G3 X119.967 Y133.696 I-8.504 J-19.18 E.02288
G1 X119.967 Y137.032 E.14481
G3 X119.468 Y137.079 I-.38 J-1.35 E.02185
G1 X119.468 Y133.9 E.13798
G3 X118.97 Y134.091 I-5.389 J-13.35 E.02316
G1 X118.97 Y137.101 E.13069
G3 X118.472 Y137.038 I-.074 J-1.405 E.02192
G1 X118.472 Y134.272 E.12006
G3 X117.973 Y134.44 I-15.362 J-44.702 E.02283
G1 X117.973 Y136.97 E.10983
G2 X117.475 Y137.169 I-.17 J.298 E.02673
G1 X117.475 Y134.596 E.1117
G3 X116.977 Y134.743 I-4.256 J-13.532 E.02255
G1 X116.977 Y137.605 E.12425
G1 X116.478 Y137.934 E.02592
G1 X116.478 Y134.877 E.13271
G3 X115.98 Y135.003 I-4.441 J-16.516 E.02231
G1 X115.98 Y138.17 E.1375
G3 X115.482 Y138.366 I-.79 J-1.275 E.02337
G1 X115.482 Y135.115 E.14113
G3 X114.983 Y135.22 I-3.119 J-13.64 E.0221
G1 X114.983 Y138.48 E.14153
G3 X114.485 Y138.553 I-.451 J-1.336 E.02198
G1 X114.485 Y135.312 E.1407
G3 X113.987 Y135.397 I-3.629 J-19.811 E.02194
G1 X113.987 Y138.576 E.13799
G3 X113.488 Y138.538 I-.144 J-1.392 E.02181
G1 X113.488 Y135.47 E.13314
G3 X112.99 Y135.534 I-8.268 J-63.145 E.02181
G1 X112.99 Y138.47 E.12746
G3 X112.492 Y138.316 I.176 J-1.45 E.02277
G1 X112.492 Y135.585 E.11852
G3 X111.993 Y135.63 I-1.492 J-13.79 E.02172
G1 X111.993 Y138.129 E.10846
G1 X111.495 Y137.86 E.02456
G1 X111.495 Y135.664 E.09534
G3 X110.997 Y135.688 I-.954 J-14.769 E.02166
G1 X110.997 Y137.505 E.07887
G3 X110.498 Y137.057 I.986 J-1.597 E.02925
G1 X110.47 Y135.704 E.05874
G3 X110 Y135.708 I-.398 J-18.745 E.02042
G1 X110 Y136.486 E.03379
G1 X109.502 Y136.944 E.02937
G1 X109.502 Y135.701 E.05394
G3 X109.003 Y135.689 I.177 J-16.698 E.02164
G1 X109.003 Y137.423 E.0753
G3 X108.505 Y137.773 I-1.22 J-1.207 E.02657
G1 X108.505 Y135.664 E.09154
G1 X108.007 Y135.629 E.02168
G1 X108.007 Y138.057 E.1054
G1 X107.508 Y138.274 E.02358
G1 X107.508 Y135.586 E.11665
G3 X107.01 Y135.533 I1.467 J-16.028 E.02176
G1 X107.01 Y138.411 E.12493
G3 X106.512 Y138.521 I-.554 J-1.325 E.02227
G1 X106.512 Y135.469 E.1325
G3 X106.013 Y135.397 I2.134 J-16.581 E.02186
G1 X106.013 Y138.547 E.13674
G3 X105.515 Y138.545 I-.244 J-1.379 E.02175
G1 X105.515 Y135.312 E.14033
G3 X105.017 Y135.22 I2.277 J-13.671 E.022
G1 X105.017 Y138.481 E.14158
G3 X104.518 Y138.366 I.07 J-1.434 E.02233
G1 X104.518 Y135.116 E.14106
G3 X104.02 Y135.001 I2.916 J-13.807 E.0222
G1 X104.02 Y138.208 E.1392
G3 X103.522 Y137.96 I.436 J-1.498 E.0243
G1 X103.522 Y134.878 E.13376
G3 X103.023 Y134.743 I13.915 J-52.388 E.02241
G1 X103.023 Y137.659 E.12657
G1 X102.525 Y137.268 E.02749
G1 X102.525 Y134.597 E.11595
G3 X102.027 Y134.439 I6.091 J-19.977 E.0227
G1 X102.027 Y136.725 E.09924
G3 X101.528 Y135.978 I1.798 J-1.739 E.03919
G1 X101.528 Y134.271 E.07407
G3 X101.03 Y134.092 I5.381 J-15.7 E.023
G1 X101.03 Y134.909 E.03549
G1 X100.532 Y135.122 E.02352
G1 X100.532 Y133.899 E.05308
G3 X100.033 Y133.698 I7.761 J-19.904 E.02334
G1 X100.033 Y135.335 E.07107
G3 X99.535 Y135.535 I-.802 J-1.273 E.02344
G1 X99.535 Y133.482 E.08915
G3 X99.037 Y133.252 I8.903 J-20.004 E.02381
G1 X99.037 Y135.649 E.10403
G3 X98.538 Y135.726 I-.462 J-1.335 E.02201
G1 X98.538 Y133.011 E.11784
G3 X98.04 Y132.755 I7.487 J-15.142 E.02434
G1 X98.04 Y135.748 E.12996
G3 X97.542 Y135.714 I-.155 J-1.391 E.0218
G1 X97.542 Y132.486 E.14012
G3 X97.043 Y132.204 I10.976 J-20.003 E.02485
G1 X97.043 Y135.646 E.14941
G3 X96.545 Y135.496 I.165 J-1.449 E.02272
G1 X96.545 Y131.906 E.15585
G3 X96.047 Y131.591 I8.767 J-14.421 E.02559
G1 X96.047 Y135.314 E.1616
G1 X95.548 Y135.045 E.02457
G1 X95.548 Y131.261 E.16426
G3 X95.05 Y130.913 I11.326 J-16.734 E.02639
G1 X95.05 Y134.695 E.16418
G3 X94.552 Y134.254 I.966 J-1.594 E.02904
G1 X94.539 Y130.54 E.16126
G3 X94.054 Y130.165 I24.933 J-32.786 E.02663
G1 X94.054 Y133.661 E.15179
G3 X93.555 Y132.74 I2.292 J-1.835 E.04573
G1 X93.55 Y129.756 E.12952
G3 X93.057 Y129.335 I22.755 J-27.135 E.02815
G1 X93.057 Y131.681 E.10185
G3 X92.559 Y131.693 I-.283 J-1.367 E.02175
G1 X92.559 Y128.886 E.12184
G3 X92.06 Y128.413 I34.145 J-36.456 E.02983
G1 X92.06 Y131.626 E.13945
G3 X91.562 Y131.524 I.03 J-1.424 E.02219
G1 X91.559 Y127.912 E.15678
G3 X91.064 Y127.386 I15.401 J-15.01 E.03139
G1 X91.064 Y131.362 E.17259
G3 X90.565 Y131.129 I.395 J-1.49 E.02402
G1 X90.565 Y126.826 E.18678
G3 X90.067 Y126.235 I27.227 J-23.475 E.03355
G1 X90.067 Y130.845 E.20013
G1 X89.569 Y130.448 E.02767
G1 X89.569 Y125.603 E.21031
G3 X89.07 Y124.927 I28.972 J-21.879 E.03646
G1 X89.07 Y129.924 E.2169
G3 X88.572 Y129.204 I1.735 J-1.734 E.03821
G1 X88.572 Y124.203 E.21707
G3 X88.074 Y123.418 I24.767 J-16.265 E.04038
G1 X88.074 Y128.619 E.22577
G1 E-1.75 F6000
;WIPE_START
G1 F3000
G1 X88.074 Y127.619 E-.75
;WIPE_END
G1 X135.415 Y107.852 F18000
G1 E2.5 F6000
G1 F3000
G1 X135.415 Y96.411 E.49663
G2 X134.916 Y95.885 I-1.697 J1.11 E.03161
G1 X134.916 Y103.677 E.33822
G2 X134.418 Y101.965 I-22.178 J5.527 E.07742
G1 X134.418 Y95.48 E.28148
G2 X133.92 Y95.152 I-1.152 J1.208 E.02604
G1 X133.92 Y100.581 E.23563
G2 X133.421 Y99.402 I-29.193 J11.65 E.05554
G1 X133.421 Y94.939 E.19372
G2 X132.923 Y94.764 I-.732 J1.285 E.02305
G1 X132.923 Y98.362 E.15618
G2 X132.425 Y97.432 I-27.913 J14.364 E.04579
G1 X132.33 Y94.629 E.12177
G2 X131.926 Y91.46 I-6.829 J-.741 E.13994
G1 X131.926 Y96.581 E.22228
G2 X131.428 Y95.797 I-18.721 J11.362 E.0403
G1 X131.428 Y90.635 E.2241
G2 X130.93 Y90.066 I-1.817 J1.09 E.03299
G1 X130.93 Y95.072 E.21729
G2 X130.431 Y94.397 I-44.76 J32.511 E.03643
G1 X130.431 Y89.632 E.20686
G1 X129.933 Y89.302 E.02592
G1 X129.933 Y93.766 E.19376
G2 X129.435 Y93.174 I-15.072 J12.177 E.0336
G1 X129.435 Y89.067 E.17829
G2 X128.936 Y88.871 I-.788 J1.277 E.02336
G1 X128.936 Y92.613 E.16242
G2 X128.438 Y92.085 I-61.8 J57.896 E.0315
G1 X128.438 Y88.757 E.14447
G2 X127.94 Y88.685 I-.449 J1.338 E.02198
G1 X127.916 Y91.563 E.12495
G2 X127.441 Y91.113 I-26.495 J27.471 E.02838
G1 X127.441 Y88.388 E.11829
G2 X126.943 Y87.143 I-3.681 J.75 E.05855
G1 X126.943 Y90.667 E.15298
G2 X126.445 Y90.24 I-15.382 J17.446 E.02849
G1 X126.445 Y86.442 E.16485
G2 X125.946 Y85.949 I-1.609 J1.126 E.03061
G1 X125.946 Y89.835 E.16872
G2 X125.448 Y89.451 I-39.372 J50.519 E.02732
G1 X125.448 Y85.566 E.16863
G2 X124.95 Y85.256 I-1.104 J1.218 E.02562
G1 X124.95 Y89.087 E.1663
G2 X124.452 Y88.738 I-14.173 J19.73 E.0264
G1 X124.452 Y85.043 E.16041
G2 X123.953 Y84.883 I-.69 J1.293 E.02284
G1 X123.953 Y88.408 E.15303
G2 X123.455 Y88.095 I-9.338 J14.313 E.02555
G1 X123.455 Y84.769 E.14438
G2 X122.957 Y84.729 I-.36 J1.353 E.02182
G1 X122.957 Y87.796 E.13312
G2 X122.458 Y87.512 I-21.805 J37.734 E.02489
G1 X122.397 Y84.704 E.12193
G2 X121.96 Y84.151 I-1.741 J.928 E.03074
G1 X121.96 Y87.243 E.13422
G1 X121.462 Y86.989 E.02429
G1 X121.462 Y83.675 E.14386
G2 X120.963 Y83.339 I-1.174 J1.205 E.02622
G1 X120.963 Y86.749 E.148
G2 X120.465 Y86.519 I-6.507 J13.449 E.02382
G1 X120.465 Y83.066 E.1499
G1 X119.967 Y82.853 E.02352
G1 X119.967 Y86.303 E.14978
G2 X119.468 Y86.101 I-5.727 J13.375 E.02335
G1 X119.468 Y82.724 E.14657
G2 X118.97 Y82.622 I-.532 J1.322 E.0222
G1 X118.97 Y85.908 E.14265
G2 X118.472 Y85.729 I-6.18 J16.48 E.02298
G1 X118.472 Y82.599 E.13588
G2 X117.973 Y82.609 I-.223 J1.378 E.02175
G1 X117.973 Y85.56 E.12813
G2 X117.475 Y85.404 I-4.456 J13.369 E.02267
G1 X117.475 Y82.676 E.11843
G2 X116.977 Y82.8 I.093 J1.435 E.02241
G1 X116.977 Y85.257 E.10663
G2 X116.478 Y85.122 I-13.782 J49.901 E.02241
G1 X116.478 Y82.962 E.09374
G2 X116.031 Y83.194 I.415 J1.347 E.02197
G1 X115.98 Y84.999 E.07837
G2 X115.482 Y84.884 I-3.406 J13.648 E.0222
G1 X115.482 Y82.668 E.09617
G2 X114.983 Y82.2 I-1.54 J1.139 E.02985
G1 X114.983 Y84.78 E.11201
G2 X114.485 Y84.688 I-2.775 J13.578 E.022
G1 X114.485 Y81.871 E.12228
G2 X113.987 Y81.609 I-.971 J1.242 E.02457
G1 X113.987 Y84.603 E.12999
G2 X113.488 Y84.531 I-2.632 J16.507 E.02186
G1 X113.488 Y81.396 E.13612
G2 X112.99 Y81.277 I-.577 J1.314 E.02236
G1 X112.99 Y84.467 E.13849
G2 X112.492 Y84.414 I-1.966 J15.977 E.02176
G1 X112.492 Y81.183 E.14022
G1 X111.993 Y81.161 E.02165
G1 X111.993 Y84.371 E.13933
G1 X111.495 Y84.336 E.02168
G1 X111.495 Y81.179 E.13701
G1 X110.997 Y81.247 E.02183
G1 X110.957 Y84.31 E.13297
G2 X110.498 Y84.299 I-.666 J18.296 E.01992
G1 X110.498 Y81.38 E.12669
G2 X110 Y81.544 I.201 J1.454 E.02289
G1 X110 Y84.292 E.11931
G2 X109.502 Y84.297 I-.078 J18.139 E.02163
G1 X109.502 Y81.812 E.10788
G2 X109.003 Y82.139 I.652 J1.537 E.02601
G1 X109.003 Y84.311 E.0943
G2 X108.505 Y84.336 I.714 J19.869 E.02166
G1 X108.505 Y82.549 E.07756
G1 X108.007 Y83.119 E.03288
G1 X108.007 Y84.371 E.05432
G2 X107.508 Y84.415 I.871 J12.652 E.02172
G2 X107.01 Y83.323 I-.707 J-.337 E.05933
G1 X107.01 Y84.466 E.04962
G2 X106.512 Y84.53 I7.755 J63.089 E.02181
G1 X106.512 Y82.948 E.06865
G1 X106.013 Y82.673 E.02471
G1 X106.013 Y84.603 E.08378
G2 X105.515 Y84.688 I3.134 J19.912 E.02194
G1 X105.515 Y82.488 E.0955
G2 X105.017 Y82.342 I-.679 J1.396 E.02265
G1 X105.017 Y84.78 E.10584
G2 X104.518 Y84.885 I2.621 J13.746 E.0221
G1 X104.518 Y82.279 E.11312
G2 X104.02 Y82.26 I-.313 J1.688 E.02172
G1 X104.02 Y84.997 E.11883
G2 X103.522 Y85.123 I3.943 J16.643 E.02231
G1 X103.522 Y82.3 E.12257
G2 X103.023 Y82.398 I.1 J1.819 E.02212
G1 X103.023 Y85.257 E.12412
G2 X102.525 Y85.404 I3.758 J13.678 E.02255
G1 X102.525 Y82.548 E.12398
G2 X102.027 Y82.787 I1.665 J4.103 E.02402
G1 X102.027 Y85.56 E.12034
G2 X101.528 Y85.728 I14.859 J44.858 E.02283
G1 X101.528 Y83.094 E.11432
G2 X101.03 Y83.504 I4.219 J5.645 E.028
G1 X101.03 Y85.909 E.10442
G2 X100.532 Y86.1 I4.891 J13.541 E.02316
G1 X100.532 Y84.073 E.08799
G2 X100.033 Y86.304 I2.031 J1.625 E.10277
G2 X99.535 Y86.518 I7.795 J18.847 E.02354
G1 X99.535 Y84.665 E.08045
G2 X99.037 Y84.521 I-.645 J1.301 E.02263
G1 X99.037 Y86.747 E.09661
G2 X98.538 Y86.989 I7.227 J15.507 E.02405
G1 X98.538 Y84.408 E.11206
G2 X98.04 Y84.383 I-.318 J1.361 E.02178
G1 X98.04 Y87.243 E.12418
G2 X97.542 Y87.514 I8.747 J16.696 E.02462
G1 X97.542 Y84.379 E.1361
G1 X97.043 Y84.446 E.02183
G1 X97.043 Y87.796 E.14542
G2 X96.545 Y88.095 I8.999 J15.605 E.02521
G1 X96.545 Y84.556 E.1536
G1 X96.047 Y84.718 E.02274
G1 X96.047 Y88.41 E.16027
G2 X95.548 Y88.739 I8.297 J13.112 E.02592
G1 X95.548 Y84.961 E.16399
G2 X95.05 Y85.256 I.563 J1.52 E.02527
G1 X95.05 Y89.086 E.16626
G2 X94.552 Y89.451 I11.418 J16.125 E.02681
