; HEADER_BLOCK_START
; generated by AnycubicSlicerNext 1.3.2 on 2025-02-22 at 12:16:03
; total layer number: 200
; filament_density: 1.24
; filament_diameter: 1.75
; max_z_height: 40.04
; exclude_object: 0
; model_instances: 1
; HEADER_BLOCK_END

; THUMBNAIL_BLOCK_START

;
; THUMBNAIL_BLOCK_END

; external perimeters extrusion width = 0.42mm
; perimeters extrusion width = 0.45mm
; infill extrusion width = 0.45mm
; solid infill extrusion width = 0.42mm
; top infill extrusion width = 0.42mm
; first layer extrusion width = 0.50mm

; EXECUTABLE_BLOCK_START
M201 X2000 Y2000 Z800 E2000
M203 X300 Y300 Z8 E100
M204 P2000 R2000 T2000
M205 X10.00 Y10.00 Z2.00 E5.00 ; sets the jerk limits, mm/sec
;TYPE:Custom
G90 ; use absolute coordinates
M83 ; extruder relative mode
M104 S220 ; set extruder temp
M140 S60 ; set bed temp
M190 S60 ; wait for bed temp
M109 S220 ; wait for extruder temp
G28                                        ; move X/Y/Z to min endstops
G1 Z0.28                                   ; lift nozzle a bit 
G92 E0 
G1 Y3 F1800                                    ; zero the extruded length 
G1 X60  E25 F500                       ; Extrude 25mm of filament in a 5cm line. 
G92 E0                                     ; zero the extruded length again 
G1 E-2 F500                                ; Retract a little 
G1 X70 F4000                              ; Quickly wipe away from the filament line
M117
G90
G21
M82 ; use absolute distances for extrusion
G92 E0
; filament start gcode
M106 S0
;LAYER_CHANGE
;Z:0.24
;HEIGHT:0.24
; BEFORE_LAYER_CHANGE 0 @ 0.24mm
G1 E-2.5 F6000
G92 E0
; AFTER_LAYER_CHANGE 0 @ 0.24mm
;_SET_FAN_SPEED_CHANGING_LAYER
M204 P500
; printing object "Axis4mm.stl" id:19422005327102059 copy 0
M204 T500
G1 X103.387 Y104.922 F18000
G1 Z.24
G1 E2.5 F6000
;TYPE:Brim
;WIDTH:0.5
G1 F3000
G1 X103.87 Y104.505 E2.52773
G1 X104.271 Y104.218 E2.54912
G1 X104.649 Y103.686 E2.57744
G1 X105.09 Y103.228 E2.60503
G1 X105.594 Y102.84 E2.63267
G1 X106.2 Y102.499 E2.66286
G1 X106.879 Y102.192 E2.69518
G1 X107.465 Y101.982 E2.72223
G1 X108.219 Y101.781 E2.7561
G1 X108.783 Y101.68 E2.78094
G1 X109.406 Y101.612 E2.80814
G1 X110.168 Y101.593 E2.84126
G1 X111.083 Y101.661 E2.88109
G1 X111.55 Y101.734 E2.90158
G1 X112.11 Y101.86 E2.92652
G1 X112.712 Y102.04 E2.9538
G1 X113.158 Y102.205 E2.97442
G1 X113.543 Y102.373 E2.99266
G1 X114.052 Y102.631 E3.01742
G1 X114.596 Y102.973 E3.04531
G1 X115.078 Y103.387 E3.0729
G1 X115.496 Y103.87 E3.10063
G1 X115.782 Y104.271 E3.12202
G1 X116.314 Y104.649 E3.15034
G1 X116.772 Y105.09 E3.17793
G1 X117.16 Y105.594 E3.20556
G1 X117.501 Y106.2 E3.23574
G1 X117.808 Y106.878 E3.26806
G1 X118.018 Y107.466 E3.29513
G1 X118.219 Y108.219 E3.32897
G1 X118.32 Y108.783 E3.35384
G1 X118.388 Y109.406 E3.38107
G1 X118.409 Y110.103 E3.41132
G1 X118.389 Y110.573 E3.43176
G1 X118.324 Y111.194 E3.45887
G1 X118.14 Y112.11 E3.49939
G1 X117.92 Y112.826 E3.53195
G1 X117.711 Y113.357 E3.55669
G1 X117.507 Y113.789 E3.57743
G1 X117.369 Y114.05 E3.59024
G1 X117.027 Y114.596 E3.6182
G1 X116.613 Y115.078 E3.64579
G1 X116.13 Y115.495 E3.67352
G1 X115.784 Y115.727 E3.69156
G1 X115.725 Y115.784 E3.69515
G1 X115.37 Y116.292 E3.72207
G1 X114.932 Y116.753 E3.74966
G1 X114.429 Y117.145 E3.77733
G1 X113.938 Y117.431 E3.802
G1 X113.124 Y117.807 E3.84091
G1 X112.534 Y118.018 E3.86813
G1 X111.928 Y118.185 E3.89539
G1 X111.162 Y118.329 E3.92923
G1 X110.593 Y118.388 E3.95406
G1 X109.846 Y118.407 E3.98652
G1 X108.919 Y118.339 E4.02683
G1 X108.031 Y118.176 E4.06606
G1 X107.175 Y117.92 E4.10482
G1 X106.643 Y117.711 E4.12964
G1 X106.211 Y117.507 E4.1504
G1 X105.95 Y117.369 E4.16319
G1 X105.404 Y117.027 E4.19115
G1 X104.922 Y116.613 E4.21874
G1 X104.504 Y116.13 E4.24647
G1 X104.218 Y115.729 E4.26786
G1 X103.686 Y115.351 E4.29618
G1 X103.228 Y114.91 E4.32377
G1 X102.839 Y114.404 E4.3515
G1 X102.635 Y114.059 E4.36888
G1 X102.297 Y113.375 E4.40198
G1 X102.047 Y112.731 E4.432
G1 X101.794 Y111.835 E4.47241
G1 X101.68 Y111.22 E4.49957
G1 X101.604 Y110.472 E4.53218
G1 X101.592 Y109.847 E4.55931
G1 X101.622 Y109.274 E4.58424
G1 X101.677 Y108.803 E4.60481
G1 X101.86 Y107.891 E4.64522
G1 X102.08 Y107.174 E4.67778
G1 X102.289 Y106.643 E4.70252
G1 X102.493 Y106.211 E4.72327
G1 X102.631 Y105.95 E4.73608
G1 X102.973 Y105.404 E4.76403
G1 X103.361 Y104.952 E4.78989
G1 X103.699 Y105.247 F18000
G1 F3000
G1 X104.143 Y104.862 E4.81542
G1 X104.523 Y104.59 E4.8357
G1 X104.644 Y104.469 E4.84314
G1 X105.002 Y103.966 E4.86994
G1 X105.383 Y103.571 E4.89375
G1 X105.851 Y103.211 E4.91939
G1 X106.398 Y102.902 E4.94666
G1 X107.042 Y102.61 E4.97734
G1 X107.594 Y102.413 E5.00279
G1 X108.312 Y102.22 E5.03505
G1 X108.842 Y102.125 E5.05844
G1 X109.441 Y102.06 E5.0846
G1 X110.164 Y102.042 E5.11599
G1 X111.037 Y102.108 E5.15401
G1 X111.47 Y102.176 E5.17302
G1 X112.001 Y102.296 E5.19665
G1 X112.566 Y102.465 E5.22224
G1 X112.987 Y102.62 E5.24172
G1 X113.355 Y102.781 E5.25918
G1 X113.825 Y103.019 E5.28204
G1 X114.321 Y103.33 E5.30742
G1 X114.753 Y103.699 E5.3321
G1 X115.138 Y104.143 E5.35763
G1 X115.41 Y104.523 E5.3779
G1 X115.531 Y104.644 E5.38534
G1 X116.034 Y105.002 E5.41214
G1 X116.429 Y105.383 E5.43595
G1 X116.789 Y105.851 E5.46159
G1 X117.098 Y106.398 E5.48884
G1 X117.39 Y107.041 E5.51952
G1 X117.587 Y107.594 E5.54499
G1 X117.779 Y108.311 E5.57723
G1 X117.875 Y108.842 E5.60064
G1 X117.94 Y109.442 E5.62686
G1 X117.96 Y110.105 E5.65564
G1 X117.942 Y110.544 E5.67473
G1 X117.88 Y111.12 E5.69986
G1 X117.706 Y111.993 E5.73849
G1 X117.494 Y112.683 E5.76983
G1 X117.301 Y113.175 E5.79277
G1 X117.104 Y113.591 E5.81276
G1 X116.978 Y113.83 E5.82449
G1 X116.671 Y114.321 E5.84961
G1 X116.301 Y114.753 E5.87429
G1 X115.864 Y115.133 E5.89944
G1 X115.542 Y115.349 E5.91625
G1 X115.418 Y115.459 E5.92347
G1 X115.026 Y116.001 E5.95251
G1 X114.637 Y116.413 E5.9771
G1 X114.184 Y116.767 E6.00206
G1 X113.736 Y117.03 E6.02461
G1 X112.96 Y117.389 E6.06173
G1 X112.403 Y117.588 E6.08739
G1 X111.822 Y117.749 E6.11358
G1 X111.092 Y117.885 E6.14581
G1 X110.559 Y117.94 E6.16907
G1 X109.863 Y117.958 E6.19928
G1 X108.984 Y117.894 E6.23755
G1 X108.129 Y117.737 E6.27529
G1 X107.316 Y117.494 E6.3121
G1 X106.817 Y117.297 E6.3354
G1 X106.178 Y116.983 E6.36629
G1 X105.679 Y116.67 E6.39185
G1 X105.247 Y116.301 E6.41653
G1 X104.862 Y115.857 E6.44206
G1 X104.59 Y115.477 E6.46233
G1 X104.469 Y115.356 E6.46977
G1 X103.966 Y114.998 E6.49657
G1 X103.571 Y114.617 E6.52038
G1 X103.216 Y114.159 E6.54554
G1 X103.028 Y113.841 E6.56158
G1 X102.711 Y113.2 E6.59262
G1 X102.471 Y112.582 E6.62139
G1 X102.233 Y111.739 E6.65941
G1 X102.125 Y111.162 E6.6849
G1 X102.053 Y110.451 E6.71592
G1 X102.041 Y109.85 E6.74202
G1 X102.069 Y109.316 E6.76523
G1 X102.119 Y108.879 E6.78431
G1 X102.297 Y107.994 E6.82349
G1 X102.502 Y107.327 E6.85381
G1 X102.699 Y106.825 E6.87719
G1 X103.017 Y106.178 E6.90848
G1 X103.329 Y105.679 E6.93403
G1 X103.673 Y105.278 E6.95697
G1 X104.011 Y105.571 F18000
G1 F3000
G1 X104.416 Y105.218 E6.98029
G1 X104.846 Y104.901 E7.00349
G1 X105.014 Y104.721 E7.01416
G1 X105.355 Y104.246 E7.03956
G1 X105.675 Y103.913 E7.05962
G1 X106.107 Y103.581 E7.08326
G1 X106.596 Y103.305 E7.10761
G1 X107.205 Y103.029 E7.13666
G1 X107.722 Y102.843 E7.16051
G1 X108.404 Y102.66 E7.19116
G1 X108.911 Y102.568 E7.2135
G1 X109.476 Y102.508 E7.23819
G1 X110.159 Y102.492 E7.26785
G1 X110.991 Y102.555 E7.30405
G1 X111.39 Y102.618 E7.3216
G1 X111.892 Y102.731 E7.34392
G1 X112.419 Y102.889 E7.36784
G1 X112.816 Y103.035 E7.38618
G1 X113.168 Y103.188 E7.40284
G1 X113.599 Y103.407 E7.42381
G1 X114.046 Y103.687 E7.44672
G1 X114.429 Y104.011 E7.46849
G1 X114.782 Y104.416 E7.49181
G1 X115.099 Y104.846 E7.515
G1 X115.279 Y105.014 E7.52567
G1 X115.754 Y105.355 E7.55107
G1 X116.087 Y105.675 E7.57113
G1 X116.419 Y106.107 E7.59477
G1 X116.695 Y106.596 E7.61911
G1 X116.971 Y107.205 E7.64816
G1 X117.157 Y107.722 E7.67203
G1 X117.34 Y108.404 E7.70265
G1 X117.43 Y108.901 E7.7246
G1 X117.493 Y109.478 E7.74981
G1 X117.511 Y110.107 E7.77711
G1 X117.494 Y110.515 E7.79485
G1 X117.437 Y111.046 E7.81801
G1 X117.272 Y111.876 E7.85475
G1 X117.069 Y112.54 E7.88488
G1 X116.89 Y112.993 E7.90601
G1 X116.704 Y113.388 E7.92497
G1 X116.315 Y114.043 E7.95807
G1 X115.989 Y114.429 E7.97997
G1 X115.597 Y114.77 E8.00254
G1 X115.298 Y114.973 E8.0182
G1 X115.131 Y115.114 E8.02773
G1 X114.684 Y115.709 E8.06003
G1 X114.341 Y116.073 E8.08172
G1 X113.938 Y116.39 E8.10396
G1 X113.533 Y116.628 E8.12437
G1 X112.795 Y116.971 E8.1597
G1 X112.273 Y117.159 E8.18379
G1 X111.715 Y117.312 E8.2089
G1 X111.033 Y117.44 E8.23903
G1 X110.525 Y117.493 E8.26119
G1 X109.88 Y117.509 E8.28919
G1 X109.048 Y117.449 E8.3254
G1 X108.227 Y117.298 E8.36166
G1 X107.458 Y117.068 E8.39649
G1 X106.994 Y116.884 E8.41816
G1 X106.403 Y116.594 E8.44674
G1 X105.954 Y116.313 E8.46973
G1 X105.571 Y115.989 E8.4915
G1 X105.218 Y115.584 E8.51481
G1 X104.901 Y115.154 E8.53801
G1 X104.721 Y114.986 E8.54868
G1 X104.246 Y114.645 E8.57408
G1 X103.913 Y114.324 E8.59416
G1 X103.593 Y113.913 E8.61676
G1 X103.42 Y113.622 E8.63145
G1 X103.124 Y113.024 E8.66041
G1 X102.895 Y112.433 E8.68792
G1 X102.672 Y111.643 E8.72358
G1 X102.571 Y111.103 E8.7474
G1 X102.502 Y110.429 E8.77682
G1 X102.49 Y109.852 E8.80187
G1 X102.515 Y109.357 E8.82338
G1 X102.562 Y108.955 E8.84097
G1 X102.735 Y108.098 E8.8789
G1 X102.925 Y107.48 E8.90699
G1 X103.108 Y107.012 E8.92881
G1 X103.406 Y106.403 E8.95824
G1 X103.687 Y105.954 E8.98122
G1 X103.985 Y105.602 E9.00125
G1 X104.325 Y105.895 F18000
G1 F3000
G1 X104.7 Y105.566 E9.02291
G1 X105.179 Y105.2 E9.04908
G1 X105.383 Y104.976 E9.06223
G1 X105.707 Y104.527 E9.0863
G1 X105.968 Y104.255 E9.10264
G1 X106.348 Y103.962 E9.12346
G1 X106.794 Y103.708 E9.14573
G1 X107.369 Y103.447 E9.17315
G1 X107.851 Y103.273 E9.1954
G1 X108.497 Y103.099 E9.22443
G1 X108.97 Y103.013 E9.2453
G1 X109.511 Y102.955 E9.26892
G1 X110.154 Y102.941 E9.29685
G1 X110.944 Y103.001 E9.33124
G1 X111.31 Y103.059 E9.34731
G1 X111.782 Y103.166 E9.36834
G1 X112.285 Y103.317 E9.39111
G1 X112.969 Y103.591 E9.42311
G1 X113.373 Y103.796 E9.44274
G1 X113.773 Y104.045 E9.4632
G1 X114.105 Y104.325 E9.48207
G1 X114.434 Y104.7 E9.50373
G1 X114.8 Y105.179 E9.5299
G1 X115.024 Y105.383 E9.54305
G1 X115.473 Y105.707 E9.56711
G1 X115.745 Y105.968 E9.58345
G1 X116.038 Y106.348 E9.60428
G1 X116.291 Y106.794 E9.62653
G1 X116.553 Y107.369 E9.65395
G1 X116.727 Y107.851 E9.67622
G1 X116.901 Y108.497 E9.70524
G1 X116.985 Y108.961 E9.72571
G1 X117.045 Y109.514 E9.74989
G1 X117.062 Y110.109 E9.7757
G1 X117.046 Y110.486 E9.7921
G1 X116.994 Y110.972 E9.81332
G1 X116.838 Y111.76 E9.84816
G1 X116.643 Y112.397 E9.87707
G1 X116.48 Y112.811 E9.8964
G1 X116.304 Y113.183 E9.91427
G1 X115.954 Y113.772 E9.94402
G1 X115.675 Y114.105 E9.96288
G1 X115.329 Y114.409 E9.98286
G1 X115.052 Y114.598 E9.9974
G1 X114.851 Y114.763 E10.00871
G1 X114.343 Y115.416 E10.0446
G1 X114.044 Y115.734 E10.06354
G1 X113.692 Y116.013 E10.08307
G1 X113.318 Y116.234 E10.10189
G1 X112.63 Y116.553 E10.13485
G1 X112.142 Y116.729 E10.15736
G1 X111.609 Y116.876 E10.18137
G1 X110.974 Y116.995 E10.2094
G1 X110.491 Y117.045 E10.23048
G1 X109.897 Y117.06 E10.25626
G1 X109.098 Y117.002 E10.29105
G1 X108.325 Y116.86 E10.32518
G1 X107.6 Y116.641 E10.35804
G1 X107.171 Y116.471 E10.37808
G1 X106.627 Y116.204 E10.40436
G1 X106.227 Y115.955 E10.42481
G1 X105.895 Y115.675 E10.44368
G1 X105.566 Y115.3 E10.46533
G1 X105.2 Y114.821 E10.4915
G1 X104.976 Y114.617 E10.50465
G1 X104.527 Y114.293 E10.52872
G1 X104.254 Y114.03 E10.54515
G1 X103.969 Y113.666 E10.5652
G1 X103.812 Y113.403 E10.57851
G1 X103.538 Y112.849 E10.60536
G1 X103.319 Y112.285 E10.63161
G1 X103.11 Y111.546 E10.66492
G1 X103.016 Y111.045 E10.68708
G1 X102.95 Y110.408 E10.71488
G1 X102.939 Y109.855 E10.73889
G1 X102.962 Y109.399 E10.7587
G1 X103.005 Y109.031 E10.77479
G1 X103.172 Y108.202 E10.81147
G1 X103.347 Y107.633 E10.83734
G1 X103.517 Y107.198 E10.85761
G1 X103.796 Y106.627 E10.88518
G1 X104.045 Y106.227 E10.90562
G1 X104.299 Y105.926 E10.92276
G1 X104.64 Y106.218 F18000
G1 F3000
G1 X104.986 Y105.912 E10.94283
G1 X105.518 Y105.494 E10.97217
G1 X105.751 Y105.233 E10.98738
G1 X106.047 Y104.822 E11.00935
G1 X106.262 Y104.597 E11.02286
G1 X106.605 Y104.331 E11.04172
G1 X106.993 Y104.111 E11.06105
G1 X107.533 Y103.865 E11.08683
G1 X107.991 Y103.7 E11.10796
G1 X108.59 Y103.539 E11.13489
G1 X109.039 Y103.457 E11.15469
G1 X109.546 Y103.403 E11.17681
G1 X110.149 Y103.39 E11.203
G1 X110.902 Y103.449 E11.2358
G1 X111.672 Y103.602 E11.26989
G1 X112.142 Y103.743 E11.29118
G1 X112.779 Y103.998 E11.32094
G1 X113.147 Y104.184 E11.33885
G1 X113.5 Y104.403 E11.35689
G1 X113.782 Y104.64 E11.37287
G1 X114.088 Y104.986 E11.39295
G1 X114.506 Y105.518 E11.42228
G1 X114.767 Y105.751 E11.4375
G1 X115.178 Y106.047 E11.45946
G1 X115.403 Y106.262 E11.47298
G1 X115.669 Y106.605 E11.49183
G1 X115.889 Y106.992 E11.51115
G1 X116.135 Y107.533 E11.53693
G1 X116.297 Y107.981 E11.55759
G1 X116.461 Y108.59 E11.58501
G1 X116.54 Y109.02 E11.60399
G1 X116.597 Y109.55 E11.62713
G1 X116.613 Y110.101 E11.65103
G1 X116.551 Y110.895 E11.68563
G1 X116.404 Y111.643 E11.71873
G1 X116.216 Y112.257 E11.7466
G1 X115.904 Y112.978 E11.78068
G1 X115.593 Y113.503 E11.80716
G1 X115.36 Y113.783 E11.82298
G1 X115.06 Y114.048 E11.84037
G1 X114.576 Y114.409 E11.86657
G1 X114.005 Y115.12 E11.90616
G1 X113.747 Y115.395 E11.92253
G1 X113.444 Y115.637 E11.93934
G1 X113.103 Y115.839 E11.95654
G1 X112.464 Y116.136 E11.98712
G1 X112.001 Y116.303 E12.0085
G1 X111.502 Y116.44 E12.03096
G1 X110.915 Y116.55 E12.05689
G1 X110.457 Y116.597 E12.07688
G1 X109.914 Y116.611 E12.10045
G1 X109.162 Y116.557 E12.13317
G1 X108.423 Y116.421 E12.16579
G1 X107.742 Y116.215 E12.19668
G1 X107.348 Y116.059 E12.2151
G1 X106.851 Y115.814 E12.23911
G1 X106.5 Y115.597 E12.25706
G1 X106.218 Y115.36 E12.27304
G1 X105.912 Y115.014 E12.29311
G1 X105.494 Y114.482 E12.32245
G1 X105.233 Y114.249 E12.33766
G1 X104.822 Y113.953 E12.35962
G1 X104.595 Y113.736 E12.37329
G1 X104.345 Y113.419 E12.39079
G1 X104.204 Y113.183 E12.40271
G1 X103.947 Y112.662 E12.42794
G1 X103.743 Y112.136 E12.45242
G1 X103.549 Y111.45 E12.4834
G1 X103.461 Y110.986 E12.50389
G1 X103.399 Y110.386 E12.53008
G1 X103.388 Y109.866 E12.55262
G1 X103.449 Y109.095 E12.5862
G1 X103.609 Y108.306 E12.62114
G1 X103.769 Y107.785 E12.64481
G1 X103.926 Y107.383 E12.66353
G1 X104.186 Y106.851 E12.68925
G1 X104.403 Y106.5 E12.70717
G1 X104.614 Y106.248 E12.72142
G1 X104.934 Y106.587 F18000
G1 F3000
G1 X105.236 Y106.302 E12.73943
G1 X105.335 Y106.232 E12.74468
G1 X105.732 Y106.015 E12.76433
G1 X105.881 Y105.959 E12.77123
G1 X105.96 Y105.88 E12.77607
G1 X106.013 Y105.736 E12.78275
G1 X106.282 Y105.266 E12.80626
G1 X106.67 Y104.847 E12.83103
G1 X107.003 Y104.617 E12.84861
G1 X107.612 Y104.319 E12.87806
G1 X108.287 Y104.081 E12.90911
G1 X109.051 Y103.911 E12.94307
G1 X109.567 Y103.85 E12.96563
G1 X110.49 Y103.858 E13.0057
G1 X111.427 Y104.006 E13.04688
G1 X112.116 Y104.211 E13.07809
G1 X112.653 Y104.434 E13.10334
G1 X113.034 Y104.634 E13.122
G1 X113.322 Y104.838 E13.13734
G1 X113.698 Y105.236 E13.16109
G1 X113.768 Y105.335 E13.16635
G1 X113.985 Y105.732 E13.186
G1 X114.041 Y105.881 E13.1929
G1 X114.12 Y105.96 E13.19775
G1 X114.263 Y106.013 E13.20437
G1 X114.735 Y106.281 E13.22796
G1 X115.058 Y106.566 E13.24663
G1 X115.386 Y107.01 E13.27061
G1 X115.686 Y107.623 E13.3002
G1 X115.92 Y108.29 E13.33092
G1 X116.089 Y109.051 E13.36474
G1 X116.15 Y109.567 E13.38732
G1 X116.139 Y110.522 E13.42878
G1 X116.005 Y111.389 E13.46685
G1 X115.846 Y111.957 E13.49247
G1 X115.644 Y112.48 E13.51677
G1 X115.381 Y113 E13.54206
G1 X115.109 Y113.383 E13.56247
G1 X114.971 Y113.521 E13.57095
G1 X114.613 Y113.803 E13.59072
G1 X114.251 Y113.994 E13.60849
G1 X114.122 Y114.04 E13.61445
G1 X114.043 Y114.113 E13.61911
G1 X113.884 Y114.477 E13.63636
G1 X113.732 Y114.719 E13.64875
G1 X113.351 Y115.133 E13.67319
G1 X113.007 Y115.375 E13.69145
G1 X112.384 Y115.682 E13.7216
G1 X111.706 Y115.922 E13.7528
G1 X111.098 Y116.065 E13.77993
G1 X110.467 Y116.146 E13.80753
G1 X109.501 Y116.14 E13.84949
G1 X108.491 Y115.978 E13.89387
