; HEADER_BLOCK_START
; generated by AnycubicSlicerNext 1.3.2 on 2025-02-22 at 17:10:16
; total layer number: 35
; filament_density: 1.24
; filament_diameter: 1.75
; max_z_height: 7.04
; exclude_object: 0
; model_instances: 1
; HEADER_BLOCK_END

; THUMBNAIL_BLOCK_START

;
; THUMBNAIL_BLOCK_END

; external perimeters extrusion width = 0.42mm
; perimeters extrusion width = 0.45mm
; infill extrusion width = 0.45mm
; solid infill extrusion width = 0.42mm
; top infill extrusion width = 0.42mm
; first layer extrusion width = 0.50mm

; EXECUTABLE_BLOCK_START
M201 X2000 Y2000 Z800 E2000
M203 X300 Y300 Z8 E100
M204 P2000 R2000 T2000
M205 X10.00 Y10.00 Z2.00 E5.00 ; sets the jerk limits, mm/sec
;TYPE:Custom
G90 ; use absolute coordinates
M83 ; extruder relative mode
M104 S220 ; set extruder temp
M140 S60 ; set bed temp
M190 S60 ; wait for bed temp
M109 S220 ; wait for extruder temp
G28                                        ; move X/Y/Z to min endstops
G1 Z0.28                                   ; lift nozzle a bit 
G92 E0 
G1 Y3 F1800                                    ; zero the extruded length 
G1 X60  E25 F500                       ; Extrude 25mm of filament in a 5cm line. 
G92 E0                                     ; zero the extruded length again 
G1 E-2 F500                                ; Retract a little 
G1 X70 F4000                              ; Quickly wipe away from the filament line
M117
G90
G21
M82 ; use absolute distances for extrusion
G92 E0
; filament start gcode
M106 S0
;LAYER_CHANGE
;Z:0.24
;HEIGHT:0.24
; BEFORE_LAYER_CHANGE 0 @ 0.24mm
G1 E-2.5 F6000
G92 E0
; AFTER_LAYER_CHANGE 0 @ 0.24mm
;_SET_FAN_SPEED_CHANGING_LAYER
M204 P500
; printing object "AxisGear50n4mm.stl" id:0 copy 0
M204 T500
G1 X82.978 Y84.379 F18000
G1 Z.24
G1 E2.5 F6000
;TYPE:Brim
;WIDTH:0.5
G1 F3000
G1 X83.384 Y84.013 E2.52371
G1 X83.815 Y83.697 E2.54692
G1 X84.277 Y83.423 E2.57023
G1 X84.746 Y83.205 E2.59267
G1 X84.85 Y83.107 E2.59887
G1 X85.055 Y82.72 E2.6179
G1 X85.353 Y82.269 E2.64136
G1 X85.619 Y81.935 E2.6599
G1 X85.993 Y81.544 E2.68336
G1 X86.402 Y81.195 E2.70672
G1 X86.94 Y80.828 E2.73498
G1 X87.424 Y80.571 E2.75879
G1 X87.812 Y80.409 E2.77705
G1 X88.303 Y80.252 E2.79942
G1 X88.418 Y80.167 E2.80563
G1 X88.671 Y79.808 E2.8247
G1 X88.951 Y79.475 E2.84356
G1 X89.331 Y79.099 E2.86676
G1 X89.839 Y78.695 E2.89493
G1 X90.294 Y78.409 E2.91829
G1 X90.778 Y78.168 E2.94175
G1 X91.176 Y78.012 E2.96029
G1 X91.695 Y77.861 E2.98375
G1 X92.203 Y77.767 E3.0062
G1 X92.328 Y77.697 E3.01241
G1 X92.623 Y77.373 E3.03143
G1 X92.937 Y77.082 E3.05001
G1 X93.366 Y76.753 E3.07347
G1 X93.824 Y76.468 E3.09688
G1 X94.308 Y76.23 E3.1203
G1 X94.813 Y76.042 E3.14369
G1 X95.334 Y75.905 E3.16711
G1 X95.867 Y75.821 E3.19051
G1 X96.383 Y75.791 E3.21293
G1 X96.515 Y75.737 E3.21914
G1 X96.849 Y75.452 E3.23819
G1 X97.291 Y75.144 E3.26161
G1 X97.762 Y74.88 E3.28501
G1 X98.257 Y74.665 E3.30843
G1 X98.77 Y74.5 E3.33183
G1 X99.297 Y74.388 E3.35524
G1 X99.834 Y74.328 E3.3787
G1 X100.261 Y74.319 E3.39723
G1 X100.778 Y74.354 E3.41972
G1 X100.916 Y74.317 E3.42593
G1 X101.283 Y74.076 E3.44499
G1 X101.666 Y73.87 E3.46384
G1 X102.158 Y73.66 E3.48706
G1 X102.779 Y73.472 E3.51523
G1 X103.308 Y73.373 E3.53859
G1 X103.846 Y73.327 E3.56205
G1 X104.28 Y73.329 E3.58088
G1 X104.814 Y73.38 E3.60415
G1 X105.318 Y73.479 E3.62648
G1 X105.46 Y73.46 E3.63269
G1 X105.855 Y73.267 E3.65176
G1 X106.253 Y73.113 E3.67031
G1 X106.773 Y72.964 E3.69376
G1 X107.303 Y72.868 E3.71716
G1 X107.869 Y72.825 E3.74181
G1 X108.423 Y72.839 E3.76584
G1 X108.915 Y72.9 E3.78737
G1 X109.442 Y73.018 E3.81081
G1 X109.933 Y73.18 E3.83324
G1 X110.076 Y73.179 E3.83945
G1 X110.49 Y73.037 E3.85848
G1 X111.015 Y72.913 E3.88189
G1 X111.559 Y72.841 E3.90568
G1 X112.089 Y72.823 E3.92872
G1 X112.627 Y72.859 E3.95211
G1 X113.159 Y72.949 E3.97553
G1 X113.68 Y73.091 E3.99898
G1 X114.08 Y73.239 E4.01752
G1 X114.548 Y73.462 E4.04001
G1 X114.69 Y73.479 E4.04621
G1 X115.12 Y73.39 E4.06528
G1 X115.551 Y73.34 E4.08413
G1 X116.086 Y73.325 E4.10734
G1 X116.733 Y73.379 E4.13551
G1 X117.261 Y73.481 E4.15888
G1 X117.778 Y73.637 E4.18233
G1 X118.175 Y73.796 E4.20087
G1 X118.657 Y74.041 E4.22433
G1 X119.091 Y74.32 E4.24675
G1 X119.23 Y74.355 E4.25295
G1 X119.669 Y74.32 E4.27206
G1 X120.095 Y74.324 E4.29059
G1 X120.633 Y74.377 E4.31405
G1 X121.162 Y74.483 E4.33746
G1 X121.678 Y74.641 E4.36086
G1 X122.175 Y74.849 E4.38427
G1 X122.649 Y75.107 E4.40768
G1 X123.095 Y75.41 E4.43109
G1 X123.492 Y75.741 E4.45353
G1 X123.625 Y75.793 E4.45973
G1 X124.064 Y75.813 E4.4788
G1 X124.487 Y75.871 E4.49736
G1 X125.014 Y75.99 E4.52082
G1 X125.525 Y76.162 E4.54421
G1 X126.017 Y76.383 E4.56763
G1 X126.484 Y76.653 E4.59103
G1 X126.922 Y76.967 E4.61444
G1 X127.327 Y77.324 E4.63785
G1 X127.679 Y77.702 E4.66029
G1 X127.805 Y77.77 E4.66649
G1 X128.238 Y77.846 E4.68557
G1 X128.65 Y77.955 E4.70411
G1 X129.165 Y78.143 E4.72788
G1 X129.646 Y78.376 E4.75109
G1 X130.104 Y78.656 E4.77439
G1 X130.534 Y78.982 E4.7978
G1 X130.929 Y79.348 E4.8212
G1 X131.286 Y79.753 E4.84462
G1 X131.588 Y80.172 E4.86705
G1 X131.704 Y80.256 E4.87326
G1 X132.123 Y80.385 E4.89228
G1 X132.621 Y80.593 E4.9157
G1 X133.096 Y80.849 E4.93916
G1 X133.452 Y81.085 E4.9577
G1 X133.873 Y81.422 E4.9811
G1 X134.334 Y81.882 E5.00937
G1 X134.672 Y82.303 E5.03279
G1 X134.908 Y82.658 E5.05133
G1 X135.156 Y83.113 E5.07382
G1 X135.261 Y83.211 E5.08001
G1 X135.669 Y83.395 E5.09947
G1 X136.036 Y83.602 E5.11774
G1 X136.48 Y83.906 E5.1411
G1 X136.892 Y84.253 E5.16451
G1 X137.268 Y84.64 E5.18792
G1 X137.603 Y85.063 E5.21132
G1 X137.894 Y85.516 E5.23473
G1 X138.139 Y85.997 E5.25814
G1 X138.327 Y86.478 E5.28058
G1 X138.419 Y86.588 E5.28678
G1 X138.794 Y86.817 E5.30586
G1 X139.137 Y87.071 E5.32441
G1 X139.541 Y87.43 E5.34786
G1 X139.907 Y87.827 E5.37127
G1 X140.231 Y88.257 E5.39466
G1 X140.507 Y88.712 E5.41775
G1 X140.743 Y89.204 E5.44144
G1 X140.926 Y89.713 E5.46491
G1 X141.052 Y90.214 E5.48734
G1 X141.129 Y90.334 E5.49354
G1 X141.471 Y90.608 E5.51257
G1 X141.858 Y90.985 E5.53599
G1 X142.205 Y91.399 E5.55944
G1 X142.449 Y91.748 E5.57794
G1 X142.767 Y92.318 E5.60626
G1 X142.976 Y92.814 E5.62962
G1 X143.135 Y93.33 E5.65307
G1 X143.225 Y93.748 E5.67162
G1 X143.287 Y94.262 E5.6941
G1 X143.349 Y94.391 E5.7003
G1 X143.654 Y94.706 E5.71937
G1 X143.924 Y95.038 E5.73793
G1 X144.226 Y95.486 E5.76138
G1 X144.481 Y95.961 E5.78479
G1 X144.688 Y96.459 E5.8082
G1 X144.845 Y96.975 E5.83161
G1 X144.949 Y97.504 E5.85502
G1 X144.999 Y98.041 E5.87843
G1 X144.997 Y98.558 E5.90086
G1 X145.042 Y98.694 E5.90707
G1 X145.306 Y99.045 E5.92614
G1 X145.532 Y99.408 E5.94469
G1 X145.775 Y99.89 E5.96814
G1 X145.969 Y100.393 E5.99156
G1 X146.112 Y100.913 E6.01497
G1 X146.202 Y101.445 E6.03837
G1 X146.239 Y101.983 E6.06178
G1 X146.222 Y102.522 E6.08517
G1 X146.155 Y103.035 E6.10764
G1 X146.183 Y103.175 E6.11384
G1 X146.4 Y103.555 E6.13285
G1 X146.62 Y104.048 E6.15627
G1 X146.791 Y104.559 E6.17968
G1 X146.909 Y105.085 E6.20308
G1 X146.975 Y105.621 E6.2265
G1 X146.987 Y106.158 E6.24981
G1 X146.946 Y106.692 E6.27309
G1 X146.874 Y107.119 E6.29186
G1 X146.743 Y107.621 E6.3144
G1 X146.753 Y107.764 E6.32061
G1 X146.921 Y108.169 E6.33963
G1 X147.05 Y108.577 E6.35821
G1 X147.166 Y109.105 E6.38167
G1 X147.228 Y109.639 E6.40504
G1 X147.232 Y110.29 E6.4333
G1 X147.177 Y110.827 E6.45671
G1 X147.095 Y111.246 E6.47525
G1 X146.944 Y111.765 E6.49871
G1 X146.751 Y112.245 E6.52116
G1 X146.743 Y112.388 E6.52737
G1 X146.859 Y112.81 E6.54639
G1 X146.936 Y113.232 E6.56498
G1 X146.985 Y113.77 E6.58844
G1 X146.98 Y114.309 E6.61184
G1 X146.921 Y114.845 E6.63525
G1 X146.809 Y115.373 E6.65866
G1 X146.646 Y115.886 E6.68207
G1 X146.431 Y116.382 E6.70548
G1 X146.18 Y116.833 E6.72792
G1 X146.154 Y116.974 E6.73413
G1 X146.216 Y117.403 E6.75292
G1 X146.24 Y117.834 E6.7717
G1 X146.221 Y118.376 E6.7952
G1 X146.148 Y118.91 E6.81861
G1 X146.023 Y119.434 E6.84201
G1 X145.846 Y119.944 E6.86542
G1 X145.619 Y120.433 E6.88883
G1 X145.344 Y120.897 E6.91224
G1 X145.039 Y121.314 E6.93468
G1 X144.995 Y121.45 E6.94088
G1 X145.002 Y121.887 E6.95986
G1 X144.973 Y122.308 E6.97817
G1 X144.885 Y122.848 E7.00191
G1 X144.746 Y123.37 E7.02537
G1 X144.556 Y123.875 E7.04878
G1 X144.317 Y124.358 E7.07218
G1 X144.03 Y124.815 E7.09559
G1 X143.7 Y125.241 E7.11901
G1 X143.344 Y125.617 E7.14146
G1 X143.284 Y125.746 E7.14767
G1 X143.236 Y126.181 E7.16663
G1 X143.125 Y126.71 E7.1901
G1 X142.962 Y127.225 E7.21355
G1 X142.798 Y127.618 E7.23204
G1 X142.487 Y128.191 E7.26036
G1 X142.18 Y128.634 E7.28372
G1 X141.824 Y129.051 E7.30756
G1 X141.523 Y129.346 E7.32582
G1 X141.124 Y129.672 E7.3482
G1 X141.048 Y129.793 E7.35441
G1 X140.946 Y130.221 E7.37348
G1 X140.81 Y130.626 E7.39203
G1 X140.594 Y131.121 E7.41548
G1 X140.33 Y131.59 E7.43885
G1 X139.95 Y132.121 E7.46717
G1 X139.669 Y132.44 E7.48566
G1 X139.277 Y132.813 E7.50912
G1 X138.851 Y133.143 E7.53253
G1 X138.413 Y133.418 E7.55496
G1 X138.323 Y133.529 E7.56117
G1 X138.167 Y133.94 E7.58024
G1 X137.982 Y134.325 E7.59879
G1 X137.705 Y134.789 E7.62225
G1 X137.384 Y135.222 E7.64565
G1 X137.022 Y135.621 E7.66906
G1 X136.616 Y135.987 E7.69277
G1 X136.185 Y136.303 E7.71598
G1 X135.723 Y136.577 E7.73929
G1 X135.254 Y136.795 E7.76173
G1 X135.15 Y136.893 E7.76793
G1 X134.945 Y137.28 E7.78696
G1 X134.648 Y137.73 E7.81037
G1 X134.307 Y138.148 E7.83378
G1 X133.927 Y138.53 E7.85719
G1 X133.51 Y138.873 E7.8806
G1 X133.061 Y139.171 E7.904
G1 X132.576 Y139.429 E7.92785
G1 X132.188 Y139.591 E7.94611
G1 X131.697 Y139.748 E7.96849
G1 X131.582 Y139.833 E7.97469
G1 X131.329 Y140.192 E7.99376
G1 X131.049 Y140.525 E8.01262
G1 X130.669 Y140.901 E8.03583
G1 X130.161 Y141.305 E8.064
G1 X129.706 Y141.591 E8.08735
G1 X129.222 Y141.832 E8.11081
G1 X128.824 Y141.988 E8.12935
G1 X128.305 Y142.139 E8.15281
G1 X127.797 Y142.233 E8.17526
G1 X127.672 Y142.303 E8.18147
G1 X127.377 Y142.627 E8.20049
G1 X127.063 Y142.918 E8.21908
G1 X126.634 Y143.247 E8.24254
G1 X126.176 Y143.532 E8.26594
G1 X125.692 Y143.77 E8.28936
G1 X125.187 Y143.958 E8.31276
G1 X124.666 Y144.095 E8.33617
G1 X124.133 Y144.179 E8.35957
G1 X123.617 Y144.209 E8.38199
G1 X123.485 Y144.263 E8.3882
G1 X123.15 Y144.548 E8.4073
G1 X122.802 Y144.797 E8.42584
G1 X122.336 Y145.07 E8.4493
G1 X121.846 Y145.295 E8.47272
G1 X121.336 Y145.47 E8.49612
G1 X120.811 Y145.594 E8.51953
G1 X120.277 Y145.664 E8.54294
G1 X119.738 Y145.681 E8.56634
G1 X119.222 Y145.646 E8.58878
G1 X119.084 Y145.683 E8.59499
G1 X118.717 Y145.924 E8.61406
G1 X118.34 Y146.127 E8.63261
G1 X117.844 Y146.339 E8.65607
G1 X117.329 Y146.501 E8.67947
G1 X116.801 Y146.611 E8.70289
G1 X116.265 Y146.668 E8.72629
G1 X115.719 Y146.671 E8.75
G1 X115.186 Y146.62 E8.77321
G1 X114.682 Y146.521 E8.79554
G1 X114.54 Y146.54 E8.80175
G1 X114.146 Y146.733 E8.82077
G1 X113.641 Y146.922 E8.8442
G1 X113.119 Y147.06 E8.86765
G1 X112.698 Y147.132 E8.88619
G1 X112.16 Y147.175 E8.9096
G1 X111.509 Y147.155 E8.93787
G1 X110.975 Y147.08 E8.96128
G1 X110.559 Y146.982 E8.97982
G1 X110.067 Y146.82 E9.00231
G1 X109.924 Y146.821 E9.00851
G1 X109.509 Y146.963 E9.02759
G1 X109.094 Y147.066 E9.04613
G1 X108.56 Y147.148 E9.06959
G1 X108.021 Y147.177 E9.09299
G1 X107.483 Y147.152 E9.1164
G1 X106.949 Y147.074 E9.13982
G1 X106.426 Y146.943 E9.16322
G1 X105.919 Y146.76 E9.18663
G1 X105.452 Y146.538 E9.20907
G1 X105.31 Y146.521 E9.21527
G1 X104.88 Y146.61 E9.23435
G1 X104.455 Y146.66 E9.2529
G1 X103.915 Y146.675 E9.27635
G1 X103.377 Y146.636 E9.29976
G1 X102.846 Y146.544 E9.32317
G1 X102.327 Y146.399 E9.34657
G1 X101.824 Y146.204 E9.36998
G1 X101.344 Y145.959 E9.3934
G1 X100.909 Y145.68 E9.41582
G1 X100.77 Y145.645 E9.42202
G1 X100.332 Y145.68 E9.44108
G1 X99.794 Y145.67 E9.46448
G1 X99.257 Y145.606 E9.48793
G1 X98.84 Y145.518 E9.50642
G1 X98.218 Y145.32 E9.53474
G1 X97.726 Y145.102 E9.55811
G1 X97.257 Y144.835 E9.58156
G1 X96.906 Y144.591 E9.6001
G1 X96.508 Y144.259 E9.62259
G1 X96.375 Y144.207 E9.62879
G1 X95.936 Y144.187 E9.64787
G1 X95.513 Y144.129 E9.66642
G1 X94.986 Y144.01 E9.68988
G1 X94.475 Y143.838 E9.71328
G1 X93.983 Y143.617 E9.73669
G1 X93.516 Y143.347 E9.7601
G1 X93.077 Y143.033 E9.78351
G1 X92.673 Y142.676 E9.80692
G1 X92.321 Y142.298 E9.82934
G1 X92.195 Y142.23 E9.83554
G1 X91.762 Y142.154 E9.85465
G1 X91.349 Y142.045 E9.87317
G1 X90.842 Y141.86 E9.89664
G1 X90.356 Y141.625 E9.92004
G1 X89.896 Y141.344 E9.94345
G1 X89.466 Y141.018 E9.96686
G1 X89.071 Y140.652 E9.99026
G1 X88.714 Y140.247 E10.01368
G1 X88.412 Y139.828 E10.03611
G1 X88.296 Y139.744 E10.04232
G1 X87.877 Y139.615 E10.06134
G1 X87.378 Y139.407 E10.08481
G1 X86.995 Y139.204 E10.10364
G1 X86.546 Y138.913 E10.12686
G1 X86.043 Y138.503 E10.15503
G1 X85.666 Y138.119 E10.17839
G1 X85.328 Y137.697 E10.20185
G1 X85.092 Y137.342 E10.22039
G1 X84.844 Y136.887 E10.24287
G1 X84.739 Y136.789 E10.24908
G1 X84.339 Y136.609 E10.26815
G1 X83.966 Y136.4 E10.2867
G1 X83.52 Y136.094 E10.31016
G1 X83.108 Y135.747 E10.33356
G1 X82.732 Y135.36 E10.35697
G1 X82.397 Y134.937 E10.38038
G1 X82.106 Y134.484 E10.40379
G1 X81.861 Y134.003 E10.4272
G1 X81.673 Y133.522 E10.44964
G1 X81.581 Y133.412 E10.45584
G1 X81.206 Y133.183 E10.47492
G1 X80.863 Y132.929 E10.49346
G1 X80.459 Y132.57 E10.51692
G1 X80.093 Y132.173 E10.54033
G1 X79.769 Y131.743 E10.56372
G1 X79.493 Y131.288 E10.58681
G1 X79.257 Y130.796 E10.6105
G1 X79.074 Y130.287 E10.63397
G1 X78.948 Y129.786 E10.6564
G1 X78.871 Y129.666 E10.6626
G1 X78.529 Y129.392 E10.68163
G1 X78.142 Y129.015 E10.70505
G1 X77.795 Y128.601 E10.7285
G1 X77.551 Y128.252 E10.74699
G1 X77.233 Y127.682 E10.77531
G1 X77.024 Y127.186 E10.79868
G1 X76.865 Y126.67 E10.82213
G1 X76.775 Y126.252 E10.84068
G1 X76.713 Y125.738 E10.86316
G1 X76.651 Y125.609 E10.86936
G1 X76.346 Y125.294 E10.88844
G1 X76.076 Y124.962 E10.90697
G1 X75.778 Y124.521 E10.93011
G1 X75.519 Y124.04 E10.9538
G1 X75.312 Y123.541 E10.97726
G1 X75.155 Y123.025 E11.00066
G1 X75.051 Y122.496 E11.02407
G1 X75.001 Y121.959 E11.04749
G1 X75.003 Y121.442 E11.06992
G1 X74.958 Y121.306 E11.07613
G1 X74.694 Y120.955 E11.0952
G1 X74.468 Y120.592 E11.11375
G1 X74.225 Y120.11 E11.1372
G1 X74.031 Y119.607 E11.16061
G1 X73.888 Y119.087 E11.18402
G1 X73.798 Y118.555 E11.20743
G1 X73.761 Y118.017 E11.23083
G1 X73.778 Y117.478 E11.25423
G1 X73.845 Y116.965 E11.2767
G1 X73.817 Y116.825 E11.28291
G1 X73.603 Y116.45 E11.30164
G1 X73.38 Y115.953 E11.3253
G1 X73.209 Y115.441 E11.34874
G1 X73.091 Y114.915 E11.37214
G1 X73.025 Y114.381 E11.39546
G1 X73.013 Y113.847 E11.41868
G1 X73.055 Y113.302 E11.44238
G1 X73.126 Y112.88 E11.46096
G1 X73.257 Y112.379 E11.48346
G1 X73.247 Y112.236 E11.48967
G1 X73.079 Y111.831 E11.50869
G1 X72.95 Y111.423 E11.52727
G1 X72.834 Y110.895 E11.55073
G1 X72.772 Y110.361 E11.57409
G1 X72.768 Y109.71 E11.60236
G1 X72.823 Y109.173 E11.62577
G1 X72.905 Y108.754 E11.64431
G1 X73.056 Y108.235 E11.66777
G1 X73.249 Y107.755 E11.69022
G1 X73.257 Y107.612 E11.69643
G1 X73.141 Y107.19 E11.71545
G1 X73.064 Y106.768 E11.73403
G1 X73.015 Y106.23 E11.75749
G1 X73.02 Y105.691 E11.7809
G1 X73.079 Y105.155 E11.80431
G1 X73.191 Y104.627 E11.82772
G1 X73.354 Y104.114 E11.85112
G1 X73.569 Y103.619 E11.87454
G1 X73.82 Y103.166 E11.89699
G1 X73.846 Y103.026 E11.9032
G1 X73.784 Y102.593 E11.92217
G1 X73.76 Y102.053 E11.94563
G1 X73.79 Y101.515 E11.96903
G1 X73.873 Y100.982 E11.99244
G1 X74.009 Y100.46 E12.01585
G1 X74.197 Y99.955 E12.03926
G1 X74.434 Y99.469 E12.06271
G1 X74.655 Y99.104 E12.08125
G1 X74.961 Y98.686 E12.10374
G1 X75.005 Y98.55 E12.10994
G1 X74.998 Y98.113 E12.12892
G1 X75.027 Y97.692 E12.14723
G1 X75.115 Y97.152 E12.17097
G1 X75.253 Y96.631 E12.19438
