; HEADER_BLOCK_START
; generated by AnycubicSlicerNext 1.3.5.5 on 2025-08-31 at 00:08:43
; total layer number: 65
; filament_density: 1.24
; filament_diameter: 1.75
; max_z_height: 13.04
; exclude_object: 0
; model_instances: 2
; source_info: {"models":[{"file_source":0,"mo_file_id":-1,"name":"ANKER-001.stl_id_0_copy_0"},{"file_source":0,"mo_file_id":-1,"name":"ANKER-001.stl_id_1_copy_0"}],"models_from":0,"plate_index":1,"slice_paras_process":1,"software_version":"AnycubicSlicerNext 1.3.5.5 20250625193040"}
; HEADER_BLOCK_END

; THUMBNAIL_BLOCK_START
; THUMBNAIL_BLOCK_END

; external perimeters extrusion width = 0.42mm
; perimeters extrusion width = 0.45mm
; infill extrusion width = 0.45mm
; solid infill extrusion width = 0.42mm
; top infill extrusion width = 0.42mm
; first layer extrusion width = 0.50mm

; external perimeters extrusion width = 0.42mm
; perimeters extrusion width = 0.45mm
; infill extrusion width = 0.45mm
; solid infill extrusion width = 0.42mm
; top infill extrusion width = 0.42mm
; first layer extrusion width = 0.50mm

; EXECUTABLE_BLOCK_START
M201 X2000 Y2000 Z800 E2000 ; sets machine_max_acceleration_x, y, z, e (mm/sec^2)
M203 X300 Y300 Z8 E100 ; sets machine_max_speed_x, y, z, e (mm/sec)
M204 P2000 R2000 T2000 ; sets machine_max_acceleration(mm/sec^2) M204 P[print] R[retract] T[travel]
M205 X10.00 Y10.00 Z2.00 E5.00 ; sets the jerk limits, mm/sec
;TYPE:Custom
G90 ; use absolute coordinates
M83 ; extruder relative mode
M104 S220 ; set extruder temp
M140 S60 ; set bed temp
M190 S60 ; wait for bed temp
M109 S220 ; wait for extruder temp
G28                                        ; move X/Y/Z to min endstops
G1 Z0.28                                   ; lift nozzle a bit 
G92 E0 
G1 Y3 F1800                                    ; zero the extruded length 
G1 X60  E25 F500                       ; Extrude 25mm of filament in a 5cm line. 
G92 E0                                     ; zero the extruded length again 
G1 E-2 F500                                ; Retract a little 
G1 X70 F4000                              ; Quickly wipe away from the filament line
M117
G90
G21
M83 ; use relative distances for extrusion
; filament start gcode
M106 S0
;LAYER_CHANGE
;Z:0.24
;HEIGHT:0.24
; BEFORE_LAYER_CHANGE 0 @ 0.24mm
G92 E0
G1 E-2.5 F6000
; AFTER_LAYER_CHANGE 0 @ 0.24mm
M204 P500
; printing object "ANKER-001.stl" id:0 copy 0
G1 X117.45 Y97.875 F18000
G1 Z.24
G1 E2.5 F6000
;TYPE:Brim
;WIDTH:0.5
G1 F1200
G1 X119.8 Y95.054 E.15936
G1 X120.248 Y94.592 E.02796
G1 X120.754 Y94.205 E.02763
G1 X121.273 Y93.915 E.0258
G1 X121.863 Y93.672 E.02774
G1 X122.481 Y93.52 E.02759
G1 X123.114 Y93.462 E.02759
G1 X123.745 Y93.499 E.02745
G1 X124.633 Y93.714 E.03964
G1 X125.218 Y93.958 E.02755
G1 X125.763 Y94.287 E.02762
G1 X127.548 Y95.759 E.10042
G1 X128.011 Y96.208 E.02802
G1 X128.319 Y96.596 E.02152
G1 X128.655 Y97.143 E.02787
G1 X128.834 Y97.535 E.01867
G1 X137.681 Y119.898 E1.04398
G1 X138.214 Y120.532 E.03594
G1 X138.63 Y121.085 E.03003
G1 X139.007 Y121.663 E.02999
G1 X139.438 Y122.447 E.03881
G1 X139.724 Y123.076 E.02999
G1 X139.967 Y123.724 E.03004
G1 X140.167 Y124.386 E.03001
G1 X140.35 Y125.204 E.03639
G1 X140.472 Y126.09 E.03883
G1 X140.507 Y126.578 E.02125
G1 X140.518 Y127.125 E.02373
G1 X140.503 Y127.616 E.02133
G1 X140.46 Y128.161 E.02373
G1 X140.397 Y128.648 E.02133
G1 X140.299 Y129.186 E.02374
G1 X140.188 Y129.665 E.02133
G1 X140.037 Y130.19 E.02373
G1 X139.878 Y130.657 E.02139
G1 X139.677 Y131.164 E.02368
G1 X139.473 Y131.611 E.02133
G1 X139.221 Y132.096 E.02374
G1 X138.973 Y132.52 E.02132
G1 X138.675 Y132.978 E.02374
G1 X138.386 Y133.376 E.02133
G1 X138.043 Y133.802 E.02373
G1 X137.716 Y134.169 E.02133
G1 X137.333 Y134.559 E.02373
G1 X136.971 Y134.891 E.02133
G1 X136.551 Y135.241 E.02373
G1 X136.158 Y135.536 E.02133
G1 X135.704 Y135.842 E.02373
G1 X135.284 Y136.096 E.02133
G1 X134.804 Y136.354 E.02365
G1 X134.039 Y136.703 E.03651
G1 X133.529 Y136.896 E.02365
G1 X133.062 Y137.046 E.02133
G1 X132.533 Y137.188 E.02373
G1 X132.053 Y137.291 E.02133
G1 X131.513 Y137.379 E.02373
G1 X131.025 Y137.434 E.02133
G1 X130.479 Y137.468 E.02374
G1 X129.99 Y137.473 E.02125
G1 X129.095 Y137.425 E.03891
G1 X128.609 Y137.366 E.02125
G1 X128.07 Y137.273 E.02373
G1 X127.591 Y137.165 E.02133
G1 X127.067 Y137.02 E.02357
G1 X126.272 Y136.742 E.03659
G1 X125.771 Y136.528 E.02365
G1 X125.331 Y136.314 E.02124
G1 X124.425 Y135.805 E.04508
G1 X100.835 Y131.136 E1.04386
G1 X100.213 Y130.964 E.02804
G1 X99.756 Y130.77 E.02152
G1 X99.199 Y130.451 E.02787
G1 X98.855 Y130.193 E.01867
G1 X97.33 Y128.921 E.08621
G1 X96.867 Y128.473 E.02796
G1 X96.481 Y127.967 E.02763
G1 X96.191 Y127.449 E.0258
G1 X95.947 Y126.858 E.02774
G1 X95.796 Y126.24 E.02759
G1 X95.738 Y125.607 E.02759
G1 X95.774 Y124.975 E.0275
G1 X95.955 Y124.19 E.03495
G1 X96.234 Y123.502 E.03225
G1 X96.563 Y122.959 E.02755
G1 X101.28 Y117.278 E.32055
G1 X102.009 Y117.309 E.03165
G1 X102.432 Y117.287 E.01839
G1 X102.853 Y117.238 E.01839
G1 X103.267 Y117.16 E.01831
G1 X103.675 Y117.056 E.01826
G1 X104.064 Y116.929 E.01775
G1 X104.457 Y116.772 E.01839
G1 X104.839 Y116.589 E.01839
G1 X105.208 Y116.38 E.01839
G1 X105.562 Y116.148 E.01839
G1 X105.901 Y115.893 E.01839
G1 X106.221 Y115.615 E.01839
G1 X106.522 Y115.318 E.01839
G1 X106.95 Y114.816 E.02861
G1 X107.297 Y114.316 E.0264
G1 X107.518 Y113.934 E.0192
G1 X107.708 Y113.545 E.01877
G1 X107.931 Y112.979 E.0264
G1 X108.06 Y112.547 E.01958
G1 X108.185 Y111.952 E.0264
G1 X108.241 Y111.506 E.01952
G1 X108.263 Y111.038 E.02032
G1 X111.643 Y104.843 E.30634
G1 X117.424 Y97.905 E.392
G1 X117.769 Y98.193 F18000
G1 F1200
G1 X120.13 Y95.358 E.16015
G1 X120.54 Y94.935 E.02556
G1 X120.993 Y94.587 E.02481
G1 X121.476 Y94.317 E.02401
G1 X121.994 Y94.103 E.02432
G1 X122.565 Y93.963 E.02555
G1 X123.111 Y93.913 E.02381
G1 X123.667 Y93.944 E.02414
G1 X124.502 Y94.145 E.03732
G1 X125.023 Y94.364 E.02453
G1 X125.51 Y94.66 E.02473
G1 X127.244 Y96.09 E.09757
G1 X127.672 Y96.503 E.0258
G1 X127.955 Y96.861 E.01981
G1 X128.262 Y97.362 E.02552
G1 X128.422 Y97.713 E.01675
G1 X137.26 Y120.053 E1.04288
G1 X137.344 Y120.195 E.00718
G1 X137.86 Y120.809 E.03479
G1 X138.265 Y121.346 E.0292
G1 X138.625 Y121.899 E.02863
G1 X139.034 Y122.644 E.03689
G1 X139.311 Y123.252 E.02902
G1 X139.544 Y123.872 E.02875
G1 X139.734 Y124.504 E.02866
G1 X139.907 Y125.278 E.03441
G1 X140.026 Y126.144 E.03796
G1 X140.069 Y127.13 E.04282
G1 X140.013 Y128.121 E.04311
G1 X139.858 Y129.102 E.04311
G1 X139.607 Y130.063 E.0431
G1 X139.266 Y130.981 E.04253
G1 X138.831 Y131.874 E.04311
G1 X138.309 Y132.719 E.0431
G1 X137.705 Y133.507 E.04311
G1 X137.026 Y134.231 E.04311
G1 X136.278 Y134.885 E.04311
G1 X135.468 Y135.46 E.04311
G1 X134.611 Y135.949 E.04282
G1 X133.859 Y136.292 E.03588
G1 X132.929 Y136.618 E.04282
G1 X131.976 Y136.848 E.04253
G1 X130.993 Y136.986 E.04311
G1 X130.007 Y137.025 E.04282
G1 X129.126 Y136.977 E.03831
G1 X128.164 Y136.834 E.04223
G1 X127.209 Y136.594 E.04274
G1 X126.438 Y136.325 E.03543
G1 X125.546 Y135.919 E.04256
G1 X124.654 Y135.419 E.04438
G1 X124.502 Y135.363 E.00704
G1 X100.944 Y130.701 E1.04246
G1 X100.369 Y130.542 E.02586
G1 X99.949 Y130.364 E.01981
G1 X99.44 Y130.071 E.02552
G1 X99.131 Y129.839 E.01674
G1 X97.634 Y128.591 E.08463
G1 X97.21 Y128.181 E.02556
G1 X96.862 Y127.728 E.02481
G1 X96.592 Y127.246 E.02401
G1 X96.379 Y126.727 E.02432
G1 X96.242 Y126.176 E.02468
G1 X96.188 Y125.61 E.02468
G1 X96.219 Y125.05 E.02434
G1 X96.382 Y124.336 E.03178
G1 X96.632 Y123.713 E.02914
G1 X96.924 Y123.228 E.02457
G1 X101.441 Y117.787 E.30698
G1 X101.549 Y117.738 E.00516
G1 X102.038 Y117.757 E.02122
G1 X102.489 Y117.732 E.01961
G1 X102.939 Y117.678 E.01968
G1 X103.382 Y117.594 E.01959
G1 X103.818 Y117.481 E.01952
G1 X104.234 Y117.344 E.01902
G1 X104.655 Y117.174 E.01969
G1 X105.063 Y116.977 E.01969
G1 X105.457 Y116.753 E.01969
G1 X105.836 Y116.503 E.0197
G1 X106.167 Y116.253 E.01802
G1 X106.511 Y115.957 E.01969
G1 X106.834 Y115.64 E.01963
G1 X107.287 Y115.112 E.03023
G1 X107.662 Y114.576 E.02838
G1 X107.904 Y114.162 E.02082
G1 X108.128 Y113.704 E.02213
G1 X108.346 Y113.148 E.02592
G1 X108.5 Y112.634 E.02329
G1 X108.623 Y112.05 E.02593
G1 X108.721 Y111.135 E.03992
G1 X112.009 Y105.108 E.29804
G1 X117.744 Y98.224 E.38892
G1 X118.088 Y98.511 F18000
G1 F1200
G1 X120.461 Y95.662 E.16095
G1 X120.832 Y95.278 E.02318
G1 X121.249 Y94.958 E.02282
G1 X121.679 Y94.718 E.02136
G1 X122.143 Y94.529 E.02177
G1 X122.65 Y94.406 E.02263
G1 X123.11 Y94.363 E.02005
G1 X123.589 Y94.388 E.02083
G1 X124.372 Y94.577 E.03496
G1 X124.827 Y94.77 E.02146
G1 X125.257 Y95.033 E.02186
G1 X126.941 Y96.421 E.09476
G1 X127.332 Y96.799 E.02358
G1 X127.591 Y97.125 E.01808
G1 X127.869 Y97.58 E.02316
G1 X128.01 Y97.892 E.01484
G1 X136.839 Y120.208 E1.04178
G1 X137.008 Y120.492 E.01436
G1 X137.507 Y121.085 E.03363
G1 X137.9 Y121.608 E.02838
G1 X138.243 Y122.134 E.02727
G1 X138.63 Y122.84 E.03497
G1 X138.894 Y123.42 E.02765
G1 X139.12 Y124.02 E.02783
G1 X139.301 Y124.623 E.02732
G1 X139.464 Y125.352 E.03243
G1 X139.579 Y126.191 E.03676
G1 X139.619 Y127.133 E.04095
G1 X139.565 Y128.08 E.04116
G1 X139.417 Y129.017 E.04117
G1 X139.176 Y129.934 E.04116
G1 X138.851 Y130.811 E.0406
G1 X138.434 Y131.663 E.04117
G1 X137.942 Y132.458 E.04058
G1 X137.366 Y133.211 E.04116
G1 X136.718 Y133.903 E.04116
G1 X136.004 Y134.528 E.04116
G1 X135.232 Y135.078 E.04117
G1 X134.412 Y135.546 E.04099
G1 X133.686 Y135.877 E.03464
G1 X132.808 Y136.185 E.04041
G1 X131.899 Y136.406 E.0406
G1 X130.96 Y136.538 E.04117
G1 X130.017 Y136.575 E.04095
G1 X129.165 Y136.529 E.03704
G1 X128.245 Y136.392 E.04038
G1 X127.344 Y136.165 E.04034
G1 X126.6 Y135.906 E.0342
G1 X125.744 Y135.516 E.04084
G1 X124.883 Y135.033 E.04285
G1 X124.578 Y134.921 E.01408
G1 X101.052 Y130.265 E1.04106
G1 X100.526 Y130.12 E.02368
G1 X100.142 Y129.957 E.01809
G1 X99.68 Y129.691 E.02316
G1 X99.407 Y129.485 E.01484
G1 X97.937 Y128.26 E.08306
G1 X97.553 Y127.889 E.02318
G1 X97.244 Y127.488 E.02198
G1 X97 Y127.057 E.02149
G1 X96.81 Y126.596 E.02164
G1 X96.688 Y126.11 E.02178
G1 X96.639 Y125.611 E.02176
G1 X96.664 Y125.124 E.02117
G1 X96.809 Y124.481 E.02862
G1 X97.031 Y123.924 E.02603
G1 X97.285 Y123.497 E.02155
G1 X101.645 Y118.243 E.29635
G1 X101.752 Y118.195 E.00512
G1 X102.067 Y118.204 E.01369
G1 X102.547 Y118.177 E.02085
G1 X102.989 Y118.123 E.01931
G1 X103.462 Y118.035 E.02088
G1 X103.962 Y117.906 E.02245
G1 X104.37 Y117.771 E.01864
G1 X104.755 Y117.618 E.01797
G1 X104.868 Y117.624 E.00492
G1 X104.936 Y117.714 E.00492
G1 X104.908 Y117.829 E.00512
G1 X99.185 Y124.696 E.38805
G1 X98.982 Y125.064 E.01825
G1 X98.934 Y125.212 E.00673
G1 X98.898 Y125.428 E.00951
G1 X98.901 Y125.675 E.01073
G1 X98.995 Y126.014 E.01528
G1 X99.135 Y126.271 E.0127
G1 X99.35 Y126.518 E.0142
G1 X100.856 Y127.773 E.0851
G1 X101.093 Y127.92 E.01212
G1 X101.461 Y128.06 E.01706
G1 X125.69 Y132.855 E1.07218
G1 X126.228 Y133.212 E.028
G1 X126.627 Y133.447 E.02011
G1 X127.027 Y133.649 E.01946
G1 X127.704 Y133.925 E.03175
G1 X128.175 Y134.073 E.02139
G1 X128.644 Y134.186 E.02097
G1 X129.112 Y134.266 E.0206
G1 X129.584 Y134.315 E.02061
G1 X130.239 Y134.332 E.02844
G1 X131.027 Y134.275 E.03428
G1 X131.765 Y134.142 E.03257
G1 X132.515 Y133.923 E.03391
G1 X133.132 Y133.674 E.02887
G1 X133.721 Y133.371 E.02876
G1 X134.331 Y132.98 E.03145
G1 X134.924 Y132.509 E.03287
G1 X135.441 Y132.003 E.03141
G1 X135.907 Y131.447 E.03147
G1 X136.284 Y130.897 E.02896
G1 X136.635 Y130.263 E.03146
G1 X136.941 Y129.543 E.03395
G1 X137.154 Y128.851 E.03145
G1 X137.297 Y128.14 E.03146
G1 X137.368 Y127.419 E.03147
G1 X137.37 Y126.752 E.02895
G1 X137.296 Y125.978 E.03377
G1 X137.187 Y125.412 E.02501
G1 X137.018 Y124.805 E.02733
G1 X136.843 Y124.329 E.02202
G1 X136.57 Y123.735 E.02837
G1 X136.303 Y123.26 E.02364
G1 X135.991 Y122.793 E.02441
G1 X135.628 Y122.334 E.02542
G1 X135.007 Y121.673 E.03937
G1 X125.919 Y98.701 E1.07237
G1 X125.781 Y98.458 E.01212
G1 X125.525 Y98.16 E.01706
G1 X124.025 Y96.91 E.08476
G1 X123.657 Y96.707 E.01825
G1 X123.509 Y96.658 E.00673
G1 X123.293 Y96.622 E.00951
G1 X123.041 Y96.626 E.01096
G1 X122.926 Y96.648 E.00508
G1 X122.59 Y96.773 E.01557
G1 X122.38 Y96.911 E.01088
G1 X122.204 Y97.073 E.01038
G1 X109.211 Y112.665 E.88105
G1 X109.108 Y112.714 E.00492
G1 X109.005 Y112.667 E.00492
G1 X108.976 Y112.552 E.00514
G1 X109.07 Y112.091 E.02042
G1 X109.171 Y111.248 E.03685
G1 X112.39 Y105.351 E.29167
G1 X118.063 Y98.541 E.3847
G1 X118.407 Y98.828 F18000
G1 F1200
G1 X120.792 Y95.965 E.16175
G1 X121.14 Y95.607 E.02166
G1 X121.505 Y95.329 E.01994
G1 X121.881 Y95.12 E.01868
G1 X122.291 Y94.954 E.0192
G1 X122.714 Y94.852 E.01888
G1 X123.109 Y94.814 E.01723
G1 X123.512 Y94.834 E.01751
G1 X124.241 Y95.009 E.03257
G1 X124.63 Y95.175 E.01835
G1 X125.003 Y95.405 E.01902
G1 X126.638 Y96.753 E.09199
G1 X126.993 Y97.094 E.02137
G1 X127.227 Y97.389 E.01634
G1 X127.475 Y97.798 E.02077
G1 X127.598 Y98.07 E.01296
G1 X136.418 Y120.363 E1.04068
G1 X136.672 Y120.789 E.02154
G1 X137.153 Y121.362 E.03247
G1 X137.535 Y121.869 E.02755
G1 X137.86 Y122.369 E.02591
G1 X138.227 Y123.037 E.03307
G1 X138.478 Y123.588 E.02628
G1 X138.696 Y124.168 E.02691
G1 X138.868 Y124.741 E.02598
G1 X139.021 Y125.426 E.03046
G1 X139.132 Y126.237 E.03554
G1 X139.17 Y127.137 E.03908
G1 X139.118 Y128.039 E.03922
G1 X138.976 Y128.931 E.03922
G1 X138.75 Y129.792 E.03864
G1 X138.44 Y130.627 E.03867
G1 X138.044 Y131.44 E.03924
G1 X137.576 Y132.197 E.03865
G1 X137.028 Y132.916 E.03922
G1 X136.411 Y133.576 E.03922
G1 X135.731 Y134.171 E.03922
G1 X134.995 Y134.695 E.03922
G1 X134.213 Y135.144 E.03914
G1 X133.513 Y135.463 E.03339
G1 X132.674 Y135.756 E.03859
G1 X131.821 Y135.963 E.0381
G1 X130.926 Y136.09 E.03923
G1 X130.027 Y136.126 E.03907
G1 X129.204 Y136.081 E.03575
G1 X128.327 Y135.95 E.03853
G1 X127.478 Y135.737 E.03796
G1 X126.773 Y135.491 E.03243
G1 X125.942 Y135.113 E.03964
G1 X125.111 Y134.647 E.04132
G1 X124.655 Y134.479 E.02111
G1 X101.16 Y129.829 E1.03967
G1 X100.682 Y129.698 E.02151
G1 X100.336 Y129.551 E.01634
G1 X99.935 Y129.32 E.02006
G1 X99.689 Y129.135 E.01338
G1 X98.241 Y127.929 E.0818
G1 X97.895 Y127.596 E.02084
G1 X97.624 Y127.247 E.01916
G1 X97.408 Y126.867 E.01896
G1 X97.241 Y126.464 E.01895
G1 X97.133 Y126.043 E.01888
G1 X97.09 Y125.611 E.01884
G1 X97.11 Y125.197 E.01801
G1 X97.236 Y124.624 E.02545
G1 X97.43 Y124.133 E.02293
G1 X97.647 Y123.766 E.0185
G1 X101.85 Y118.698 E.28579
G1 X101.948 Y118.65 E.00474
G1 X102.606 Y118.622 E.02861
G1 X103.039 Y118.569 E.0189
G1 X103.462 Y118.491 E.01869
G1 X103.572 Y118.52 E.00492
G1 X103.621 Y118.622 E.00492
G1 X103.59 Y118.71 E.00406
G1 X98.848 Y124.4 E.32154
G1 X98.594 Y124.84 E.02207
G1 X98.511 Y125.064 E.01035
G1 X98.45 Y125.442 E.01663
G1 X98.472 Y125.806 E.01581
G1 X98.607 Y126.24 E.01973
G1 X98.804 Y126.573 E.0168
G1 X99.07 Y126.869 E.01726
G1 X100.561 Y128.111 E.08424
G1 X100.944 Y128.343 E.01944
G1 X101.384 Y128.502 E.02028
G1 X125.49 Y133.273 E1.06672
G1 X126.429 Y133.849 E.04782
G1 X126.863 Y134.066 E.02106
G1 X127.53 Y134.338 E.03128
G1 X128.074 Y134.51 E.02477
G1 X128.572 Y134.628 E.02223
G1 X129.07 Y134.712 E.02188
G1 X129.578 Y134.764 E.02216
G1 X130.221 Y134.78 E.02794
G1 X131.053 Y134.722 E.03618
G1 X131.897 Y134.57 E.03726
G1 X132.689 Y134.337 E.03583
G1 X133.294 Y134.092 E.02833
G1 X133.921 Y133.773 E.03053
G1 X134.568 Y133.361 E.03329
G1 X135.198 Y132.864 E.03484
G1 X135.789 Y132.286 E.03589
G1 X136.28 Y131.696 E.03331
G1 X136.68 Y131.109 E.03083
G1 X137.024 Y130.486 E.0309
G1 X137.351 Y129.725 E.03597
G1 X137.595 Y128.933 E.03597
