; HEADER_BLOCK_START
; generated by AnycubicSlicerNext 1.3.5.5 on 2025-09-02 at 23:54:33
; total layer number: 157
; filament_density: 1.24
; filament_diameter: 1.75
; max_z_height: 31.64
; exclude_object: 0
; model_instances: 1
; source_info: {"models":[{"file_source":0,"mo_file_id":-1,"name":"CAPSTAN-004.stl_id_0_copy_0"}],"models_from":0,"plate_index":1,"slice_paras_process":1,"software_version":"AnycubicSlicerNext 1.3.5.5 20250625193040"}
; HEADER_BLOCK_END

; THUMBNAIL_BLOCK_START
; THUMBNAIL_BLOCK_END

; external perimeters extrusion width = 0.42mm
; perimeters extrusion width = 0.45mm
; infill extrusion width = 0.45mm
; solid infill extrusion width = 0.42mm
; top infill extrusion width = 0.42mm
; support material extrusion width = 0.40mm
; first layer extrusion width = 0.50mm

; EXECUTABLE_BLOCK_START
M201 X2000 Y2000 Z800 E2000 ; sets machine_max_acceleration_x, y, z, e (mm/sec^2)
M203 X300 Y300 Z8 E100 ; sets machine_max_speed_x, y, z, e (mm/sec)
M204 P2000 R2000 T2000 ; sets machine_max_acceleration(mm/sec^2) M204 P[print] R[retract] T[travel]
M205 X10.00 Y10.00 Z2.00 E5.00 ; sets the jerk limits, mm/sec
;TYPE:Custom
G90 ; use absolute coordinates
M83 ; extruder relative mode
M104 S220 ; set extruder temp
M140 S60 ; set bed temp
M190 S60 ; wait for bed temp
M109 S220 ; wait for extruder temp
G28                                        ; move X/Y/Z to min endstops
G1 Z0.28                                   ; lift nozzle a bit 
G92 E0 
G1 Y3 F1800                                    ; zero the extruded length 
G1 X60  E25 F500                       ; Extrude 25mm of filament in a 5cm line. 
G92 E0                                     ; zero the extruded length again 
G1 E-2 F500                                ; Retract a little 
G1 X70 F4000                              ; Quickly wipe away from the filament line
M117
G90
G21
M83 ; use relative distances for extrusion
; filament start gcode
M106 S0
;LAYER_CHANGE
;Z:0.24
;HEIGHT:0.24
; BEFORE_LAYER_CHANGE 0 @ 0.24mm
G92 E0
G1 E-2.5 F6000
; AFTER_LAYER_CHANGE 0 @ 0.24mm
M204 P500
; printing object "CAPSTAN-004.stl" id:0 copy 0
G1 X103.819 Y97.004 F18000
G1 Z.24
G1 E2.5 F6000
;TYPE:Support
;WIDTH:0.5
G1 F1200
G1 X104.216 Y97.022 E.01726
G1 X105.147 Y97.236 E.04145
G1 X106.012 Y97.606 E.04084
G1 X106.816 Y97.345 E.03669
G1 X107.762 Y97.218 E.04141
G1 X108.715 Y97.261 E.04141
G1 X109.645 Y97.473 E.04141
G1 X110.522 Y97.848 E.04141
G1 X111.318 Y98.373 E.04141
G1 X112.008 Y99.032 E.04141
G1 X112.569 Y99.804 E.04141
G1 X112.984 Y100.663 E.04142
G1 X113.238 Y101.583 E.04143
G1 X113.325 Y102.534 E.04143
G1 X113.24 Y103.484 E.04144
G1 X112.987 Y104.405 E.04145
G1 X112.574 Y105.266 E.04146
G1 X112.013 Y106.039 E.04146
G1 X111.323 Y106.7 E.04147
G1 X110.561 Y107.204 E.03966
G1 X110.485 Y107.846 E.02804
G1 X110.173 Y108.712 E.03997
G1 X109.681 Y109.469 E.03918
G1 X109.568 Y109.577 E.00681
G1 X109.498 Y110.32 E.03238
G1 X109.421 Y110.596 E.01245
G1 X109.53 Y110.822 E.01089
G1 X109.786 Y111.755 E.04199
G1 X110.457 Y111.219 E.03728
G1 X111.298 Y110.767 E.04143
G1 X111.703 Y110.635 E.01852
G1 X111.759 Y111.215 E.02529
G1 X111.871 Y111.902 E.0302
G1 X112.022 Y112.542 E.02854
G1 X112.182 Y113.073 E.02409
G1 X113.448 Y115.186 E.10693
G1 X113.651 Y115.325 E.01069
G1 X112.969 Y115.954 E.04031
G1 X112.817 Y116.162 E.01117
G1 X112.129 Y117.443 E.06312
G1 X111.793 Y119.528 E.09168
G1 X112.246 Y121.416 E.08427
G1 X111.524 Y122.12 E.04373
G1 X110.727 Y122.646 E.04146
G1 X109.849 Y123.022 E.04147
G1 X108.918 Y123.234 E.04147
G1 X107.963 Y123.277 E.04147
G1 X107.017 Y123.149 E.04147
G1 X106.108 Y122.854 E.04147
G1 X105.267 Y122.401 E.04147
G1 X104.52 Y121.805 E.04147
G1 X103.956 Y121.16 E.03722
G1 X103.627 Y121.052 E.01502
G1 X102.786 Y120.594 E.04157
G1 X102.04 Y119.994 E.04154
G1 X101.415 Y119.272 E.04149
G1 X100.929 Y118.449 E.0415
G1 X100.636 Y117.656 E.03668
G1 X100.069 Y117.786 E.02521
G1 X99.116 Y117.829 E.04145
G1 X98.169 Y117.702 E.04145
G1 X97.261 Y117.407 E.04146
G1 X96.419 Y116.955 E.04146
G1 X95.672 Y116.36 E.04147
G1 X95.043 Y115.641 E.04147
G1 X94.553 Y114.821 E.04148
G1 X94.217 Y113.926 E.04148
G1 X94.046 Y112.986 E.04148
G1 X94.046 Y112.03 E.04148
G1 X94.217 Y111.09 E.04148
G1 X94.552 Y110.196 E.04148
G1 X95.043 Y109.375 E.04148
G1 X95.672 Y108.656 E.04148
G1 X96.419 Y108.061 E.04147
G1 X97.26 Y107.609 E.04147
G1 X98.169 Y107.314 E.04146
G1 X99.116 Y107.186 E.04146
G1 X99.369 Y107.198 E.01103
G1 X99.922 Y106.27 E.04688
G1 X99.189 Y105.432 E.04831
G1 X98.699 Y104.612 E.04149
G1 X98.363 Y103.717 E.04149
G1 X98.193 Y102.777 E.04149
G1 X98.193 Y101.821 E.04148
G1 X98.364 Y100.881 E.04148
G1 X98.7 Y99.986 E.04148
G1 X99.191 Y99.166 E.04147
G1 X99.82 Y98.447 E.04147
G1 X100.567 Y97.852 E.04146
G1 X101.408 Y97.401 E.04146
G1 X102.317 Y97.106 E.04145
G1 X103.263 Y96.979 E.04145
G1 X103.752 Y97.001 E.02124
G1 E-1.75 F6000
;WIPE_START
G1 F1200
G1 X103.263 Y96.979 E-.36697
G1 X102.757 Y97.047 E-.38303
;WIPE_END
G1 X112.622 Y116.1 F18000
G1 E2.5 F6000
G1 F1200
G1 X112.622 Y114.592 E.06545
G1 X112.124 Y113.76 E.04208
G1 X112.124 Y116.601 E.12331
G1 X111.742 Y117.312 E.03504
G1 X111.625 Y118.034 E.03175
G1 X111.625 Y112.621 E.23498
G1 X111.475 Y111.98 E.02857
G1 X111.35 Y111.197 E.03444
G1 X111.127 Y111.317 E.01101
G1 X111.127 Y121.898 E.45931
G1 X110.629 Y122.227 E.02592
G1 X110.629 Y111.599 E.46136
G1 X110.13 Y111.997 E.02767
G1 X110.13 Y122.462 E.4543
G1 X109.724 Y122.636 E.0192
G1 X109.632 Y122.657 E.00408
G1 X109.632 Y111.957 E.4645
G1 E-1.75 F6000
;WIPE_START
G1 F1200
G1 X109.632 Y112.957 E-.75
;WIPE_END
G1 X112.622 Y104.7 F18000
G1 E2.5 F6000
G1 F1200
G1 X112.622 Y100.869 E.16626
G1 X112.221 Y100.012 E.04109
G1 X112.124 Y99.878 E.00721
G1 X112.124 Y105.199 E.231
G1 X111.708 Y105.773 E.03076
G1 X111.625 Y105.852 E.00495
G1 X111.625 Y99.225 E.28766
G1 X111.127 Y98.749 E.02992
G1 X111.127 Y106.329 E.32905
G1 X111.07 Y106.384 E.00341
G1 X110.629 Y106.676 E.02299
G1 X110.629 Y98.402 E.35915
G1 X110.33 Y98.205 E.01554
G1 X110.13 Y98.12 E.00942
G1 X110.13 Y107.412 E.40338
G1 X110.09 Y107.754 E.01493
G1 X109.962 Y108.116 E.01667
G1 X109.81 Y108.53 E.01914
G1 X109.632 Y108.804 E.01417
G1 X109.632 Y97.907 E.47302
G1 X109.519 Y97.859 E.00532
G1 X109.134 Y97.77 E.01717
G1 X109.134 Y122.771 E1.08524
G1 X108.863 Y122.833 E.01204
G1 X108.635 Y122.843 E.0099
G1 X108.635 Y97.661 E1.09311
G1 X108.137 Y97.639 E.02165
G1 X108.137 Y122.866 E1.09506
G1 X107.981 Y122.873 E.00676
G1 X107.639 Y122.826 E.01502
G1 X107.639 Y97.641 E1.09323
G1 X107.14 Y97.709 E.02183
G1 X107.14 Y122.759 E1.08738
G1 X107.107 Y122.754 E.00147
G1 X106.642 Y122.603 E.02122
G1 X106.642 Y97.826 E1.07554
G1 X106.144 Y97.988 E.02274
G1 X106.144 Y122.415 E1.06035
G1 X105.645 Y122.146 E.02457
G1 X105.645 Y97.888 E1.05303
G1 X105.147 Y97.675 E.02353
G1 X105.147 Y121.789 E1.04678
G1 X104.8 Y121.513 E.01926
G1 X104.649 Y121.339 E.01
G1 X104.649 Y97.535 E1.03328
G1 X104.15 Y97.423 E.02217
G1 X104.15 Y120.799 E1.01468
G1 X103.788 Y120.68 E.01655
G1 X103.652 Y120.606 E.00673
G1 X103.652 Y97.401 E1.00729
G1 X103.281 Y97.384 E.01612
G1 X103.154 Y97.401 E.00558
G1 X103.154 Y120.335 E.99553
G1 X103.011 Y120.257 E.00707
G1 X102.655 Y119.971 E.0198
G1 X102.655 Y97.468 E.97683
G1 X102.407 Y97.501 E.01089
G1 X102.157 Y97.582 E.01139
G1 X102.157 Y119.512 E.95194
G1 X101.744 Y119.035 E.0274
G1 X101.659 Y118.891 E.00728
G1 X101.659 Y97.744 E.91795
G1 X101.567 Y97.773 E.00417
G1 X101.16 Y97.992 E.02005
G1 X101.16 Y117.911 E.86466
G1 X100.891 Y117.183 E.03368
G1 X100.662 Y117.236 E.01021
G1 X100.662 Y98.293 E.82229
G1 X100.164 Y98.689 E.02765
G1 X100.164 Y105.933 E.31445
G1 X99.665 Y105.363 E.03287
G1 X99.665 Y99.237 E.26595
G1 X99.518 Y99.405 E.00969
G1 X99.167 Y99.992 E.0297
G1 X99.167 Y104.608 E.20038
G1 X99.064 Y104.436 E.00871
G1 X98.754 Y103.609 E.03833
G1 X98.669 Y103.14 E.02069
G1 X98.669 Y100.643 E.10839
G1 X111.625 Y121.744 F18000
G1 F1200
G1 X111.625 Y119.693 E.08903
G1 X100.164 Y117.557 F18000
G1 F1200
G1 X100.164 Y106.653 E.47334
G1 X99.665 Y107.49 E.0423
G1 X99.665 Y117.4 E.43017
G1 X99.167 Y117.423 E.02165
G1 X99.167 Y107.593 E.4267
G1 X98.669 Y107.654 E.02179
G1 X98.669 Y117.362 E.42139
G1 X98.259 Y117.306 E.01794
G1 X98.17 Y117.278 E.00405
G1 X98.17 Y107.738 E.41411
G1 X97.672 Y107.899 E.02274
G1 X97.672 Y117.116 E.40008
G1 X97.42 Y117.034 E.01151
G1 X97.174 Y116.902 E.01212
G1 X97.174 Y108.113 E.3815
G1 X96.675 Y108.381 E.02456
G1 X96.675 Y116.634 E.35826
G1 X96.177 Y116.246 E.02743
G1 X96.177 Y108.77 E.32454
G1 X95.952 Y108.949 E.01251
G1 X95.679 Y109.261 E.018
G1 X95.679 Y115.754 E.28185
G1 X95.371 Y115.402 E.0203
G1 X95.18 Y115.084 E.01611
G1 X95.18 Y109.932 E.22364
G1 X94.918 Y110.371 E.02223
G1 X94.682 Y110.999 E.02908
G1 X94.682 Y114.591 E.15595
G1 E-1.75 F6000
;WIPE_START
G1 F1200
G1 X94.682 Y113.591 E-.75
;WIPE_END
G1 X122.601 Y104.673 F18000
G1 E2.5 F6000
G1 F1200
G1 X123.154 Y104.698 E.02402
G1 X124.084 Y104.91 E.04145
G1 X124.962 Y105.285 E.04145
G1 X125.759 Y105.811 E.04145
G1 X126.45 Y106.471 E.04145
G1 X127.011 Y107.243 E.04145
G1 X127.426 Y108.104 E.04145
G1 X127.68 Y109.024 E.04145
G1 X127.766 Y109.975 E.04146
G1 X127.68 Y110.926 E.04146
G1 X127.426 Y111.847 E.04146
G1 X127.012 Y112.708 E.04146
G1 X126.451 Y113.48 E.04146
G1 X125.76 Y114.141 E.04146
G1 X125.394 Y114.383 E.01908
G1 X125.454 Y114.942 E.02442
G1 X125.349 Y115.85 E.03967
G1 X125.041 Y116.732 E.04054
G1 X124.557 Y117.507 E.03966
G1 X123.908 Y118.163 E.04006
G1 X123.651 Y118.327 E.01325
G1 X123.638 Y118.425 E.00427
G1 X123.296 Y119.261 E.03923
G1 X122.757 Y119.973 E.03876
G1 X122.577 Y120.118 E.01002
G1 X122.721 Y119.396 E.03198
G1 X122.721 Y119.117 E.01211
G1 X121.966 Y116.383 E.12308
G1 X121.011 Y115.329 E.06177
G1 X121.127 Y115.252 E.00606
G1 X122.311 Y113.493 E.09202
G1 X122.721 Y111.439 E.09093
G1 X122.721 Y108.555 E.12519
G1 X122.155 Y106.163 E.10671
G1 X121.113 Y104.829 E.07347
G1 X121.254 Y104.783 E.0064
G1 X122.2 Y104.655 E.04145
G1 X122.534 Y104.67 E.0145
G1 X127.073 Y112.115 F18000
G1 F1200
G1 X127.073 Y108.344 E.16369
G1 X127.046 Y108.246 E.00441
G1 X126.663 Y107.451 E.0383
G1 X126.575 Y107.33 E.00652
G1 X126.575 Y112.623 E.22975
G1 X126.146 Y113.214 E.03172
G1 X126.077 Y113.28 E.00413
G1 X126.077 Y106.673 E.2868
G1 X125.578 Y106.196 E.02992
G1 X125.578 Y113.756 E.32816
G1 X125.508 Y113.824 E.00424
G1 X125.08 Y114.106 E.02225
G1 X125.08 Y105.846 E.35854
G1 X124.771 Y105.642 E.0161
G1 X124.582 Y105.562 E.00891
G1 X124.582 Y116.705 E.48372
G1 X124.239 Y117.255 E.02814
G1 X124.083 Y117.412 E.00958
G1 X124.083 Y105.349 E.52365
G1 X123.959 Y105.296 E.00586
G1 X123.585 Y105.21 E.01666
G1 X123.585 Y117.89 E.55043
G1 X123.275 Y118.089 E.01597
G1 X123.245 Y118.321 E.01016
G1 X123.087 Y118.706 E.01809
G1 X123.087 Y105.099 E.59067
G1 X122.588 Y105.077 E.02165
G1 X122.588 Y106.243 E.05065
G1 X122.527 Y105.984 E.01155
G1 X122.09 Y105.424 E.03084
G1 X122.09 Y104.874 E.02391
G1 E-1.75 F6000
;WIPE_START
G1 F1200
G1 X122.09 Y105.424 E-.41306
G1 X122.366 Y105.779 E-.33694
;WIPE_END
G1 X122.588 Y117.877 F18000
G1 E2.5 F6000
G1 F1200
G1 X122.588 Y113.803 E.17685
G1 X122.09 Y114.544 E.03876
G1 X122.09 Y115.919 E.05968
G1 X121.592 Y115.369 E.03221
G1 X121.592 Y114.923 E.01935
; stop printing object CAPSTAN-004.stl id:0 copy 0
G1 E-1.75 F6000
;WIPE_START
G1 F1200
G1 X121.592 Y115.369 E-.33429
G1 X121.964 Y115.78 E-.41571
;WIPE_END
M106 S127
;LAYER_CHANGE
;Z:0.44
;HEIGHT:0.2
; BEFORE_LAYER_CHANGE 1 @ 0.44mm
G92 E0
; AFTER_LAYER_CHANGE 1 @ 0.44mm
M204 P2000
M104 S190 ; set nozzle temperature
; printing object "CAPSTAN-004.stl" id:0 copy 0
G1 X117.968 Y113.22 Z.44 F18000
G1 E2.5 F6000
;WIDTH:0.4
G1 F5082
G1 X118.011 Y113.232 E.00129
G1 X118.092 Y113.315 E.00333
G1 X118.119 Y113.42 E.00311
G1 X118.092 Y113.524 E.00311
G1 X118.009 Y113.608 E.00341
G1 X117.916 Y113.633 E.00275
G1 X117.809 Y113.608 E.00318
G1 X117.717 Y113.525 E.00358
G1 X117.694 Y113.441 E.0025
G1 X117.719 Y113.312 E.00379
G1 X117.808 Y113.231 E.00345
G1 X117.917 Y113.206 E.0032
G1 E-1.75 F6000
;WIPE_START
G1 X117.808 Y113.231 E-.08345
G1 X117.719 Y113.312 E-.08996
G1 X117.694 Y113.441 E-.09879
G1 X117.717 Y113.525 E-.06508
G1 X117.809 Y113.608 E-.09312
G1 X117.916 Y113.633 E-.08282
G1 X118.009 Y113.608 E-.07168
G1 X118.092 Y113.524 E-.08871
G1 X118.118 Y113.425 E-.07639
;WIPE_END
G1 X120.795 Y108.057 F18000
G1 E2.5 F6000
G1 F5082
G1 X121.042 Y107.859 E.00911
G1 X121.442 Y107.644 E.01309
G1 X121.866 Y107.506 E.01282
G1 X122.41 Y107.446 E.01576
G1 X122.428 Y107.047 E.01152
G1 X122.833 Y107.065 E.01169
G1 X123.347 Y107.182 E.01517
G1 X123.831 Y107.389 E.01517
G1 X124.27 Y107.679 E.01517
G1 X124.651 Y108.043 E.01517
G1 X124.961 Y108.469 E.01517
G1 X125.189 Y108.943 E.01517
G1 X125.33 Y109.451 E.01517
G1 X125.377 Y109.975 E.01517
G1 X125.33 Y110.5 E.01517
G1 X125.19 Y111.008 E.01517
G1 X124.961 Y111.483 E.01517
G1 X124.652 Y111.909 E.01517
G1 X124.271 Y112.273 E.01517
G1 X123.834 Y112.561 E.01507
G1 X122.983 Y112.913 E.02652
G1 X122.656 Y113.806 E.0274
G1 X122.876 Y114.17 E.01224
G1 X123.005 Y114.545 E.01143
G1 X123.047 Y114.936 E.01133
G1 X123.001 Y115.331 E.01143
G1 X122.974 Y115.411 E.00245
G1 X122.871 Y115.697 E.00876
G1 X122.659 Y116.031 E.01139
G1 X122.38 Y116.308 E.0113
G1 X121.658 Y116.749 E.02439
G1 X121.35 Y117.347 E.01936
G1 X121.288 Y117.811 E.01347
G1 X121.179 Y118.074 E.00821
G1 X120.998 Y118.307 E.00849
G1 X120.779 Y118.472 E.0079
G1 X120.237 Y118.693 E.01687
G1 X119.985 Y119.402 E.02166
G1 X119.975 Y119.596 E.00561
G1 X119.912 Y119.826 E.00686
G1 X119.874 Y119.901 E.00241
G1 X119.685 Y120.143 E.00885
G1 X119.526 Y120.278 E.00599
G1 X119.228 Y120.348 E.00883
G1 X119.064 Y120.329 E.00476
G1 X118.892 Y120.264 E.00529
G1 X118.722 Y120.144 E.006
G1 X118.599 Y119.986 E.00576
G1 X118.544 Y119.84 E.00451
G1 X118.515 Y119.686 E.00449
G1 X118.574 Y119.417 E.00794
G1 X118.718 Y119.126 E.00935
G1 X119.083 Y118.771 E.01465
G1 X119.412 Y117.906 E.02667
G1 X118.633 Y117.245 E.02942
G1 X118.022 Y117.214 E.01762
G1 X117.747 Y116.926 E.01145
G1 X117.695 Y116.832 E.00309
G1 X117.652 Y116.695 E.00416
G1 X117.642 Y116.596 E.00284
G1 X117.672 Y116.513 E.00254
G1 X117.824 Y116.25 E.00876
G1 X118.119 Y115.894 E.01332
G1 X118.305 Y115.847 E.00552
G1 X118.471 Y115.836 E.00481
G1 X118.836 Y115.93 E.01085
G1 X119.277 Y115.595 E.01597
G1 X119.584 Y115.001 E.01925
G1 X119.605 Y114.489 E.01475
G1 X119.698 Y114.175 E.00943
G1 X119.905 Y113.837 E.01142
G1 X120.189 Y113.551 E.01162
G1 X120.951 Y113.056 E.02615
G1 X120.464 Y112.162 E.02931
G1 X120.062 Y111.702 E.01759
G1 X119.792 Y111.25 E.01517
G1 X119.607 Y110.757 E.01517
G1 X119.513 Y110.239 E.01517
G1 X119.513 Y109.712 E.01517
G1 X119.607 Y109.194 E.01517
G1 X119.793 Y108.701 E.01517
G1 X120.063 Y108.249 E.01517
G1 X120.409 Y107.853 E.01517
G1 X120.821 Y107.524 E.01517
G1 X121.285 Y107.275 E.01516
G1 X121.78 Y107.114 E.015
G1 X122.374 Y107.044 E.01723
G1 X122.887 Y106.667 F18000
G1 F5082
G1 X123.471 Y106.8 E.01724
G1 X124.021 Y107.035 E.01724
G1 X124.521 Y107.365 E.01724
G1 X124.953 Y107.778 E.01724
G1 X125.305 Y108.263 E.01724
G1 X125.565 Y108.802 E.01724
G1 X125.725 Y109.379 E.01724
G1 X125.779 Y109.975 E.01724
G1 X125.725 Y110.572 E.01724
G1 X125.566 Y111.149 E.01725
G1 X125.306 Y111.689 E.01725
G1 X124.954 Y112.173 E.01725
G1 X124.521 Y112.587 E.01725
G1 X124.023 Y112.916 E.01721
G1 X123.299 Y113.216 E.02256
G1 X123.098 Y113.764 E.01681
G1 X123.24 Y114 E.00794
G1 X123.398 Y114.458 E.01395
G1 X123.45 Y114.938 E.01392
G1 X123.394 Y115.42 E.01395
G1 X123.351 Y115.543 E.00377
G1 X123.232 Y115.874 E.01012
G1 X122.973 Y116.284 E.01397
G1 X122.629 Y116.625 E.01395
G1 X121.962 Y117.032 E.02251
G1 X121.737 Y117.468 E.01413
G1 X121.678 Y117.916 E.013
G1 X121.527 Y118.277 E.01126
G1 X121.286 Y118.589 E.01137
G1 X121.181 Y118.673 E.00386
G1 X120.976 Y118.824 E.00735
G1 X120.554 Y118.996 E.01312
G1 X120.381 Y119.481 E.01482
G1 X120.372 Y119.661 E.00519
G1 X120.287 Y119.972 E.00929
G1 X120.213 Y120.116 E.00467
G1 X119.975 Y120.422 E.01114
G1 X119.76 Y120.604 E.00812
G1 X119.655 Y120.658 E.0034
G1 X119.252 Y120.753 E.01193
G1 X118.969 Y120.721 E.00821
