; generated by Slic3r 1.3.0 on 2025-08-27 at 02:07:36

; external perimeters extrusion width = 0.55mm (4.37mm^3/s)
; perimeters extrusion width = 0.70mm (11.44mm^3/s)
; infill extrusion width = 0.62mm (13.45mm^3/s)
; solid infill extrusion width = 0.70mm (3.81mm^3/s)
; top infill extrusion width = 0.70mm (2.86mm^3/s)

M107
M104 S200 ; set temperature
G28 ; home all axes
G1 Z5 F5000 ; lift nozzle

; Filament gcode

M109 S200 ; set temperature and wait for it to be reached
G21 ; set units to millimeters
G90 ; use absolute coordinates
M82 ; use absolute distances for extrusion
G92 E0
G1 Z0.350 F7800.000
G1 E-2.00000 F2400.00000
G92 E0
G1 X86.956 Y86.870 F7800.000
G1 E2.00000 F2400.00000
G1 F1800
G1 X87.629 Y86.234 E2.02864
G1 X88.331 Y85.633 E2.05725
G1 X89.064 Y85.068 E2.08588
G1 X89.816 Y84.546 E2.11421
G1 X90.438 Y84.153 E2.13697
G1 X91.243 Y83.695 E2.16563
G1 X92.069 Y83.277 E2.19427
G1 X92.915 Y82.902 E2.22290
G1 X93.778 Y82.569 E2.25153
G1 X94.656 Y82.280 E2.28012
G1 X95.443 Y82.062 E2.30540
G1 X96.344 Y81.856 E2.33400
G1 X97.263 Y81.695 E2.36286
G1 X98.174 Y81.582 E2.39126
G1 X99.097 Y81.514 E2.41989
G1 X100.022 Y81.492 E2.44852
G1 X100.947 Y81.516 E2.47717
G1 X101.682 Y81.569 E2.49995
G1 X102.582 Y81.673 E2.52800
G1 X103.504 Y81.827 E2.55691
G1 X104.407 Y82.024 E2.58553
G1 X105.300 Y82.267 E2.61414
G1 X106.180 Y82.554 E2.64280
G1 X107.044 Y82.885 E2.67141
G1 X107.890 Y83.258 E2.70002
G1 X108.703 Y83.666 E2.72815
G1 X109.523 Y84.130 E2.75732
G1 X110.304 Y84.626 E2.78595
G1 X110.974 Y85.096 E2.81128
G1 X111.710 Y85.667 E2.84009
G1 X112.404 Y86.264 E2.86842
G1 X113.077 Y86.903 E2.89714
G1 X113.714 Y87.571 E2.92568
G1 X114.319 Y88.274 E2.95440
G1 X114.891 Y89.009 E2.98320
G1 X115.417 Y89.760 E3.01157
G1 X115.910 Y90.543 E3.04021
G1 X116.272 Y91.182 E3.06295
G1 X116.689 Y92.000 E3.09134
G1 X117.068 Y92.844 E3.11996
G1 X117.405 Y93.706 E3.14859
G1 X117.697 Y94.583 E3.17722
G1 X117.946 Y95.475 E3.20585
G1 X118.149 Y96.373 E3.23434
G1 X118.292 Y97.180 E3.25970
G1 X118.410 Y98.097 E3.28833
G1 X118.482 Y99.020 E3.31697
G1 X118.508 Y99.945 E3.34558
G1 X118.496 Y100.672 E3.36809
G1 X118.439 Y101.595 E3.39669
G1 X118.336 Y102.515 E3.42534
G1 X118.188 Y103.428 E3.45397
G1 X117.993 Y104.333 E3.48261
G1 X117.755 Y105.226 E3.51121
G1 X117.471 Y106.107 E3.53984
G1 X117.144 Y106.973 E3.56847
G1 X116.774 Y107.821 E3.59712
G1 X116.362 Y108.650 E3.62575
G1 X115.909 Y109.457 E3.65438
G1 X115.417 Y110.240 E3.68299
G1 X114.891 Y110.991 E3.71138
G1 X114.324 Y111.720 E3.73995
G1 X113.714 Y112.429 E3.76890
G1 X113.077 Y113.097 E3.79744
G1 X112.406 Y113.734 E3.82608
G1 X111.717 Y114.327 E3.85419
G1 X110.980 Y114.899 E3.88307
G1 X110.304 Y115.374 E3.90864
G1 X109.512 Y115.877 E3.93766
G1 X108.696 Y116.338 E3.96666
G1 X107.881 Y116.746 E3.99487
G1 X107.045 Y117.115 E4.02315
G1 X106.180 Y117.446 E4.05178
G1 X105.300 Y117.733 E4.08042
G1 X104.378 Y117.983 E4.10998
G1 X103.504 Y118.173 E4.13767
G1 X102.582 Y118.327 E4.16658
G1 X101.678 Y118.432 E4.19475
G1 X100.947 Y118.484 E4.21741
G1 X100.022 Y118.508 E4.24606
G1 X99.203 Y118.491 E4.27139
G1 X98.280 Y118.428 E4.30002
G1 X97.364 Y118.319 E4.32855
G1 X96.453 Y118.165 E4.35717
G1 X95.549 Y117.965 E4.38580
G1 X94.657 Y117.720 E4.41443
G1 X93.778 Y117.431 E4.44305
G1 X92.915 Y117.098 E4.47169
G1 X92.069 Y116.723 E4.50031
G1 X91.245 Y116.306 E4.52888
G1 X90.609 Y115.949 E4.55145
G1 X89.823 Y115.459 E4.58012
G1 X89.064 Y114.932 E4.60870
G1 X88.333 Y114.368 E4.63727
G1 X87.630 Y113.768 E4.66587
G1 X86.956 Y113.131 E4.69456
G1 X86.390 Y112.543 E4.71981
G1 X85.780 Y111.847 E4.74844
G1 X85.206 Y111.122 E4.77707
G1 X84.669 Y110.368 E4.80570
G1 X84.170 Y109.589 E4.83433
G1 X83.710 Y108.786 E4.86296
G1 X83.291 Y107.961 E4.89159
G1 X82.914 Y107.116 E4.92022
G1 X82.583 Y106.262 E4.94854
G1 X82.348 Y105.564 E4.97135
G1 X82.092 Y104.675 E4.99998
G1 X81.881 Y103.774 E5.02859
G1 X81.715 Y102.864 E5.05724
G1 X81.595 Y101.952 E5.08567
G1 X81.520 Y101.024 E5.11450
G1 X81.492 Y100.099 E5.14313
G1 X81.510 Y99.177 E5.17166
G1 X81.575 Y98.251 E5.20038
G1 X81.685 Y97.332 E5.22901
G1 X81.841 Y96.420 E5.25764
G1 X82.041 Y95.524 E5.28607
G1 X82.258 Y94.730 E5.31153
G1 X82.543 Y93.851 E5.34012
G1 X82.873 Y92.985 E5.36880
G1 X83.245 Y92.138 E5.39741
G1 X83.658 Y91.311 E5.42601
G1 X84.113 Y90.505 E5.45464
G1 X84.607 Y89.723 E5.48327
G1 X85.140 Y88.967 E5.51189
G1 X85.710 Y88.238 E5.54052
G1 X86.316 Y87.538 E5.56917
G1 X86.903 Y86.923 E5.59547
G1 E3.59547 F2400.00000
G92 E0
G1 X104.553 Y104.533 F7800.000
G1 E2.00000 F2400.00000
G1 F1800
G1 X104.167 Y104.892 E2.01632
G1 X103.664 Y105.280 E2.03595
G1 X103.120 Y105.618 E2.05578
G1 X102.545 Y105.901 E2.07560
G1 X101.945 Y106.125 E2.09543
G1 X101.326 Y106.289 E2.11525
G1 X100.693 Y106.389 E2.13507
G1 X100.053 Y106.427 E2.15490
G1 X99.413 Y106.400 E2.17472
G1 X98.779 Y106.310 E2.19455
G1 X98.157 Y106.157 E2.21437
G1 X97.553 Y105.943 E2.23419
G1 X96.973 Y105.669 E2.25402
G1 X96.424 Y105.340 E2.27384
G1 X95.913 Y104.959 E2.29356
G1 X95.493 Y104.580 E2.31108
G1 X95.141 Y104.206 E2.32694
G1 X94.751 Y103.708 E2.34653
G1 X94.408 Y103.167 E2.36635
G1 X94.120 Y102.594 E2.38618
G1 X93.891 Y101.996 E2.40600
G1 X93.722 Y101.378 E2.42582
G1 X93.616 Y100.746 E2.44565
G1 X93.574 Y100.107 E2.46547
G1 X93.595 Y99.466 E2.48530
G1 X93.680 Y98.831 E2.50512
G1 X93.828 Y98.208 E2.52495
G1 X94.037 Y97.602 E2.54477
G1 X94.305 Y97.021 E2.56459
G1 X94.630 Y96.468 E2.58442
G1 X95.009 Y95.951 E2.60424
G1 X95.437 Y95.475 E2.62406
G1 X95.910 Y95.043 E2.64389
G1 X96.424 Y94.660 E2.66371
G1 X96.973 Y94.331 E2.68354
G1 X97.553 Y94.057 E2.70336
G1 X98.157 Y93.843 E2.72319
G1 X98.779 Y93.690 E2.74301
G1 X99.408 Y93.601 E2.76266
G1 X99.937 Y93.575 E2.77905
G1 X100.423 Y93.586 E2.79410
G1 X101.113 Y93.670 E2.81562
G1 X101.740 Y93.813 E2.83552
G1 X102.348 Y94.017 E2.85535
G1 X102.932 Y94.281 E2.87517
G1 X103.487 Y94.601 E2.89499
G1 X104.007 Y94.975 E2.91482
G1 X104.487 Y95.399 E2.93464
G1 X104.923 Y95.869 E2.95447
G1 X105.310 Y96.380 E2.97429
G1 X105.644 Y96.926 E2.99411
G1 X105.922 Y97.504 E3.01394
G1 X106.141 Y98.106 E3.03376
G1 X106.299 Y98.727 E3.05359
G1 X106.395 Y99.360 E3.07341
G1 X106.427 Y100.000 E3.09323
G1 X106.395 Y100.640 E3.11306
G1 X106.299 Y101.273 E3.13288
G1 X106.141 Y101.894 E3.15271
G1 X105.922 Y102.496 E3.17253
G1 X105.644 Y103.074 E3.19235
G1 X105.310 Y103.620 E3.21218
G1 X104.926 Y104.127 E3.23186
G1 X104.604 Y104.478 E3.24659
G1 X104.110 Y104.093 F7800.000
G1 F1800
G1 X103.762 Y104.415 E3.26125
G1 X103.307 Y104.766 E3.27903
G1 X102.816 Y105.071 E3.29692
G1 X102.297 Y105.327 E3.31482
G1 X101.756 Y105.529 E3.33271
G1 X101.196 Y105.676 E3.35060
G1 X100.625 Y105.767 E3.36850
G1 X100.048 Y105.801 E3.38639
G1 X99.470 Y105.777 E3.40429
G1 X98.898 Y105.695 E3.42218
G1 X98.336 Y105.557 E3.44007
G1 X97.791 Y105.364 E3.45797
G1 X97.268 Y105.118 E3.47586
G1 X96.772 Y104.820 E3.49376
G1 X96.310 Y104.476 E3.51159
G1 X95.930 Y104.133 E3.52741
G1 X95.616 Y103.799 E3.54162
G1 X95.262 Y103.347 E3.55937
G1 X94.952 Y102.859 E3.57726
G1 X94.692 Y102.342 E3.59516
G1 X94.486 Y101.802 E3.61305
G1 X94.334 Y101.244 E3.63094
G1 X94.238 Y100.673 E3.64884
G1 X94.199 Y100.096 E3.66673
G1 X94.219 Y99.518 E3.68463
G1 X94.295 Y98.945 E3.70252
G1 X94.429 Y98.382 E3.72041
G1 X94.617 Y97.836 E3.73831
G1 X94.860 Y97.311 E3.75620
G1 X95.153 Y96.812 E3.77410
G1 X95.495 Y96.346 E3.79199
G1 X95.881 Y95.915 E3.80988
G1 X96.308 Y95.525 E3.82778
G1 X96.772 Y95.180 E3.84567
G1 X97.268 Y94.882 E3.86357
G1 X97.791 Y94.636 E3.88146
G1 X98.336 Y94.443 E3.89936
G1 X98.898 Y94.305 E3.91725
G1 X99.467 Y94.224 E3.93504
G1 X99.945 Y94.200 E3.94985
G1 X100.378 Y94.210 E3.96325
G1 X101.006 Y94.287 E3.98281
G1 X101.571 Y94.416 E4.00076
G1 X102.119 Y94.600 E4.01865
G1 X102.646 Y94.838 E4.03655
G1 X103.147 Y95.127 E4.05444
G1 X103.617 Y95.465 E4.07233
G1 X104.050 Y95.847 E4.09023
G1 X104.444 Y96.271 E4.10812
G1 X104.793 Y96.732 E4.12602
G1 X105.094 Y97.226 E4.14391
G1 X105.345 Y97.747 E4.16180
G1 X105.543 Y98.290 E4.17970
G1 X105.686 Y98.851 E4.19759
G1 X105.772 Y99.422 E4.21549
G1 X105.801 Y100.000 E4.23338
G1 X105.772 Y100.578 E4.25127
G1 X105.686 Y101.149 E4.26917
G1 X105.543 Y101.710 E4.28706
G1 X105.345 Y102.253 E4.30496
G1 X105.094 Y102.774 E4.32285
G1 X104.793 Y103.268 E4.34074
G1 X104.445 Y103.727 E4.35855
G1 X104.160 Y104.037 E4.37160
G1 X103.666 Y103.652 F7800.000
G1 F1800
G1 X103.358 Y103.938 E4.38460
G1 X102.951 Y104.252 E4.40052
G1 X102.513 Y104.524 E4.41648
G1 X102.050 Y104.752 E4.43245
G1 X101.566 Y104.933 E4.44841
G1 X101.067 Y105.064 E4.46437
G1 X100.558 Y105.145 E4.48034
G1 X100.043 Y105.175 E4.49630
G1 X99.527 Y105.154 E4.51227
G1 X99.016 Y105.081 E4.52823
G1 X98.515 Y104.958 E4.54420
G1 X98.029 Y104.786 E4.56016
G1 X97.562 Y104.566 E4.57612
G1 X97.120 Y104.300 E4.59209
G1 X96.707 Y103.993 E4.60803
G1 X96.368 Y103.686 E4.62215
G1 X96.090 Y103.391 E4.63471
G1 X95.773 Y102.986 E4.65062
G1 X95.496 Y102.550 E4.66659
G1 X95.265 Y102.089 E4.68255
G1 X95.080 Y101.607 E4.69852
G1 X94.945 Y101.110 E4.71448
G1 X94.859 Y100.601 E4.73045
G1 X94.825 Y100.086 E4.74641
G1 X94.842 Y99.570 E4.76237
G1 X94.911 Y99.059 E4.77834
G1 X95.030 Y98.557 E4.79430
G1 X95.198 Y98.069 E4.81027
G1 X95.414 Y97.601 E4.82623
G1 X95.676 Y97.156 E4.84219
G1 X95.980 Y96.740 E4.85816
G1 X96.325 Y96.356 E4.87412
G1 X96.706 Y96.008 E4.89009
G1 X97.120 Y95.700 E4.90605
G1 X97.562 Y95.434 E4.92201
G1 X98.029 Y95.214 E4.93798
G1 X98.515 Y95.042 E4.95394
G1 X99.016 Y94.919 E4.96991
G1 X99.526 Y94.846 E4.98583
G1 X99.953 Y94.826 E4.99906
G1 X100.333 Y94.834 E5.01082
G1 X100.898 Y94.903 E5.02843
G1 X101.401 Y95.018 E5.04441
G1 X101.891 Y95.182 E5.06037
G1 X102.361 Y95.395 E5.07634
G1 X102.808 Y95.652 E5.09230
G1 X103.227 Y95.954 E5.10827
G1 X103.613 Y96.295 E5.12423
G1 X103.964 Y96.673 E5.14019
G1 X104.276 Y97.085 E5.15616
G1 X104.545 Y97.525 E5.17212
G1 X104.769 Y97.990 E5.18809
G1 X104.945 Y98.475 E5.20405
G1 X105.073 Y98.975 E5.22002
G1 X105.150 Y99.485 E5.23598
G1 X105.175 Y100.000 E5.25194
G1 X105.150 Y100.515 E5.26791
G1 X105.073 Y101.025 E5.28387
G1 X104.945 Y101.525 E5.29984
G1 X104.769 Y102.010 E5.31580
G1 X104.545 Y102.475 E5.33176
G1 X104.276 Y102.915 E5.34773
G1 X103.965 Y103.326 E5.36366
G1 X103.717 Y103.596 E5.37502
G1 X103.666 Y103.652 F7800.000
G1 E3.37502 F2400.00000
G92 E0
G1 X107.314 Y107.224 F7800.000
G1 E2.00000 F2400.00000
G1 F1800
G1 X106.787 Y107.725 E2.02250
G1 X106.392 Y108.055 E2.03841
G1 X105.981 Y108.364 E2.05432
G1 X105.574 Y108.640 E2.06954
G1 X104.804 Y109.091 E2.09715
G1 X104.356 Y109.315 E2.11263
G1 X103.885 Y109.521 E2.12854
G1 X103.405 Y109.703 E2.14445
G1 X102.916 Y109.861 E2.16035
G1 X102.419 Y109.994 E2.17626
G1 X101.917 Y110.103 E2.19217
G1 X101.409 Y110.186 E2.20807
G1 X100.898 Y110.244 E2.22398
G1 X100.385 Y110.276 E2.23989
G1 X99.871 Y110.282 E2.25579
G1 X99.358 Y110.263 E2.27170
G1 X98.845 Y110.218 E2.28761
G1 X98.336 Y110.148 E2.30351
G1 X97.831 Y110.052 E2.31942
G1 X97.331 Y109.931 E2.33533
G1 X96.838 Y109.785 E2.35123
G1 X95.898 Y109.429 E2.38234
G1 X95.096 Y109.038 E2.40996
G1 X94.662 Y108.789 E2.42545
G1 X94.229 Y108.511 E2.44135
G1 X93.811 Y108.212 E2.45726
G1 X93.408 Y107.893 E2.47317
G1 X93.022 Y107.553 E2.48907
G1 X92.653 Y107.195 E2.50498
G1 X92.303 Y106.819 E2.52088
G1 X91.972 Y106.426 E2.53679
G1 X91.661 Y106.016 E2.55270
G1 X91.370 Y105.592 E2.56860
G1 X91.102 Y105.154 E2.58451
G1 X90.863 Y104.717 E2.59993
G1 X90.490 Y103.912 E2.62737
G1 X90.311 Y103.445 E2.64283
G1 X90.151 Y102.957 E2.65873
G1 X90.016 Y102.461 E2.67464
G1 X89.905 Y101.959 E2.69055
G1 X89.820 Y101.452 E2.70645
G1 X89.760 Y100.941 E2.72236
G1 X89.726 Y100.428 E2.73827
G1 X89.717 Y99.914 E2.75417
G1 X89.775 Y98.911 E2.78528
G1 X89.908 Y98.028 E2.81291
G1 X90.016 Y97.539 E2.82839
G1 X90.151 Y97.043 E2.84429
G1 X90.311 Y96.555 E2.86020
G1 X90.495 Y96.075 E2.87611
G1 X90.703 Y95.605 E2.89201
G1 X90.935 Y95.146 E2.90792
G1 X91.189 Y94.699 E2.92383
G1 X91.465 Y94.265 E2.93973
G1 X91.762 Y93.845 E2.95564
G1 X92.080 Y93.441 E2.97155
G1 X92.418 Y93.054 E2.98745
G1 X92.774 Y92.683 E3.00336
G1 X93.149 Y92.331 E3.01927
G1 X93.541 Y91.999 E3.03517
G1 X93.949 Y91.686 E3.05108
G1 X94.372 Y91.394 E3.06699
G1 X94.809 Y91.123 E3.08289
G1 X95.259 Y90.875 E3.09880
G1 X95.721 Y90.649 E3.11471
G1 X96.175 Y90.455 E3.12998
G1 X97.015 Y90.160 E3.15754
G1 X97.497 Y90.026 E3.17302
G1 X97.999 Y89.913 E3.18893
G1 X98.506 Y89.826 E3.20484
G1 X99.016 Y89.764 E3.22074
G1 X99.529 Y89.728 E3.23665
G1 X100.044 Y89.717 E3.25261
G1 X100.556 Y89.732 E3.26846
G1 X101.069 Y89.773 E3.28437
G1 X101.579 Y89.839 E3.30027
G1 X102.085 Y89.931 E3.31618
G1 X102.585 Y90.047 E3.33209
G1 X103.079 Y90.189 E3.34799
G1 X103.566 Y90.355 E3.36390
G1 X104.044 Y90.545 E3.37981
G1 X104.511 Y90.759 E3.39571
G1 X104.967 Y90.996 E3.41162
G1 X105.411 Y91.256 E3.42753
G1 X105.841 Y91.537 E3.44343
G1 X106.257 Y91.840 E3.45934
G1 X106.657 Y92.163 E3.47525
G1 X107.040 Y92.505 E3.49115
G1 X107.406 Y92.866 E3.50706
G1 X107.753 Y93.245 E3.52297
G1 X108.073 Y93.631 E3.53846
G1 X108.590 Y94.348 E3.56581
G1 X108.855 Y94.772 E3.58128
G1 X109.105 Y95.221 E3.59719
G1 X109.332 Y95.682 E3.61310
G1 X109.537 Y96.154 E3.62900
G1 X109.717 Y96.636 E3.64491
G1 X109.873 Y97.125 E3.66082
G1 X110.004 Y97.622 E3.67672
G1 X110.111 Y98.125 E3.69263
G1 X110.192 Y98.633 E3.70854
G1 X110.247 Y99.144 E3.72444
G1 X110.277 Y99.657 E3.74035
G1 X110.281 Y100.171 E3.75625
G1 X110.260 Y100.685 E3.77216
G1 X110.213 Y101.197 E3.78807
G1 X110.140 Y101.706 E3.80397
G1 X110.042 Y102.211 E3.81988
G1 X109.919 Y102.710 E3.83579
G1 X109.772 Y103.202 E3.85169
G1 X109.599 Y103.687 E3.86761
G1 X109.412 Y104.142 E3.88284
G1 X109.017 Y104.942 E3.91046
G1 X108.766 Y105.375 E3.92592
G1 X108.487 Y105.806 E3.94182
G1 X108.186 Y106.223 E3.95773
G1 X107.865 Y106.624 E3.97364
G1 X107.366 Y107.170 E3.99652
G1 X107.760 Y107.661 F7800.000
G1 F1800
G1 X107.199 Y108.195 E4.02047
G1 X106.781 Y108.544 E4.03735
G1 X106.345 Y108.873 E4.05423
G1 X105.908 Y109.169 E4.07056
G1 X105.102 Y109.641 E4.09947
G1 X104.621 Y109.881 E4.11608
G1 X104.122 Y110.099 E4.13296
G1 X103.612 Y110.293 E4.14983
G1 X103.093 Y110.460 E4.16670
G1 X102.566 Y110.602 E4.18358
G1 X102.033 Y110.717 E4.20045
G1 X101.495 Y110.805 E4.21732
G1 X100.953 Y110.866 E4.23420
G1 X100.409 Y110.900 E4.25107
G1 X99.863 Y110.907 E4.26795
G1 X99.319 Y110.887 E4.28482
G1 X98.775 Y110.839 E4.30169
G1 X98.235 Y110.764 E4.31857
G1 X97.699 Y110.663 E4.33544
G1 X97.169 Y110.534 E4.35231
G1 X96.646 Y110.380 E4.36919
G1 X96.132 Y110.199 E4.38606
G1 X95.643 Y110.000 E4.40239
G1 X94.803 Y109.590 E4.43131
G1 X94.337 Y109.323 E4.44792
G1 X93.878 Y109.029 E4.46480
G1 X93.435 Y108.711 E4.48167
G1 X93.008 Y108.372 E4.49854
G1 X92.598 Y108.012 E4.51542
G1 X92.207 Y107.632 E4.53229
G1 X91.835 Y107.233 E4.54916
G1 X91.484 Y106.816 E4.56604
G1 X91.154 Y106.382 E4.58291
G1 X90.846 Y105.932 E4.59978
G1 X90.561 Y105.467 E4.61666
G1 X90.304 Y104.998 E4.63320
G1 X89.914 Y104.155 E4.66194
G1 X89.722 Y103.655 E4.67852
G1 X89.552 Y103.137 E4.69539
G1 X89.409 Y102.610 E4.71227
G1 X89.291 Y102.078 E4.72914
G1 X89.201 Y101.540 E4.74601
G1 X89.137 Y100.998 E4.76289
G1 X89.101 Y100.454 E4.77976
G1 X89.092 Y99.909 E4.79663
G1 X89.110 Y99.364 E4.81351
G1 X89.154 Y98.838 E4.82984
G1 X89.293 Y97.914 E4.85875
G1 X89.409 Y97.390 E4.87537
G1 X89.552 Y96.863 E4.89224
G1 X89.722 Y96.345 E4.90912
G1 X89.918 Y95.836 E4.92599
G1 X90.138 Y95.337 E4.94286
G1 X90.384 Y94.850 E4.95974
G1 X90.653 Y94.376 E4.97661
G1 X90.946 Y93.916 E4.99348
G1 X91.261 Y93.471 E5.01036
G1 X91.598 Y93.043 E5.02723
G1 X91.957 Y92.631 E5.04410
