; HEADER_BLOCK_START
; generated by AnycubicSlicerNext 1.3.5.5 on 2025-08-27 at 00:06:56
; total layer number: 131
; filament_density: 1.24
; filament_diameter: 1.75
; max_z_height: 26.44
; exclude_object: 0
; model_instances: 1
; source_info: {"models":[{"file_source":0,"mo_file_id":-1,"name":"CAPSTAN-002.stl_id_0_copy_0"}],"models_from":0,"plate_index":1,"slice_paras_process":1,"software_version":"AnycubicSlicerNext 1.3.5.5 20250625193040"}
; HEADER_BLOCK_END

; THUMBNAIL_BLOCK_START
; THUMBNAIL_BLOCK_END

; external perimeters extrusion width = 0.42mm
; perimeters extrusion width = 0.45mm
; infill extrusion width = 0.45mm
; solid infill extrusion width = 0.42mm
; top infill extrusion width = 0.42mm
; support material extrusion width = 0.40mm
; first layer extrusion width = 0.50mm

; EXECUTABLE_BLOCK_START
M201 X2000 Y2000 Z800 E2000 ; sets machine_max_acceleration_x, y, z, e (mm/sec^2)
M203 X300 Y300 Z8 E100 ; sets machine_max_speed_x, y, z, e (mm/sec)
M204 P2000 R2000 T2000 ; sets machine_max_acceleration(mm/sec^2) M204 P[print] R[retract] T[travel]
M205 X10.00 Y10.00 Z2.00 E5.00 ; sets the jerk limits, mm/sec
;TYPE:Custom
G90 ; use absolute coordinates
M83 ; extruder relative mode
M104 S220 ; set extruder temp
M140 S60 ; set bed temp
M190 S60 ; wait for bed temp
M109 S220 ; wait for extruder temp
G28                                        ; move X/Y/Z to min endstops
G1 Z0.28                                   ; lift nozzle a bit 
G92 E0 
G1 Y3 F1800                                    ; zero the extruded length 
G1 X60  E25 F500                       ; Extrude 25mm of filament in a 5cm line. 
G92 E0                                     ; zero the extruded length again 
G1 E-2 F500                                ; Retract a little 
G1 X70 F4000                              ; Quickly wipe away from the filament line
M117
G90
G21
M83 ; use relative distances for extrusion
; filament start gcode
M106 S0
;LAYER_CHANGE
;Z:0.24
;HEIGHT:0.24
; BEFORE_LAYER_CHANGE 0 @ 0.24mm
G92 E0
G1 E-2.5 F6000
; AFTER_LAYER_CHANGE 0 @ 0.24mm
M204 P500
; printing object "CAPSTAN-002.stl" id:0 copy 0
G1 X111.62 Y95.808 F18000
G1 Z.24
G1 E2.5 F6000
;TYPE:Support
;WIDTH:0.5
G1 F1200
G1 X112.297 Y95.839 E.02943
G1 X113.226 Y96.037 E.04123
G1 X114.12 Y96.401 E.04188
G1 X114.94 Y96.918 E.0421
G1 X115.688 Y97.6 E.04394
G1 X115.898 Y97.899 E.01586
G1 X116.212 Y97.993 E.01423
G1 X117.042 Y98.431 E.04073
G1 X117.772 Y99.029 E.04098
G1 X118.104 Y99.435 E.02279
G1 X118.348 Y99.356 E.01111
G1 X119.295 Y99.227 E.0415
G1 X120.25 Y99.269 E.04151
G1 X121.183 Y99.482 E.04151
G1 X122.062 Y99.858 E.04151
G1 X122.86 Y100.384 E.04151
G1 X123.551 Y101.046 E.04151
G1 X124.112 Y101.819 E.0415
G1 X124.526 Y102.681 E.0415
G1 X124.78 Y103.603 E.04149
G1 X124.864 Y104.555 E.04148
G1 X124.777 Y105.506 E.04147
G1 X124.522 Y106.427 E.04146
G1 X124.106 Y107.286 E.04145
G1 X123.544 Y108.058 E.04144
G1 X122.853 Y108.717 E.04143
G1 X122.056 Y109.241 E.04142
G1 X121.179 Y109.615 E.04141
G1 X120.249 Y109.827 E.04141
G1 X119.296 Y109.869 E.0414
G1 X118.351 Y109.74 E.04139
G1 X117.444 Y109.446 E.04139
G1 X117.201 Y109.315 E.01199
G1 X117 Y109.461 E.01081
G1 X116.432 Y109.623 E.02561
G1 X115.991 Y109.71 E.01953
G1 X115.473 Y109.645 E.02266
G1 X114.941 Y109.006 E.03609
G1 X113.085 Y108.036 E.09093
G1 X112.559 Y107.89 E.0237
G1 X112.159 Y107.149 E.03652
G1 X112.188 Y106.537 E.02663
G1 X111.915 Y106.41 E.01304
G1 X110.929 Y106.369 E.04283
G1 X110.003 Y106.156 E.04128
G1 X109.36 Y105.869 E.03055
G1 X108.991 Y106.111 E.01919
G1 X108.121 Y106.482 E.04105
G1 X107.835 Y106.547 E.01273
G1 X107.551 Y107.683 E.05085
G1 X107.341 Y107.915 E.01355
G1 X106.91 Y108.037 E.01946
G1 X104.684 Y109.337 E.11189
G1 X104.519 Y109.578 E.01267
G1 X103.932 Y109.478 E.02584
G1 X103.595 Y109.369 E.01537
G1 X103.151 Y110.289 E.04434
G1 X102.594 Y111.056 E.04117
G1 X101.909 Y111.713 E.04118
G1 X101.118 Y112.237 E.0412
G1 X100.246 Y112.613 E.04123
G1 X99.32 Y112.829 E.04127
G1 X98.369 Y112.876 E.04132
G1 X97.424 Y112.754 E.04137
G1 X96.514 Y112.465 E.04142
G1 X95.669 Y112.019 E.04148
G1 X94.917 Y111.428 E.04154
G1 X94.281 Y110.711 E.0416
G1 X93.782 Y109.891 E.04166
G1 X93.439 Y108.993 E.04171
G1 X93.262 Y108.048 E.04175
G1 X93.258 Y107.085 E.04179
G1 X93.428 Y106.137 E.04181
G1 X93.767 Y105.235 E.04182
G1 X94.262 Y104.408 E.04182
G1 X94.898 Y103.685 E.04181
G1 X95.654 Y103.089 E.04179
G1 X96.504 Y102.638 E.04176
G1 X97.42 Y102.348 E.04172
G1 X97.854 Y102.293 E.01899
G1 X97.999 Y101.782 E.02305
G1 X98.179 Y101.332 E.02106
G1 X98.398 Y100.891 E.02138
G1 X98.916 Y100.145 E.03941
G1 X99.59 Y99.484 E.04101
G1 X100.376 Y98.96 E.04098
G1 X101.246 Y98.594 E.04095
G1 X102.072 Y98.416 E.03672
G1 X102.147 Y98.289 E.0064
G1 X102.779 Y97.56 E.04186
G1 X103.531 Y96.956 E.04188
G1 X104.382 Y96.498 E.04193
G1 X105.3 Y96.202 E.04189
G1 X106.257 Y96.076 E.0419
G1 X107.221 Y96.125 E.04188
G1 X108.159 Y96.348 E.04184
G1 X108.761 Y96.612 E.02855
G1 X109.506 Y96.218 E.03658
G1 X110.404 Y95.932 E.04092
G1 X111.309 Y95.807 E.03967
G1 X111.552 Y95.808 E.01054
G1 X124.452 Y105.926 F18000
G1 F1200
G1 X124.452 Y104.469 E.06323
G1 X124.381 Y103.675 E.03463
G1 X124.147 Y102.823 E.03833
G1 X123.953 Y102.42 E.01941
G1 X123.953 Y106.676 E.18474
G1 X123.759 Y107.078 E.01938
G1 X123.455 Y107.495 E.02241
G1 X123.455 Y101.601 E.25588
G1 X123.245 Y101.312 E.01548
G1 X122.957 Y101.036 E.01736
G1 X122.957 Y108.061 E.30495
G1 X122.601 Y108.399 E.02132
G1 X122.458 Y108.494 E.00743
G1 X122.458 Y100.603 E.34252
G1 X121.96 Y100.274 E.02592
G1 X121.96 Y108.822 E.37105
G1 X121.865 Y108.884 E.00494
G1 X121.462 Y109.056 E.01902
G1 X121.462 Y100.04 E.39138
G1 X121.057 Y99.867 E.01908
G1 X120.963 Y99.846 E.00419
G1 X120.963 Y109.25 E.40824
G1 X120.465 Y109.364 E.02218
G1 X120.465 Y99.732 E.41809
G1 X120.196 Y99.671 E.01197
G1 X119.967 Y99.661 E.00997
G1 X119.967 Y109.435 E.42429
G1 X119.468 Y109.457 E.02165
G1 X119.468 Y99.639 E.42621
G1 X119.313 Y99.632 E.00672
G1 X118.97 Y99.679 E.01505
G1 X118.97 Y109.417 E.42274
G1 X118.472 Y109.349 E.02183
G1 X118.472 Y99.747 E.41685
G1 X117.973 Y99.903 E.02267
G1 X117.973 Y109.193 E.40328
G1 X117.603 Y109.073 E.01688
G1 X117.475 Y109.004 E.00633
G1 X117.475 Y99.307 E.42092
G1 X116.977 Y98.899 E.02795
G1 X116.977 Y108.979 E.43754
G1 X116.82 Y109.093 E.0084
G1 X116.478 Y109.19 E.01543
G1 X116.478 Y98.59 E.46012
G1 X116.058 Y98.369 E.02062
G1 X115.98 Y98.345 E.00354
G1 X115.98 Y109.301 E.47558
G1 X115.681 Y109.265 E.01306
G1 X115.482 Y109.025 E.01354
G1 X115.482 Y98.008 E.4782
G1 X115.383 Y97.868 E.00744
G1 X114.983 Y97.504 E.02349
G1 X114.983 Y108.573 E.4805
G1 X114.485 Y108.312 E.02441
G1 X114.485 Y97.108 E.48635
G1 X113.987 Y96.794 E.02558
G1 X113.987 Y108.052 E.48868
G1 X113.488 Y107.791 E.02441
G1 X113.488 Y96.58 E.48667
G1 X113.107 Y96.424 E.01788
G1 X112.99 Y96.399 E.00518
G1 X112.99 Y107.587 E.48565
G1 X112.83 Y107.543 E.00719
G1 X112.567 Y107.056 E.02403
G1 X112.604 Y106.284 E.03354
G1 X112.492 Y106.232 E.00537
G1 X112.492 Y96.293 E.43145
G1 X112.245 Y96.241 E.01093
G1 X111.993 Y96.229 E.01095
G1 X111.993 Y106.01 E.42456
G1 X111.495 Y105.989 E.02165
G1 X111.495 Y96.211 E.42443
G1 X111.337 Y96.211 E.00687
G1 X110.997 Y96.258 E.0149
G1 X110.997 Y105.968 E.42151
G1 X110.498 Y105.856 E.02218
G1 X110.498 Y96.327 E.41364
G1 X110 Y96.485 E.02269
G1 X110 Y105.712 E.40057
G1 X109.502 Y105.49 E.02369
G1 X109.502 Y96.677 E.38254
G1 X109.003 Y96.94 E.02447
G1 X109.003 Y105.62 E.37677
G1 X108.799 Y105.754 E.01059
G1 X108.505 Y105.879 E.01389
G1 X108.505 Y96.94 E.38803
G1 X108.007 Y96.726 E.02354
G1 X108.007 Y106.092 E.40653
G1 X107.508 Y106.208 E.02221
G1 X107.508 Y96.608 E.4167
G1 X107.163 Y96.527 E.01539
G1 X107.01 Y96.519 E.00666
G1 X107.01 Y107.587 E.48047
G1 X106.749 Y107.664 E.01182
G1 X106.512 Y107.802 E.01191
G1 X106.512 Y96.493 E.4909
G1 X106.273 Y96.481 E.01037
G1 X106.013 Y96.515 E.01138
G1 X106.013 Y108.093 E.50259
G1 X105.515 Y108.384 E.02505
G1 X105.515 Y96.581 E.51238
G1 X105.389 Y96.597 E.00551
G1 X105.017 Y96.717 E.01699
G1 X105.017 Y108.675 E.51908
G1 X104.518 Y108.967 E.02505
G1 X104.518 Y96.883 E.52453
G1 X104.02 Y97.151 E.02457
G1 X104.02 Y109.082 E.51788
G1 X103.522 Y108.921 E.02273
G1 X103.522 Y97.481 E.49659
G1 X103.023 Y97.894 E.02808
G1 X103.023 Y109.625 E.50925
G1 X102.803 Y110.081 E.02197
G1 X102.525 Y110.464 E.02056
G1 X102.525 Y98.469 E.52068
G1 X102.33 Y98.773 E.01568
G1 X102.027 Y98.839 E.01348
G1 X102.027 Y111.041 E.52967
G1 X101.656 Y111.396 E.02231
G1 X101.528 Y111.481 E.00663
G1 X101.528 Y98.946 E.54412
G1 X101.367 Y98.98 E.00715
G1 X101.03 Y99.123 E.0159
G1 X101.03 Y111.811 E.55078
G1 X100.925 Y111.881 E.00548
G1 X100.532 Y112.05 E.01858
G1 X100.532 Y99.342 E.55165
G1 X100.033 Y99.674 E.02599
G1 X100.033 Y112.248 E.54584
G1 X99.535 Y112.364 E.02221
G1 X99.535 Y100.103 E.53222
G1 X99.226 Y100.407 E.01881
G1 X99.037 Y100.679 E.01437
G1 X99.037 Y112.439 E.51048
G1 X98.538 Y112.464 E.02166
G1 X98.538 Y101.519 E.47507
G1 X98.382 Y101.913 E.01837
G1 X98.17 Y102.66 E.03373
G1 X98.04 Y102.676 E.00567
G1 X98.04 Y112.427 E.42324
G1 X97.542 Y112.362 E.02181
G1 X97.542 Y102.74 E.4177
G1 X97.043 Y102.891 E.0226
G1 X97.043 Y112.21 E.40452
G1 X96.671 Y112.092 E.01696
G1 X96.545 Y112.025 E.00618
G1 X96.545 Y103.073 E.38859
G1 X96.047 Y103.337 E.02448
G1 X96.047 Y111.762 E.36569
G1 X95.89 Y111.679 E.00769
G1 X95.548 Y111.411 E.01886
G1 X95.548 Y103.686 E.33531
G1 X95.177 Y103.979 E.02054
G1 X95.05 Y104.123 E.00834
G1 X95.05 Y110.97 E.2972
G1 X94.607 Y110.47 E.02901
G1 X94.552 Y110.38 E.00459
G1 X94.552 Y104.71 E.24613
G1 X94.132 Y105.411 E.03548
G1 X94.054 Y105.619 E.00966
G1 X94.054 Y109.948 E.18792
G1 E-1.75 F6000
;WIPE_START
G1 F1200
G1 X94.054 Y108.948 E-.75
;WIPE_END
G1 X115.22 Y117.63 F18000
G1 E2.5 F6000
G1 F1200
G1 X115.307 Y118.581 E.04145
G1 X115.222 Y119.533 E.04146
G1 X114.969 Y120.454 E.04147
G1 X114.556 Y121.315 E.04148
G1 X113.995 Y122.089 E.04148
G1 X113.305 Y122.75 E.04149
G1 X112.507 Y123.277 E.0415
G1 X111.628 Y123.653 E.0415
G1 X110.696 Y123.866 E.0415
G1 X109.741 Y123.909 E.0415
G1 X108.794 Y123.781 E.0415
G1 X107.884 Y123.485 E.0415
G1 X107.043 Y123.031 E.0415
G1 X106.296 Y122.435 E.04149
G1 X105.668 Y121.714 E.04149
G1 X105.179 Y120.894 E.04148
G1 X104.844 Y119.999 E.04147
G1 X104.675 Y119.059 E.04146
G1 X104.676 Y118.104 E.04145
G1 X104.846 Y117.172 E.04112
G1 X106.376 Y118.201 E.08002
G1 X108.43 Y118.612 E.09093
G1 X111.576 Y118.612 E.13659
G1 X114.077 Y117.988 E.11189
G1 X115.09 Y117.16 E.05678
G1 X115.202 Y117.565 E.01827
G1 X114.485 Y120.996 F18000
G1 F1200
G1 X114.485 Y118.176 E.12242
G1 X114.263 Y118.358 E.01245
G1 X113.987 Y118.427 E.01236
G1 X113.987 Y121.412 E.1296
G1 X113.689 Y121.822 E.02198
G1 X113.488 Y122.015 E.01209
G1 X113.488 Y118.551 E.15037
G1 X112.99 Y118.675 E.02229
G1 X112.99 Y122.474 E.1649
G1 X112.492 Y122.803 E.02593
G1 X112.492 Y118.799 E.17381
G1 X111.993 Y118.924 E.02229
G1 X111.993 Y123.058 E.17946
G1 X111.495 Y123.27 E.0235
G1 X111.495 Y119.015 E.18467
G1 X110.997 Y119.015 E.02163
G1 X110.997 Y123.383 E.18962
G1 X110.642 Y123.465 E.0158
G1 X110.498 Y123.471 E.00623
G1 X110.498 Y119.015 E.19342
G1 X110 Y119.015 E.02163
G1 X110 Y123.493 E.19439
G1 X109.759 Y123.504 E.01046
G1 X109.502 Y123.469 E.01129
G1 X109.502 Y119.015 E.19334
G1 X109.003 Y119.015 E.02163
G1 X109.003 Y123.402 E.19041
G1 X108.884 Y123.386 E.00523
G1 X108.505 Y123.262 E.0173
G1 X108.505 Y119.015 E.18436
G1 X108.39 Y119.015 E.00501
G1 X108.007 Y118.939 E.01696
G1 X108.007 Y123.092 E.1803
G1 X107.508 Y122.824 E.02457
G1 X107.508 Y118.839 E.17297
G1 X107.01 Y118.739 E.02206
G1 X107.01 Y122.488 E.16274
G1 X106.576 Y122.142 E.02409
G1 X106.512 Y122.068 E.00427
G1 X106.512 Y118.64 E.14882
G1 X106.217 Y118.581 E.01303
G1 X106.013 Y118.444 E.01067
G1 X106.013 Y121.496 E.13252
G1 X105.544 Y120.718 E.03945
G1 X105.515 Y120.641 E.00359
G1 X105.515 Y117.865 E.12049
; stop printing object CAPSTAN-002.stl id:0 copy 0
G1 E-1.75 F6000
;WIPE_START
G1 F1200
G1 X105.515 Y118.865 E-.75
;WIPE_END
M106 S127
;LAYER_CHANGE
;Z:0.44
;HEIGHT:0.2
; BEFORE_LAYER_CHANGE 1 @ 0.44mm
G92 E0
; AFTER_LAYER_CHANGE 1 @ 0.44mm
M204 P2000
M104 S190 ; set nozzle temperature
; printing object "CAPSTAN-002.stl" id:0 copy 0
G1 X108.318 Y116.682 Z.44 F18000
G1 E2.5 F6000
;WIDTH:0.4
G1 F3660
G1 X108.585 Y116.47 E.00982
G1 X108.985 Y116.255 E.01308
G1 X109.411 Y116.117 E.0129
G1 X109.927 Y116.057 E.01495
G1 X109.945 Y115.657 E.01152
G1 X110.374 Y115.676 E.01238
G1 X110.887 Y115.793 E.01515
G1 X111.371 Y116 E.01515
G1 X111.81 Y116.289 E.01515
G1 X112.191 Y116.652 E.01515
G1 X112.5 Y117.077 E.01516
G1 X112.729 Y117.551 E.01516
G1 X112.87 Y118.059 E.01516
G1 X112.918 Y118.583 E.01517
G1 X112.872 Y119.108 E.01517
G1 X112.732 Y119.616 E.01517
G1 X112.504 Y120.091 E.01518
G1 X112.195 Y120.518 E.01518
G1 X111.814 Y120.882 E.01518
G1 X111.374 Y121.173 E.01519
G1 X110.889 Y121.381 E.01519
G1 X110.375 Y121.498 E.01519
G1 X109.848 Y121.522 E.01519
G1 X109.326 Y121.451 E.01519
G1 X108.824 Y121.288 E.01519
G1 X108.36 Y121.038 E.01519
G1 X107.948 Y120.709 E.01519
G1 X107.602 Y120.311 E.01518
G1 X107.332 Y119.858 E.01518
G1 X107.147 Y119.365 E.01518
G1 X107.054 Y118.846 E.01517
G1 X107.055 Y118.32 E.01517
G1 X107.15 Y117.802 E.01516
G1 X107.335 Y117.309 E.01516
G1 X107.606 Y116.858 E.01516
G1 X107.952 Y116.462 E.01515
G1 X108.364 Y116.134 E.01515
G1 X108.827 Y115.885 E.01515
G1 X109.324 Y115.724 E.01504
G1 X109.891 Y115.655 E.01645
G1 X110.428 Y115.278 F18000
G1 F3660
G1 X111.011 Y115.411 E.01722
G1 X111.561 Y115.646 E.01722
G1 X112.06 Y115.975 E.01722
G1 X112.493 Y116.388 E.01722
G1 X112.845 Y116.871 E.01723
G1 X113.105 Y117.41 E.01723
G1 X113.265 Y117.986 E.01724
G1 X113.32 Y118.582 E.01724
G1 X113.267 Y119.179 E.01724
G1 X113.108 Y119.756 E.01725
G1 X112.849 Y120.296 E.01725
G1 X112.498 Y120.782 E.01726
G1 X112.065 Y121.196 E.01726
G1 X111.565 Y121.527 E.01726
G1 X111.014 Y121.763 E.01727
G1 X110.429 Y121.896 E.01727
G1 X109.83 Y121.923 E.01727
G1 X109.236 Y121.843 E.01727
G1 X108.666 Y121.657 E.01727
G1 X108.138 Y121.373 E.01726
G1 X107.67 Y120.999 E.01726
G1 X107.276 Y120.547 E.01726
G1 X106.97 Y120.032 E.01726
G1 X106.76 Y119.471 E.01725
G1 X106.654 Y118.882 E.01725
G1 X106.655 Y118.283 E.01724
G1 X106.763 Y117.694 E.01724
G1 X106.974 Y117.134 E.01723
G1 X107.281 Y116.621 E.01723
G1 X107.675 Y116.171 E.01723
G1 X108.143 Y115.799 E.01722
G1 X108.67 Y115.516 E.01722
G1 X109.237 Y115.332 E.01718
G1 X109.876 Y115.254 E.01853
G1 X110.374 Y115.276 E.01438
G1 E-1.75 F6000
;WIPE_START
G1 X109.876 Y115.254 E-.37447
G1 X109.379 Y115.315 E-.37553
;WIPE_END
G1 X113.743 Y113.642 F18000
G1 E2.5 F6000
G1 F3660
G1 X113.787 Y113.654 E.00129
G1 X113.867 Y113.737 E.00333
G1 X113.895 Y113.841 E.00311
G1 X113.867 Y113.946 E.00311
G1 X113.784 Y114.03 E.00341
G1 X113.692 Y114.055 E.00275
G1 X113.584 Y114.03 E.00318
G1 X113.495 Y113.949 E.00348
G1 X113.47 Y113.824 E.00368
G1 X113.496 Y113.741 E.00248
G1 X113.588 Y113.652 E.00371
G1 X113.692 Y113.628 E.00307
G1 E-1.75 F6000
;WIPE_START
G1 X113.588 Y113.652 E-.07987
G1 X113.496 Y113.741 E-.0965
G1 X113.47 Y113.824 E-.06453
G1 X113.495 Y113.949 E-.09573
G1 X113.584 Y114.03 E-.09053
G1 X113.692 Y114.055 E-.08282
G1 X113.784 Y114.03 E-.07168
G1 X113.867 Y113.946 E-.08871
G1 X113.894 Y113.843 E-.07964
;WIPE_END
G1 X109.345 Y111.654 F18000
G1 E2.5 F6000
G1 F3660
G1 X109.131 Y111.43 E.00893
G1 X109.048 Y111.238 E.006
G1 X109.025 Y111.075 E.00475
G1 X109.051 Y110.859 E.00627
G1 X109.131 Y110.674 E.0058
G1 X109.309 Y110.474 E.00772
G1 X109.439 Y110.39 E.00446
G1 X109.645 Y110.326 E.00621
G1 X109.856 Y110.323 E.00606
G1 X109.96 Y109.937 E.01152
G1 X110.226 Y110.012 E.00797
G1 X110.498 Y110.185 E.00927
G1 X110.715 Y110.431 E.00944
G1 X110.852 Y110.728 E.00942
G1 X110.899 Y111.052 E.00943
G1 X110.852 Y111.375 E.0094
G1 X110.715 Y111.673 E.00943
G1 X110.499 Y111.918 E.00941
G1 X110.222 Y112.093 E.00944
G1 X109.914 Y112.181 E.00923
G1 X109.582 Y112.177 E.00954
G1 X109.269 Y112.08 E.00944
G1 X109.046 Y111.937 E.00765
G1 X108.789 Y111.647 E.01114
G1 X108.66 Y111.348 E.00937
G1 X108.621 Y111.08 E.00781
