; HEADER_BLOCK_START
; generated by AnycubicSlicerNext 1.3.5.5 on 2025-08-27 at 02:06:28
; total layer number: 66
; filament_density: 1.24
; filament_diameter: 1.75
; max_z_height: 13.24
; exclude_object: 0
; model_instances: 1
; source_info: {"models":[{"file_source":0,"mo_file_id":-1,"name":"CAPSTAN-003.stl_id_0_copy_0"}],"models_from":0,"plate_index":1,"slice_paras_process":1,"software_version":"AnycubicSlicerNext 1.3.5.5 20250625193040"}
; HEADER_BLOCK_END

; THUMBNAIL_BLOCK_START
; THUMBNAIL_BLOCK_END

; external perimeters extrusion width = 0.42mm
; perimeters extrusion width = 0.45mm
; infill extrusion width = 0.45mm
; solid infill extrusion width = 0.42mm
; top infill extrusion width = 0.42mm
; first layer extrusion width = 0.50mm

; EXECUTABLE_BLOCK_START
M201 X2000 Y2000 Z800 E2000 ; sets machine_max_acceleration_x, y, z, e (mm/sec^2)
M203 X300 Y300 Z8 E100 ; sets machine_max_speed_x, y, z, e (mm/sec)
M204 P2000 R2000 T2000 ; sets machine_max_acceleration(mm/sec^2) M204 P[print] R[retract] T[travel]
M205 X10.00 Y10.00 Z2.00 E5.00 ; sets the jerk limits, mm/sec
;TYPE:Custom
G90 ; use absolute coordinates
M83 ; extruder relative mode
M104 S220 ; set extruder temp
M140 S60 ; set bed temp
M190 S60 ; wait for bed temp
M109 S220 ; wait for extruder temp
G28                                        ; move X/Y/Z to min endstops
G1 Z0.28                                   ; lift nozzle a bit 
G92 E0 
G1 Y3 F1800                                    ; zero the extruded length 
G1 X60  E25 F500                       ; Extrude 25mm of filament in a 5cm line. 
G92 E0                                     ; zero the extruded length again 
G1 E-2 F500                                ; Retract a little 
G1 X70 F4000                              ; Quickly wipe away from the filament line
M117
G90
G21
M83 ; use relative distances for extrusion
; filament start gcode
M106 S0
;LAYER_CHANGE
;Z:0.24
;HEIGHT:0.24
; BEFORE_LAYER_CHANGE 0 @ 0.24mm
G92 E0
G1 E-2.5 F6000
; AFTER_LAYER_CHANGE 0 @ 0.24mm
M204 P500
; printing object "CAPSTAN-003.stl" id:0 copy 0
G1 X98.624 Y98.284 F18000
G1 Z.24
G1 E2.5 F6000
;TYPE:Brim
;WIDTH:0.5
G1 F1200
G1 X99.198 Y97.752 E.03395
G1 X99.851 Y97.207 E.03693
G1 X100.475 Y96.735 E.03396
G1 X101.149 Y96.276 E.03542
G1 X101.749 Y95.907 E.03055
G1 X102.497 Y95.495 E.03706
G1 X103.298 Y95.108 E.03861
G1 X103.946 Y94.833 E.03056
G1 X104.595 Y94.59 E.03008
G1 X105.34 Y94.348 E.03401
G1 X106.16 Y94.127 E.03688
G1 X106.961 Y93.955 E.03557
G1 X107.655 Y93.839 E.03053
G1 X108.54 Y93.735 E.03869
G1 X109.39 Y93.681 E.03697
G1 X110.21 Y93.671 E.03557
G1 X110.913 Y93.695 E.03054
G1 X111.727 Y93.761 E.03545
G1 X112.534 Y93.867 E.03534
G1 X113.338 Y94.014 E.03547
G1 X114.134 Y94.201 E.03551
G1 X114.919 Y94.428 E.03544
G1 X115.655 Y94.68 E.0338
G1 X116.449 Y94.996 E.03708
G1 X117.188 Y95.336 E.03534
G1 X117.914 Y95.715 E.03553
G1 X118.586 Y96.109 E.0338
G1 X119.301 Y96.577 E.03708
G1 X119.93 Y97.036 E.03382
G1 X120.594 Y97.572 E.03707
G1 X121.175 Y98.092 E.03381
G1 X121.671 Y98.578 E.03014
G1 X122.203 Y99.148 E.03385
G1 X122.75 Y99.797 E.03687
G1 X123.224 Y100.418 E.03391
G1 X123.706 Y101.121 E.03699
G1 X124.115 Y101.787 E.03391
G1 X124.507 Y102.501 E.03538
G1 X124.817 Y103.135 E.03062
G1 X125.156 Y103.919 E.0371
G1 X125.441 Y104.684 E.03542
G1 X125.677 Y105.427 E.03383
G1 X125.895 Y106.252 E.03706
G1 X126.062 Y107.051 E.03543
G1 X126.184 Y107.821 E.03382
G1 X126.276 Y108.667 E.03696
G1 X126.322 Y109.485 E.03554
G1 X126.328 Y110.263 E.03377
G1 X126.302 Y110.961 E.03033
G1 X126.238 Y111.733 E.03365
G1 X126.126 Y112.576 E.03691
G1 X125.976 Y113.381 E.03551
G1 X125.797 Y114.141 E.03389
G1 X125.56 Y114.957 E.03691
G1 X125.292 Y115.73 E.0355
G1 X124.986 Y116.488 E.03549
G1 X124.692 Y117.128 E.03058
G1 X124.282 Y117.919 E.03869
G1 X123.849 Y118.653 E.03697
G1 X123.463 Y119.243 E.03061
G1 X122.983 Y119.906 E.03552
G1 X122.472 Y120.542 E.03544
G1 X121.955 Y121.124 E.0338
G1 X121.358 Y121.734 E.03702
G1 X120.758 Y122.286 E.0354
G1 X120.129 Y122.81 E.03554
G1 X119.506 Y123.278 E.0338
G1 X118.799 Y123.757 E.03709
G1 X118.1 Y124.18 E.03545
G1 X117.524 Y124.494 E.02851
G1 X116.823 Y124.836 E.03384
G1 X116.075 Y125.158 E.03537
G1 X115.312 Y125.442 E.03536
G1 X114.531 Y125.689 E.03553
G1 X113.85 Y125.87 E.03057
G1 X113.016 Y126.049 E.03705
G1 X112.212 Y126.18 E.03537
G1 X111.436 Y126.267 E.03388
G1 X110.584 Y126.32 E.03707
G1 X109.694 Y126.327 E.03862
G1 X108.879 Y126.292 E.03541
G1 X108.029 Y126.211 E.03705
G1 X107.332 Y126.111 E.03058
G1 X106.528 Y125.957 E.03555
G1 X105.664 Y125.744 E.03862
G1 X104.988 Y125.542 E.03061
G1 X104.184 Y125.26 E.037
G1 X103.466 Y124.966 E.03369
G1 X102.834 Y124.674 E.0302
G1 X102.106 Y124.295 E.03564
G1 X101.435 Y123.904 E.03373
G1 X100.721 Y123.438 E.037
G1 X100.149 Y123.024 E.03064
G1 X99.451 Y122.466 E.03879
G1 X98.818 Y121.901 E.03686
G1 X98.261 Y121.353 E.0339
G1 X97.685 Y120.724 E.03699
G1 X97.186 Y120.124 E.03389
G1 X96.676 Y119.441 E.037
G1 X96.28 Y118.857 E.03065
G1 X95.854 Y118.16 E.03545
G1 X95.464 Y117.442 E.03545
G1 X95.126 Y116.741 E.03381
G1 X94.852 Y116.101 E.03021
G1 X94.604 Y115.445 E.03045
G1 X94.33 Y114.596 E.0387
G1 X94.12 Y113.809 E.03535
G1 X93.949 Y113.009 E.03554
G1 X93.814 Y112.168 E.03695
G1 X93.729 Y111.392 E.0339
G1 X93.68 Y110.577 E.03545
G1 X93.672 Y109.725 E.03697
G1 X93.715 Y108.784 E.04089
G1 X93.781 Y108.096 E.03002
G1 X93.918 Y107.165 E.04083
G1 X94.078 Y106.372 E.03512
G1 X94.281 Y105.574 E.03576
G1 X94.521 Y104.796 E.03531
G1 X94.802 Y104.026 E.0356
G1 X95.027 Y103.481 E.02561
G1 X95.368 Y102.748 E.03507
G1 X95.67 Y102.169 E.02833
G1 X96.08 Y101.461 E.03552
G1 X96.62 Y100.638 E.04276
G1 X97.001 Y100.116 E.02805
G1 X97.512 Y99.477 E.03555
G1 X98.03 Y98.891 E.03392
G1 X98.596 Y98.312 E.03516
G1 X98.917 Y98.626 F18000
G1 F1200
G1 X98.94 Y98.603 E.0014
G1 X99.497 Y98.087 E.03298
G1 X100.127 Y97.56 E.03566
G1 X100.739 Y97.098 E.03328
G1 X101.391 Y96.654 E.0342
G1 X101.978 Y96.293 E.02991
G1 X102.706 Y95.892 E.0361
G1 X103.48 Y95.518 E.03731
G1 X104.115 Y95.249 E.02994
G1 X104.746 Y95.013 E.02924
G1 X105.471 Y94.778 E.0331
G1 X106.263 Y94.564 E.03559
G1 X107.049 Y94.395 E.03491
G1 X107.722 Y94.282 E.02961
G1 X108.584 Y94.181 E.0377
G1 X109.404 Y94.13 E.03565
G1 X110.208 Y94.12 E.03491
G1 X110.89 Y94.143 E.02964
G1 X111.683 Y94.207 E.03451
G1 X112.468 Y94.311 E.03437
G1 X113.249 Y94.454 E.0345
G1 X114.024 Y94.636 E.03454
G1 X114.787 Y94.857 E.03447
G1 X115.502 Y95.102 E.03284
G1 X116.268 Y95.407 E.03581
G1 X116.988 Y95.738 E.03436
G1 X117.7 Y96.109 E.03485
G1 X118.352 Y96.492 E.03284
G1 X119.043 Y96.944 E.03582
G1 X119.659 Y97.394 E.03314
G1 X120.301 Y97.912 E.0358
G1 X120.866 Y98.417 E.0329
G1 X121.352 Y98.893 E.02953
G1 X121.87 Y99.448 E.03294
G1 X122.403 Y100.08 E.03589
G1 X122.863 Y100.684 E.03294
G1 X123.328 Y101.363 E.03573
G1 X123.729 Y102.015 E.03323
G1 X124.11 Y102.71 E.03443
G1 X124.411 Y103.325 E.02971
G1 X124.741 Y104.09 E.03615
G1 X125.016 Y104.827 E.03415
G1 X125.247 Y105.555 E.03316
G1 X125.457 Y106.352 E.03579
G1 X125.62 Y107.129 E.03446
G1 X125.74 Y107.883 E.03315
G1 X125.829 Y108.701 E.03569
G1 X125.874 Y109.496 E.03456
G1 X125.879 Y110.259 E.03313
G1 X125.854 Y110.937 E.02946
G1 X125.792 Y111.689 E.03274
G1 X125.683 Y112.502 E.03563
G1 X125.537 Y113.291 E.03483
G1 X125.362 Y114.03 E.03293
G1 X125.131 Y114.824 E.03592
G1 X124.87 Y115.576 E.03452
G1 X124.573 Y116.313 E.03454
G1 X124.288 Y116.934 E.02966
G1 X123.891 Y117.699 E.03738
G1 X123.47 Y118.413 E.03601
G1 X123.092 Y118.991 E.02997
G1 X122.624 Y119.636 E.03458
G1 X122.127 Y120.255 E.03447
G1 X121.624 Y120.821 E.03284
G1 X121.043 Y121.414 E.03605
G1 X120.46 Y121.95 E.0344
G1 X119.848 Y122.46 E.03457
G1 X119.243 Y122.914 E.03284
G1 X118.56 Y123.377 E.03581
G1 X117.88 Y123.789 E.03452
G1 X117.315 Y124.096 E.02791
G1 X116.633 Y124.43 E.03295
G1 X115.905 Y124.743 E.0344
G1 X115.162 Y125.019 E.03438
G1 X114.409 Y125.257 E.03431
G1 X113.743 Y125.434 E.02993
G1 X112.929 Y125.609 E.03611
G1 X112.154 Y125.735 E.0341
G1 X111.394 Y125.82 E.03321
G1 X110.564 Y125.872 E.03608
G1 X109.705 Y125.879 E.03728
G1 X108.907 Y125.844 E.0347
G1 X108.086 Y125.765 E.0358
G1 X107.403 Y125.668 E.02994
G1 X106.627 Y125.519 E.03429
G1 X105.785 Y125.312 E.03764
G1 X105.13 Y125.116 E.02968
G1 X104.347 Y124.841 E.03604
G1 X103.648 Y124.555 E.03278
G1 X103.029 Y124.27 E.02958
G1 X102.32 Y123.901 E.03472
G1 X101.668 Y123.52 E.03277
G1 X100.973 Y123.066 E.03603
G1 X100.418 Y122.665 E.02972
G1 X99.738 Y122.121 E.0378
G1 X99.127 Y121.575 E.03555
G1 X98.586 Y121.043 E.03293
G1 X98.025 Y120.432 E.03602
G1 X97.541 Y119.849 E.03291
G1 X97.043 Y119.184 E.03606
G1 X96.659 Y118.616 E.02974
G1 X96.245 Y117.938 E.03449
G1 X95.865 Y117.241 E.03448
G1 X95.536 Y116.558 E.03291
G1 X95.267 Y115.93 E.02962
G1 X95.026 Y115.293 E.02958
G1 X94.759 Y114.466 E.03772
G1 X94.556 Y113.701 E.03435
G1 X94.39 Y112.923 E.03455
G1 X94.26 Y112.111 E.03568
G1 X94.176 Y111.351 E.03323
G1 X94.128 Y110.558 E.03447
G1 X94.121 Y109.737 E.03563
G1 X94.163 Y108.819 E.03989
G1 X94.226 Y108.153 E.02904
G1 X94.359 Y107.246 E.03981
G1 X94.515 Y106.475 E.03412
G1 X94.712 Y105.699 E.03478
G1 X94.945 Y104.943 E.03434
G1 X95.219 Y104.191 E.03472
G1 X95.437 Y103.664 E.02477
G1 X95.769 Y102.949 E.03421
G1 X96.064 Y102.383 E.02772
G1 X96.464 Y101.694 E.03458
G1 X96.991 Y100.89 E.04171
G1 X97.359 Y100.386 E.0271
G1 X97.858 Y99.763 E.03465
G1 X98.361 Y99.194 E.03296
G1 X98.889 Y98.655 E.03277
G1 X99.21 Y98.969 F18000
G1 F1200
G1 X99.255 Y98.922 E.00281
G1 X99.796 Y98.421 E.03202
G1 X100.404 Y97.913 E.0344
G1 X101.004 Y97.46 E.03261
G1 X101.632 Y97.033 E.03298
G1 X102.206 Y96.68 E.02927
G1 X102.915 Y96.289 E.03514
G1 X103.662 Y95.928 E.03601
G1 X104.284 Y95.665 E.02931
G1 X104.896 Y95.435 E.02839
G1 X105.602 Y95.207 E.03219
G1 X106.365 Y95.001 E.03431
G1 X107.136 Y94.835 E.03425
G1 X107.788 Y94.726 E.02868
G1 X108.628 Y94.628 E.03671
G1 X109.417 Y94.578 E.03433
G1 X110.206 Y94.568 E.03425
G1 X110.867 Y94.591 E.02873
G1 X111.638 Y94.654 E.03358
G1 X112.401 Y94.755 E.0334
G1 X113.161 Y94.894 E.03353
G1 X113.913 Y95.071 E.03356
G1 X114.655 Y95.285 E.0335
G1 X115.349 Y95.524 E.03188
G1 X116.095 Y95.821 E.03484
G1 X116.793 Y96.142 E.03337
G1 X117.485 Y96.503 E.03388
G1 X118.119 Y96.875 E.03188
G1 X118.785 Y97.311 E.03455
G1 X119.389 Y97.752 E.03246
G1 X120.008 Y98.251 E.03454
G1 X120.557 Y98.743 E.03198
G1 X121.033 Y99.209 E.02892
G1 X121.536 Y99.748 E.03203
G1 X122.054 Y100.363 E.03492
G1 X122.501 Y100.949 E.03198
G1 X122.949 Y101.604 E.03446
G1 X123.342 Y102.243 E.03256
G1 X123.713 Y102.92 E.03348
G1 X124.005 Y103.516 E.02879
G1 X124.326 Y104.26 E.03521
G1 X124.59 Y104.97 E.03287
G1 X124.817 Y105.683 E.03249
G1 X125.02 Y106.452 E.03451
G1 X125.178 Y107.207 E.03348
G1 X125.295 Y107.946 E.03248
G1 X125.381 Y108.734 E.03442
G1 X125.425 Y109.507 E.03358
G1 X125.431 Y110.255 E.03249
G1 X125.406 Y110.913 E.02858
G1 X125.345 Y111.644 E.03183
G1 X125.24 Y112.428 E.03435
G1 X125.097 Y113.202 E.03415
G1 X124.927 Y113.919 E.03197
G1 X124.702 Y114.691 E.03494
G1 X124.449 Y115.421 E.03354
G1 X124.159 Y116.139 E.03359
G1 X123.883 Y116.74 E.02874
G1 X123.5 Y117.478 E.03609
G1 X123.09 Y118.174 E.03505
G1 X122.72 Y118.739 E.02933
G1 X122.266 Y119.367 E.03364
G1 X121.782 Y119.968 E.0335
G1 X121.294 Y120.517 E.03188
G1 X120.728 Y121.094 E.03508
G1 X120.162 Y121.615 E.03341
G1 X119.567 Y122.11 E.0336
G1 X118.98 Y122.551 E.03188
G1 X118.321 Y122.998 E.03454
G1 X117.659 Y123.398 E.03359
G1 X117.107 Y123.699 E.0273
G1 X116.443 Y124.024 E.03207
G1 X115.735 Y124.328 E.03344
G1 X115.013 Y124.596 E.03341
G1 X114.287 Y124.826 E.03308
G1 X113.635 Y124.998 E.02929
G1 X112.843 Y125.169 E.03516
G1 X112.096 Y125.29 E.03283
G1 X111.351 Y125.373 E.03254
G1 X110.545 Y125.423 E.03509
G1 X109.717 Y125.43 E.03594
G1 X108.934 Y125.396 E.034
G1 X108.142 Y125.32 E.03456
G1 X107.474 Y125.225 E.0293
G1 X106.726 Y125.082 E.03303
G1 X105.906 Y124.88 E.03666
G1 X105.272 Y124.69 E.02875
G1 X104.509 Y124.423 E.03508
G1 X103.829 Y124.145 E.03187
G1 X103.224 Y123.865 E.02895
G1 X102.533 Y123.506 E.0338
G1 X101.9 Y123.137 E.03181
G1 X101.224 Y122.695 E.03507
G1 X100.687 Y122.306 E.02879
G1 X100.025 Y121.776 E.03681
G1 X99.436 Y121.25 E.03426
G1 X98.912 Y120.734 E.03195
G1 X98.366 Y120.139 E.03505
G1 X97.895 Y119.574 E.03193
G1 X97.41 Y118.926 E.03512
G1 X97.038 Y118.376 E.02882
G1 X96.635 Y117.717 E.03354
G1 X96.266 Y117.039 E.03352
G1 X95.945 Y116.375 E.03201
G1 X95.682 Y115.76 E.02902
G1 X95.449 Y115.141 E.02871
G1 X95.189 Y114.336 E.03674
G1 X94.991 Y113.594 E.03335
G1 X94.83 Y112.837 E.03357
G1 X94.705 Y112.055 E.03441
G1 X94.623 Y111.309 E.03256
G1 X94.576 Y110.539 E.03349
G1 X94.569 Y109.749 E.0343
G1 X94.61 Y108.854 E.03888
G1 X94.671 Y108.21 E.02807
G1 X94.801 Y107.326 E.03879
G1 X94.951 Y106.578 E.03313
G1 X95.143 Y105.823 E.0338
G1 X95.37 Y105.089 E.03337
G1 X95.636 Y104.356 E.03383
G1 X95.846 Y103.847 E.02393
G1 X96.17 Y103.15 E.03333
G1 X96.459 Y102.597 E.0271
G1 X96.848 Y101.926 E.03364
G1 X97.358 Y101.148 E.04038
G1 X97.717 Y100.656 E.02645
G1 X98.203 Y100.049 E.03376
G1 X98.692 Y99.497 E.032
G1 X99.182 Y98.997 E.03039
G1 X99.502 Y99.311 F18000
G1 F1200
G1 X99.57 Y99.242 E.00422
G1 X100.095 Y98.756 E.03105
G1 X100.681 Y98.266 E.03314
G1 X101.268 Y97.823 E.03194
G1 X101.873 Y97.411 E.03177
G1 X102.435 Y97.066 E.02862
G1 X103.124 Y96.686 E.03418
G1 X103.844 Y96.338 E.03471
G1 X104.453 Y96.08 E.02868
G1 X105.047 Y95.858 E.02754
G1 X105.733 Y95.636 E.03128
G1 X106.474 Y95.437 E.03333
G1 X107.224 Y95.275 E.03329
G1 X107.854 Y95.17 E.02775
G1 X108.672 Y95.075 E.03572
G1 X109.437 Y95.026 E.03331
G1 X110.204 Y95.017 E.03329
G1 X110.845 Y95.039 E.02782
G1 X111.594 Y95.1 E.03264
G1 X112.335 Y95.198 E.03242
G1 X113.072 Y95.334 E.03255
G1 X113.803 Y95.506 E.03259
G1 X114.523 Y95.714 E.03253
G1 X115.197 Y95.946 E.03092
G1 X115.915 Y96.232 E.03357
G1 X116.593 Y96.544 E.03238
G1 X117.265 Y96.894 E.03291
G1 X117.885 Y97.258 E.03121
G1 X118.527 Y97.678 E.03329
G1 X119.118 Y98.109 E.03178
G1 X119.715 Y98.591 E.03328
G1 X120.248 Y99.068 E.03107
G1 X120.714 Y99.524 E.0283
G1 X121.203 Y100.049 E.03111
G1 X121.706 Y100.647 E.03394
G1 X122.139 Y101.215 E.03101
G1 X122.571 Y101.846 E.0332
G1 X122.956 Y102.472 E.03189
G1 X123.313 Y103.123 E.03226
G1 X123.598 Y103.706 E.02815
G1 X123.911 Y104.431 E.03427
G1 X124.167 Y105.119 E.03189
G1 X124.387 Y105.812 E.03153
G1 X124.582 Y106.552 E.03325
G1 X124.738 Y107.292 E.0328
G1 X124.851 Y108.009 E.03151
G1 X124.934 Y108.775 E.03345
G1 X124.977 Y109.518 E.03231
G1 X124.982 Y110.251 E.03184
G1 X124.958 Y110.889 E.0277
G1 X124.899 Y111.599 E.03093
G1 X124.797 Y112.361 E.03337
G1 X124.657 Y113.112 E.03318
G1 X124.492 Y113.807 E.031
G1 X124.274 Y114.558 E.03395
G1 X124.028 Y115.267 E.03255
G1 X123.746 Y115.964 E.03264
G1 X123.479 Y116.546 E.02782
G1 X123.109 Y117.258 E.03479
G1 X122.711 Y117.934 E.03409
G1 X122.349 Y118.487 E.02868
G1 X121.907 Y119.097 E.03269
G1 X121.437 Y119.681 E.03253
G1 X120.964 Y120.213 E.03092
G1 X120.414 Y120.774 E.0341
G1 X119.864 Y121.28 E.03242
G1 X119.291 Y121.756 E.03235
G1 X118.716 Y122.188 E.03121
G1 X118.082 Y122.618 E.03328
G1 X117.438 Y123.008 E.03266
G1 X116.898 Y123.302 E.02669
G1 X116.253 Y123.617 E.03119
G1 X115.565 Y123.912 E.03248
G1 X114.871 Y124.17 E.03216
G1 X114.165 Y124.394 E.03214
G1 X113.527 Y124.563 E.02864
G1 X112.756 Y124.728 E.03421
G1 X112.032 Y124.846 E.03184
G1 X111.309 Y124.926 E.03158
G1 X110.525 Y124.975 E.0341
G1 X109.728 Y124.982 E.0346
G1 X108.969 Y124.949 E.03299
G1 X108.198 Y124.875 E.03361
