; HEADER_BLOCK_START
; generated by AnycubicSlicerNext 1.3.5.5 on 2025-08-27 at 22:18:30
; total layer number: 164
; filament_density: 1.24
; filament_diameter: 1.75
; max_z_height: 32.84
; exclude_object: 0
; model_instances: 2
; source_info: {"models":[{"file_source":0,"mo_file_id":-1,"name":"GABELSCHELLE-001.stl_id_0_copy_0"},{"file_source":0,"mo_file_id":-1,"name":"SCHELLE-001.stl_id_1_copy_0"}],"models_from":0,"plate_index":1,"slice_paras_process":1,"software_version":"AnycubicSlicerNext 1.3.5.5 20250625193040"}
; HEADER_BLOCK_END

; THUMBNAIL_BLOCK_START
; THUMBNAIL_BLOCK_END

; external perimeters extrusion width = 0.42mm
; perimeters extrusion width = 0.45mm
; infill extrusion width = 0.45mm
; solid infill extrusion width = 0.42mm
; top infill extrusion width = 0.42mm
; first layer extrusion width = 0.50mm

; external perimeters extrusion width = 0.42mm
; perimeters extrusion width = 0.45mm
; infill extrusion width = 0.45mm
; solid infill extrusion width = 0.42mm
; top infill extrusion width = 0.42mm
; first layer extrusion width = 0.50mm

; EXECUTABLE_BLOCK_START
M201 X2000 Y2000 Z800 E2000 ; sets machine_max_acceleration_x, y, z, e (mm/sec^2)
M203 X300 Y300 Z8 E100 ; sets machine_max_speed_x, y, z, e (mm/sec)
M204 P2000 R2000 T2000 ; sets machine_max_acceleration(mm/sec^2) M204 P[print] R[retract] T[travel]
M205 X10.00 Y10.00 Z2.00 E5.00 ; sets the jerk limits, mm/sec
;TYPE:Custom
G90 ; use absolute coordinates
M83 ; extruder relative mode
M104 S220 ; set extruder temp
M140 S60 ; set bed temp
M190 S60 ; wait for bed temp
M109 S220 ; wait for extruder temp
G28                                        ; move X/Y/Z to min endstops
G1 Z0.28                                   ; lift nozzle a bit 
G92 E0 
G1 Y3 F1800                                    ; zero the extruded length 
G1 X60  E25 F500                       ; Extrude 25mm of filament in a 5cm line. 
G92 E0                                     ; zero the extruded length again 
G1 E-2 F500                                ; Retract a little 
G1 X70 F4000                              ; Quickly wipe away from the filament line
M117
G90
G21
M83 ; use relative distances for extrusion
; filament start gcode
M106 S0
;LAYER_CHANGE
;Z:0.24
;HEIGHT:0.24
; BEFORE_LAYER_CHANGE 0 @ 0.24mm
G92 E0
G1 E-2.5 F6000
; AFTER_LAYER_CHANGE 0 @ 0.24mm
M204 P500
; printing object "GABELSCHELLE-001.stl" id:0 copy 0
G1 X128.643 Y127.223 F18000
G1 Z.24
G1 E2.5 F6000
;TYPE:Brim
;WIDTH:0.5
G1 F1200
G1 X149.848 Y106.019 E1.30171
G1 X150.336 Y105.599 E.02796
G1 X150.875 Y105.26 E.02763
G1 X151.417 Y105.018 E.0258
G1 X152.028 Y104.829 E.02774
G1 X152.656 Y104.734 E.02759
G1 X153.292 Y104.733 E.02759
G1 X153.917 Y104.827 E.02745
G1 X154.782 Y105.121 E.03964
G1 X155.343 Y105.417 E.02755
G1 X155.858 Y105.797 E.02777
G1 X156.094 Y106.016 E.01397
G1 X167.56 Y117.482 E.70388
G1 X167.98 Y117.97 E.02796
G1 X168.319 Y118.509 E.02763
G1 X168.561 Y119.052 E.0258
G1 X168.75 Y119.662 E.02774
G1 X168.845 Y120.291 E.02759
G1 X168.846 Y120.926 E.02759
G1 X168.752 Y121.553 E.0275
G1 X168.501 Y122.318 E.03495
G1 X168.161 Y122.978 E.03225
G1 X167.782 Y123.492 E.02772
G1 X167.563 Y123.728 E.01397
G1 X146.359 Y144.933 E1.30171
G1 X145.871 Y145.353 E.02796
G1 X145.332 Y145.692 E.02763
G1 X144.789 Y145.934 E.0258
G1 X144.179 Y146.122 E.02774
G1 X143.55 Y146.218 E.02759
G1 X142.914 Y146.218 E.02759
G1 X142.289 Y146.125 E.02745
G1 X141.425 Y145.83 E.03964
G1 X140.863 Y145.534 E.02755
G1 X140.348 Y145.154 E.02777
G1 X140.112 Y144.936 E.01397
G1 X128.646 Y133.47 E.70388
G1 X128.226 Y132.982 E.02796
G1 X127.887 Y132.443 E.02763
G1 X127.645 Y131.9 E.0258
G1 X127.457 Y131.29 E.02774
G1 X127.361 Y130.661 E.02759
G1 X127.361 Y130.025 E.02759
G1 X127.455 Y129.399 E.0275
G1 X127.706 Y128.634 E.03495
G1 X128.046 Y127.973 E.03225
G1 X128.424 Y127.459 E.02772
G1 X128.616 Y127.252 E.01224
G1 X128.946 Y127.557 F18000
G1 F1200
G1 X128.965 Y127.536 E.0012
G1 X150.149 Y106.351 E1.30051
G1 X150.611 Y105.955 E.02642
G1 X151.078 Y105.662 E.02394
G1 X151.583 Y105.436 E.02401
G1 X152.119 Y105.27 E.02432
G1 X152.68 Y105.184 E.02468
G1 X153.269 Y105.183 E.02554
G1 X153.823 Y105.268 E.02432
G1 X154.594 Y105.531 E.03536
G1 X155.112 Y105.804 E.02544
G1 X155.577 Y106.148 E.02511
G1 X167.234 Y117.791 E.71518
G1 X167.612 Y118.23 E.02512
G1 X167.917 Y118.713 E.02481
G1 X168.143 Y119.217 E.024
G1 X168.309 Y119.753 E.02432
G1 X168.397 Y120.335 E.02555
G1 X168.396 Y120.903 E.02468
G1 X168.31 Y121.46 E.02445
G1 X168.089 Y122.134 E.0308
G1 X167.783 Y122.732 E.02914
G1 X167.44 Y123.2 E.0252
G1 X167.242 Y123.415 E.01272
G1 X146.057 Y144.6 E1.30051
G1 X145.611 Y144.985 E.02556
G1 X145.128 Y145.29 E.02481
G1 X144.623 Y145.516 E.02401
G1 X144.088 Y145.681 E.02432
G1 X143.506 Y145.769 E.02555
G1 X142.938 Y145.768 E.02468
G1 X142.384 Y145.683 E.02432
G1 X141.613 Y145.421 E.03536
G1 X141.111 Y145.158 E.02458
G1 X140.641 Y144.813 E.02533
G1 X140.425 Y144.614 E.01272
G1 X128.972 Y133.161 E.70311
G1 X128.594 Y132.722 E.02512
G1 X128.289 Y132.239 E.02481
G1 X128.063 Y131.734 E.02401
G1 X127.898 Y131.199 E.02432
G1 X127.81 Y130.617 E.02555
G1 X127.811 Y130.049 E.02468
G1 X127.896 Y129.492 E.02445
G1 X128.117 Y128.818 E.0308
G1 X128.423 Y128.22 E.02914
G1 X128.766 Y127.752 E.0252
G1 X128.919 Y127.586 E.00979
G1 X129.25 Y127.889 F18000
G1 F1200
G1 X129.29 Y127.845 E.00261
G1 X150.451 Y106.684 E1.29902
G1 X150.887 Y106.312 E.02489
G1 X151.299 Y106.054 E.0211
G1 X151.749 Y105.854 E.02139
G1 X152.21 Y105.712 E.02093
G1 X152.705 Y105.634 E.02174
G1 X153.245 Y105.633 E.02345
G1 X153.727 Y105.71 E.02117
G1 X154.406 Y105.941 E.03113
G1 X154.864 Y106.18 E.02245
G1 X155.291 Y106.496 E.02306
G1 X166.902 Y118.093 E.71234
G1 X167.244 Y118.49 E.02274
G1 X167.516 Y118.917 E.02198
G1 X167.719 Y119.368 E.02149
G1 X167.867 Y119.843 E.0216
G1 X167.948 Y120.378 E.02348
G1 X167.946 Y120.879 E.02172
G1 X167.869 Y121.366 E.02141
G1 X167.677 Y121.951 E.02673
G1 X167.405 Y122.486 E.02605
G1 X167.098 Y122.908 E.02268
G1 X166.916 Y123.107 E.01168
G1 X145.755 Y144.268 E1.29905
G1 X145.351 Y144.617 E.02318
G1 X144.924 Y144.889 E.02198
G1 X144.472 Y145.092 E.02149
G1 X143.997 Y145.24 E.0216
G1 X143.462 Y145.321 E.02348
G1 X142.962 Y145.318 E.02172
G1 X142.48 Y145.242 E.0212
G1 X141.8 Y145.011 E.03117
G1 X141.358 Y144.781 E.02161
G1 X140.932 Y144.471 E.02288
G1 X140.738 Y144.293 E.01144
G1 X129.298 Y132.852 E.70233
G1 X128.962 Y132.462 E.02231
G1 X128.69 Y132.035 E.02198
G1 X128.487 Y131.583 E.02149
G1 X128.339 Y131.108 E.0216
G1 X128.258 Y130.573 E.02348
G1 X128.261 Y130.073 E.02172
G1 X128.337 Y129.586 E.02141
G1 X128.529 Y129.001 E.02673
G1 X128.801 Y128.466 E.02605
G1 X129.108 Y128.043 E.02268
G1 X129.223 Y127.919 E.00733
G1 X129.554 Y128.221 F18000
G1 F1200
G1 X129.616 Y128.153 E.00399
G1 X150.752 Y107.018 E1.29748
G1 X151.161 Y106.669 E.02334
G1 X151.519 Y106.447 E.01826
G1 X151.9 Y106.278 E.01811
G1 X152.302 Y106.153 E.01829
G1 X152.73 Y106.084 E.01879
G1 X153.22 Y106.084 E.02131
G1 X153.63 Y106.15 E.01799
G1 X154.219 Y106.351 E.027
G1 X154.633 Y106.568 E.02033
G1 X155.005 Y106.844 E.02009
G1 X166.57 Y118.395 E.70952
G1 X166.877 Y118.75 E.0204
G1 X167.115 Y119.122 E.01917
G1 X167.296 Y119.52 E.01896
G1 X167.426 Y119.934 E.01885
G1 X167.499 Y120.421 E.02138
G1 X167.496 Y120.853 E.01872
G1 X167.428 Y121.271 E.01839
G1 X167.265 Y121.769 E.02274
G1 X167.027 Y122.241 E.02298
G1 X166.755 Y122.618 E.02016
G1 X166.59 Y122.798 E.01061
G1 X145.453 Y143.936 E1.29758
G1 X145.09 Y144.249 E.02084
G1 X144.718 Y144.488 E.01916
G1 X144.321 Y144.668 E.01896
G1 X143.906 Y144.798 E.01885
G1 X143.419 Y144.872 E.02138
G1 X142.988 Y144.868 E.01871
G1 X142.577 Y144.801 E.0181
G1 X141.986 Y144.6 E.02707
G1 X141.604 Y144.403 E.01867
G1 X141.223 Y144.127 E.02043
G1 X141.05 Y143.97 E.01012
G1 X129.623 Y132.542 E.70152
G1 X129.33 Y132.201 E.01954
G1 X129.091 Y131.829 E.01918
G1 X128.911 Y131.432 E.01897
G1 X128.781 Y131.017 E.01885
G1 X128.707 Y130.53 E.02138
G1 X128.711 Y130.099 E.01872
G1 X128.778 Y129.681 E.01839
G1 X128.941 Y129.183 E.02274
G1 X129.18 Y128.71 E.02298
G1 X129.452 Y128.334 E.02016
G1 X129.527 Y128.251 E.00488
G1 X129.86 Y128.552 F18000
G1 F1200
G1 X129.943 Y128.461 E.00535
G1 X151.052 Y107.351 E1.29588
G1 X151.435 Y107.027 E.02176
G1 X151.737 Y106.841 E.01543
G1 X152.051 Y106.701 E.0149
G1 X152.396 Y106.593 E.01569
G1 X152.755 Y106.534 E.01581
G1 X153.195 Y106.534 E.01911
G1 X153.531 Y106.591 E.01479
G1 X154.05 Y106.769 E.02383
G1 X154.403 Y106.955 E.01729
G1 X154.718 Y107.191 E.0171
G1 X166.237 Y118.697 E.70675
G1 X166.51 Y119.012 E.0181
G1 X166.715 Y119.329 E.01638
G1 X166.873 Y119.673 E.01643
G1 X166.984 Y120.026 E.01606
G1 X167.05 Y120.464 E.01923
G1 X167.046 Y120.825 E.01567
G1 X166.988 Y121.175 E.01539
G1 X166.845 Y121.606 E.01972
G1 X166.647 Y121.998 E.01907
G1 X166.41 Y122.328 E.01763
G1 X166.263 Y122.491 E.00951
G1 X145.151 Y143.603 E1.29607
G1 X144.828 Y143.883 E.01854
G1 X144.512 Y144.088 E.01636
G1 X144.168 Y144.245 E.01643
G1 X143.815 Y144.357 E.01606
G1 X143.377 Y144.423 E.01923
G1 X143.016 Y144.418 E.01565
G1 X142.675 Y144.361 E.01502
G1 X142.172 Y144.19 E.02308
G1 X141.849 Y144.025 E.01575
G1 X141.512 Y143.783 E.01799
G1 X141.362 Y143.648 E.00876
G1 X129.949 Y132.233 E.70068
G1 X129.696 Y131.94 E.01682
G1 X129.491 Y131.623 E.01639
G1 X129.334 Y131.279 E.01643
G1 X129.222 Y130.926 E.01606
G1 X129.156 Y130.488 E.01923
G1 X129.161 Y130.127 E.01567
G1 X129.219 Y129.777 E.01539
G1 X129.362 Y129.346 E.01972
G1 X129.56 Y128.954 E.01907
G1 X129.796 Y128.623 E.01763
G1 X129.834 Y128.582 E.00243
G1 X130.206 Y128.852 F18000
G1 F1200
G1 X130.258 Y128.78 E.00386
G1 X151.409 Y107.629 E1.29844
G1 X152.021 Y107.202 E.03238
G1 X152.353 Y107.077 E.01541
G1 X152.727 Y107 E.01656
G1 X153.161 Y106.996 E.01888
G1 X153.679 Y107.107 E.02299
G1 X154.065 Y107.287 E.01847
G1 X154.537 Y107.63 E.02536
G1 X165.956 Y119.049 E.70097
G1 X166.175 Y119.319 E.01509
G1 X166.37 Y119.653 E.01679
G1 X166.544 Y120.177 E.02398
G1 X166.593 Y120.626 E.01957
G1 X166.587 Y120.756 E.00565
G1 X166.51 Y121.186 E.01899
G1 X166.477 Y121.298 E.00503
G1 X166.29 Y121.701 E.01931
G1 X165.949 Y122.172 E.02523
G1 X144.792 Y143.328 E1.2988
G1 X144.521 Y143.547 E.01509
G1 X144.188 Y143.743 E.01679
G1 X143.663 Y143.916 E.02398
G1 X143.215 Y143.966 E.01957
G1 X143.085 Y143.959 E.00565
G1 X142.654 Y143.882 E.01899
G1 X142.543 Y143.849 E.00503
G1 X142.139 Y143.663 E.01931
G1 X141.669 Y143.321 E.02523
G1 X130.251 Y131.903 E.70097
G1 X130.032 Y131.632 E.01509
G1 X129.836 Y131.299 E.01679
G1 X129.663 Y130.774 E.02398
G1 X129.613 Y130.326 E.01957
G1 X129.62 Y130.196 E.00565
G1 X129.696 Y129.765 E.01899
G1 X129.73 Y129.654 E.00503
G1 X129.916 Y129.25 E.01931
G1 X130.182 Y128.884 E.01964
G1 X130.543 Y129.139 F18000
G1 F1200
G1 X130.567 Y129.105 E.00182
G1 X151.733 Y107.939 E1.29936
G1 X152.185 Y107.62 E.02399
G1 X152.432 Y107.519 E.0116
G1 X152.829 Y107.437 E.01759
G1 X153.163 Y107.444 E.01452
G1 X153.586 Y107.546 E.01885
G1 X153.797 Y107.647 E.01019
G1 X154.213 Y107.94 E.02207
G1 X165.644 Y119.371 E.70174
G1 X165.828 Y119.604 E.01291
G1 X165.985 Y119.883 E.0139
G1 X166.118 Y120.319 E.01977
G1 X166.147 Y120.669 E.01523
G1 X166.067 Y121.115 E.0197
G1 X165.93 Y121.434 E.01504
G1 X165.639 Y121.847 E.02195
G1 X144.47 Y143.016 E1.29957
G1 X144.236 Y143.201 E.01291
G1 X143.957 Y143.358 E.0139
G1 X143.522 Y143.491 E.01977
G1 X143.172 Y143.519 E.01523
G1 X142.725 Y143.44 E.0197
G1 X142.407 Y143.303 E.01504
G1 X141.994 Y143.012 E.02195
G1 X130.563 Y131.58 E.70174
G1 X130.378 Y131.347 E.01291
G1 X130.221 Y131.068 E.0139
G1 X130.088 Y130.633 E.01977
G1 X130.06 Y130.283 E.01523
G1 X130.139 Y129.836 E.0197
G1 X130.276 Y129.518 E.01504
G1 X130.52 Y129.172 E.01839
G1 X130.876 Y129.43 F18000
G1 F1200
G1 X152.059 Y108.248 E1.30035
G1 X152.36 Y108.032 E.0161
G1 X152.526 Y107.957 E.00789
G1 X152.831 Y107.885 E.01362
G1 X153.058 Y107.88 E.00983
G1 X153.399 Y107.953 E.01516
G1 X153.539 Y108.014 E.00661
G1 X153.887 Y108.249 E.01825
G1 X165.332 Y119.694 E.70258
G1 X165.477 Y119.884 E.01038
G1 X165.596 Y120.105 E.01088
G1 X165.689 Y120.447 E.0154
G1 X165.699 Y120.693 E.0107
G1 X165.626 Y121.034 E.01511
G1 X165.565 Y121.173 E.00661
G1 X165.33 Y121.522 E.01825
G1 X144.147 Y142.705 E1.30041
G1 X143.957 Y142.85 E.01038
G1 X143.736 Y142.968 E.01088
G1 X143.394 Y143.061 E.0154
G1 X143.147 Y143.072 E.0107
G1 X142.807 Y142.998 E.01511
G1 X142.667 Y142.938 E.00661
G1 X142.319 Y142.703 E.01825
G1 X130.874 Y131.258 E.70258
G1 X130.729 Y131.068 E.01038
G1 X130.611 Y130.847 E.01088
G1 X130.518 Y130.505 E.0154
G1 X130.507 Y130.258 E.0107
G1 X130.581 Y129.918 E.01511
G1 X130.641 Y129.778 E.00661
G1 X130.854 Y129.463 E.01651
G1 X131.184 Y129.756 F18000
G1 F1200
G1 X152.384 Y108.557 E1.3014
G1 X152.534 Y108.446 E.0081
G1 X152.723 Y108.36 E.00903
G1 X152.917 Y108.325 E.00857
G1 X153.06 Y108.328 E.00618
G1 X153.293 Y108.389 E.01048
G1 X153.561 Y108.557 E.01373
G1 X165.021 Y120.017 E.70353
G1 X165.118 Y120.151 E.00718
G1 X165.2 Y120.315 E.00795
G1 X165.254 Y120.555 E.01066
G1 X165.251 Y120.694 E.00605
G1 X165.19 Y120.928 E.01048
G1 X165.022 Y121.195 E.01373
G1 X143.823 Y142.394 E1.30136
G1 X143.689 Y142.491 E.00718
G1 X143.525 Y142.572 E.00795
G1 X143.286 Y142.627 E.01066
G1 X143.147 Y142.624 E.00605
G1 X142.913 Y142.563 E.01048
G1 X142.645 Y142.395 E.01373
G1 X131.185 Y130.934 E.70353
G1 X131.088 Y130.8 E.00718
G1 X131.007 Y130.636 E.00795
G1 X130.952 Y130.397 E.01066
G1 X130.955 Y130.258 E.00605
G1 X131.016 Y130.024 E.01048
G1 X131.163 Y129.79 E.01199
G1 X131.495 Y130.08 F18000
G1 F1200
G1 X152.708 Y108.867 E1.30226
G1 X152.784 Y108.817 E.00397
G1 X152.896 Y108.773 E.0052
G1 X153.068 Y108.776 E.00745
G1 X153.237 Y108.867 E.00835
G1 X164.712 Y120.342 E.70443
G1 X164.806 Y120.53 E.00913
G1 X164.803 Y120.702 E.00745
G1 X164.712 Y120.871 E.00835
G1 X143.499 Y142.084 E1.30226
G1 X143.31 Y142.178 E.00913
G1 X143.139 Y142.175 E.00745
G1 X142.969 Y142.084 E.00835
G1 X131.495 Y130.61 E.70443
G1 X131.401 Y130.421 E.00913
G1 X131.404 Y130.25 E.00745
G1 X131.476 Y130.116 E.00661
G1 E-1.75 F6000
;WIPE_START
G1 F1200
G1 X132.182 Y129.408 E-.75
;WIPE_END
G1 X115.407 Y113.981 F18000
G1 E2.5 F6000
G1 F1200
G1 X114.919 Y114.401 E.02796
G1 X114.38 Y114.74 E.02765
G1 X114.019 Y114.904 E.0172
G1 X107.982 Y108.867 E.37057
G1 X107.913 Y108.82 E.00362
G1 X107.813 Y108.776 E.00476
G1 X107.641 Y108.773 E.00745
G1 X107.453 Y108.867 E.00913
G1 X105.748 Y110.572 E.10464
G1 X97.695 Y102.518 E.4944
G1 X97.275 Y102.03 E.02796
G1 X96.935 Y101.49 E.02768
G1 X96.736 Y101.058 E.02066
G1 X96.505 Y100.337 E.03288
G1 X96.41 Y99.709 E.02754
G1 X96.409 Y99.074 E.02759
G1 X96.503 Y98.447 E.0275
G1 X96.754 Y97.682 E.03495
G1 X97.094 Y97.022 E.03225
G1 X97.473 Y96.508 E.02772
G1 X97.692 Y96.272 E.01397
G1 X118.896 Y75.067 E1.30171
G1 X119.384 Y74.647 E.02796
G1 X119.923 Y74.308 E.02763
G1 X120.466 Y74.066 E.0258
G1 X121.076 Y73.878 E.02774
G1 X121.705 Y73.782 E.02759
G1 X122.34 Y73.782 E.02759
G1 X122.966 Y73.875 E.02745
G1 X123.83 Y74.169 E.03964
G1 X124.392 Y74.466 E.02755
G1 X124.907 Y74.845 E.02777
G1 X125.143 Y75.064 E.01397
G1 X136.609 Y86.53 E.70388
G1 X137.029 Y87.018 E.02796
G1 X137.368 Y87.557 E.02763
G1 X137.61 Y88.1 E.0258
G1 X137.798 Y88.71 E.02774
G1 X137.893 Y89.339 E.02759
G1 X137.894 Y89.975 E.02759
G1 X137.8 Y90.601 E.0275
G1 X137.549 Y91.366 E.03495
G1 X137.209 Y92.027 E.03225
G1 X136.83 Y92.541 E.02772
G1 X136.611 Y92.777 E.01397
G1 X115.435 Y113.953 E1.29997
G1 X115.118 Y113.636 F18000
G1 F1200
G1 X115.105 Y113.649 E.00079
G1 X114.643 Y114.045 E.02642
