; HEADER_BLOCK_START
; generated by AnycubicSlicerNext 1.3.5.5 on 2025-09-02 at 21:41:44
; total layer number: 95
; filament_density: 1.24
; filament_diameter: 1.75
; max_z_height: 19.04
; exclude_object: 0
; model_instances: 2
; source_info: {"models":[{"file_source":0,"mo_file_id":-1,"name":"HALTER-001.stl_id_0_copy_0"},{"file_source":0,"mo_file_id":-1,"name":"HALTER-001.stl_id_1_copy_0"}],"models_from":0,"plate_index":1,"slice_paras_process":1,"software_version":"AnycubicSlicerNext 1.3.5.5 20250625193040"}
; HEADER_BLOCK_END

; THUMBNAIL_BLOCK_START
; THUMBNAIL_BLOCK_END

; external perimeters extrusion width = 0.42mm
; perimeters extrusion width = 0.45mm
; infill extrusion width = 0.45mm
; solid infill extrusion width = 0.42mm
; top infill extrusion width = 0.42mm
; first layer extrusion width = 0.50mm

; external perimeters extrusion width = 0.42mm
; perimeters extrusion width = 0.45mm
; infill extrusion width = 0.45mm
; solid infill extrusion width = 0.42mm
; top infill extrusion width = 0.42mm
; first layer extrusion width = 0.50mm

; EXECUTABLE_BLOCK_START
M201 X2000 Y2000 Z800 E2000 ; sets machine_max_acceleration_x, y, z, e (mm/sec^2)
M203 X300 Y300 Z8 E100 ; sets machine_max_speed_x, y, z, e (mm/sec)
M204 P2000 R2000 T2000 ; sets machine_max_acceleration(mm/sec^2) M204 P[print] R[retract] T[travel]
M205 X10.00 Y10.00 Z2.00 E5.00 ; sets the jerk limits, mm/sec
;TYPE:Custom
G90 ; use absolute coordinates
M83 ; extruder relative mode
M104 S220 ; set extruder temp
M140 S60 ; set bed temp
M190 S60 ; wait for bed temp
M109 S220 ; wait for extruder temp
G28                                        ; move X/Y/Z to min endstops
G1 Z0.28                                   ; lift nozzle a bit 
G92 E0 
G1 Y3 F1800                                    ; zero the extruded length 
G1 X60  E25 F500                       ; Extrude 25mm of filament in a 5cm line. 
G92 E0                                     ; zero the extruded length again 
G1 E-2 F500                                ; Retract a little 
G1 X70 F4000                              ; Quickly wipe away from the filament line
M117
G90
G21
M83 ; use relative distances for extrusion
; filament start gcode
M106 S0
;LAYER_CHANGE
;Z:0.24
;HEIGHT:0.24
; BEFORE_LAYER_CHANGE 0 @ 0.24mm
G92 E0
G1 E-2.5 F6000
; AFTER_LAYER_CHANGE 0 @ 0.24mm
M204 P500
; printing object "HALTER-001.stl" id:0 copy 0
G1 X107.667 Y83.114 F18000
G1 Z.24
G1 E2.5 F6000
;TYPE:Brim
;WIDTH:0.5
G1 F1200
G1 X108.116 Y82.664 E.02759
G1 X108.625 Y82.287 E.0275
G1 X109.344 Y81.924 E.03495
G1 X110.051 Y81.697 E.03225
G1 X110.683 Y81.601 E.02772
G1 X126.992 Y81.589 E.70795
G1 X127.634 Y81.637 E.02796
G1 X128.256 Y81.779 E.02768
G1 X128.702 Y81.944 E.02066
G1 X129.376 Y82.29 E.03288
G1 X129.886 Y82.667 E.02754
G1 X130.336 Y83.116 E.02759
G1 X130.713 Y83.625 E.0275
G1 X131.076 Y84.344 E.03495
G1 X131.303 Y85.051 E.03225
G1 X131.399 Y85.683 E.02772
G1 X131.411 Y133.992 E2.09703
G1 X131.363 Y134.634 E.02796
G1 X131.221 Y135.255 E.02763
G1 X131.009 Y135.81 E.0258
G1 X130.71 Y136.375 E.02774
G1 X130.333 Y136.886 E.02759
G1 X129.884 Y137.336 E.02759
G1 X129.375 Y137.713 E.0275
G1 X128.656 Y138.076 E.03495
G1 X127.949 Y138.303 E.03225
G1 X127.317 Y138.399 E.02772
G1 X111.008 Y138.411 E.70795
G1 X110.366 Y138.363 E.02796
G1 X109.745 Y138.221 E.02763
G1 X109.19 Y138.009 E.0258
G1 X108.625 Y137.71 E.02774
G1 X108.114 Y137.333 E.02759
G1 X107.664 Y136.884 E.02759
G1 X107.287 Y136.375 E.0275
G1 X106.924 Y135.656 E.03495
G1 X106.697 Y134.949 E.03225
G1 X106.61 Y134.374 E.02523
G1 X109 Y134.374 E.10374
G1 X109.184 Y134.319 E.00835
G1 X109.308 Y134.2 E.00745
G1 X109.374 Y134 E.00913
G1 X109.374 Y86 E2.08361
G1 X109.319 Y85.816 E.00835
G1 X109.2 Y85.692 E.00745
G1 X109 Y85.626 E.00913
G1 X106.618 Y85.626 E.1034
G1 X106.637 Y85.366 E.0113
G1 X106.779 Y84.745 E.02763
G1 X106.991 Y84.19 E.0258
G1 X107.29 Y83.625 E.02774
G1 X107.643 Y83.146 E.02586
G1 X108.005 Y83.414 F18000
G1 F1200
G1 X108.015 Y83.4 E.00076
G1 X108.418 Y82.998 E.02468
G1 X108.872 Y82.665 E.02445
G1 X109.505 Y82.345 E.0308
G1 X110.143 Y82.138 E.02914
G1 X110.707 Y82.051 E.02473
G1 X126.98 Y82.038 E.70641
G1 X127.577 Y82.084 E.02598
G1 X128.119 Y82.208 E.02413
G1 X128.513 Y82.353 E.01825
G1 X129.129 Y82.668 E.03002
G1 X129.6 Y83.015 E.02541
G1 X129.988 Y83.403 E.02381
G1 X130.323 Y83.852 E.02434
G1 X130.655 Y84.505 E.03178
G1 X130.862 Y85.143 E.02914
G1 X130.95 Y85.726 E.0256
G1 X130.962 Y133.97 E2.09417
G1 X130.919 Y134.557 E.02555
G1 X130.788 Y135.133 E.02564
G1 X130.596 Y135.631 E.02318
G1 X130.323 Y136.144 E.02519
G1 X129.985 Y136.6 E.02468
G1 X129.582 Y137.002 E.02468
G1 X129.128 Y137.335 E.02445
G1 X128.495 Y137.655 E.0308
G1 X127.857 Y137.862 E.02914
G1 X127.293 Y137.949 E.02473
G1 X111.03 Y137.962 E.70597
G1 X110.443 Y137.919 E.02555
G1 X109.867 Y137.788 E.02563
G1 X109.369 Y137.596 E.02318
G1 X108.856 Y137.323 E.02519
G1 X108.4 Y136.985 E.02468
G1 X108.012 Y136.597 E.02381
G1 X107.665 Y136.128 E.02532
G1 X107.345 Y135.495 E.0308
G1 X107.184 Y134.998 E.02267
G1 X107.198 Y134.886 E.00492
G1 X107.312 Y134.823 E.00566
G1 X108.99 Y134.823 E.07285
G1 X109.298 Y134.753 E.01373
G1 X109.507 Y134.63 E.01048
G1 X109.607 Y134.534 E.00605
G1 X109.738 Y134.326 E.01066
G1 X109.796 Y134.152 E.00795
G1 X109.823 Y133.989 E.00718
G1 X109.823 Y86.01 E2.08271
G1 X109.753 Y85.702 E.01373
G1 X109.63 Y85.493 E.01048
G1 X109.534 Y85.393 E.00605
G1 X109.326 Y85.262 E.01066
G1 X109.152 Y85.204 E.00795
G1 X108.989 Y85.177 E.00718
G1 X107.309 Y85.177 E.07293
G1 X107.206 Y85.13 E.00492
G1 X107.178 Y85.013 E.00522
G1 X107.212 Y84.867 E.0065
G1 X107.404 Y84.369 E.02318
G1 X107.677 Y83.856 E.02519
G1 X107.981 Y83.446 E.02218
G1 X108.342 Y83.712 F18000
G1 F1200
G1 X108.349 Y83.702 E.00055
G1 X108.703 Y83.347 E.02175
G1 X109.098 Y83.055 E.02132
G1 X109.686 Y82.758 E.0286
G1 X110.237 Y82.579 E.02514
G1 X110.731 Y82.501 E.0217
G1 X126.968 Y82.487 E.70483
G1 X127.519 Y82.531 E.02399
G1 X127.983 Y82.637 E.02065
G1 X128.326 Y82.762 E.01584
G1 X128.883 Y83.046 E.02714
G1 X129.314 Y83.363 E.02327
G1 X129.654 Y83.705 E.0209
G1 X129.934 Y84.08 E.02034
G1 X130.235 Y84.667 E.02862
G1 X130.42 Y85.236 E.02599
G1 X130.502 Y85.77 E.02345
G1 X130.514 Y133.948 E2.09133
G1 X130.472 Y134.5 E.02402
G1 X130.354 Y135.011 E.02275
G1 X130.183 Y135.452 E.02053
G1 X129.937 Y135.912 E.02263
G1 X129.637 Y136.313 E.02176
G1 X129.281 Y136.666 E.02175
G1 X128.883 Y136.957 E.02141
G1 X128.333 Y137.234 E.02673
G1 X127.763 Y137.421 E.02605
G1 X127.269 Y137.499 E.0217
G1 X111.052 Y137.514 E.70398
G1 X110.5 Y137.472 E.02401
G1 X109.989 Y137.354 E.02275
G1 X109.548 Y137.183 E.02053
G1 X109.105 Y136.948 E.02177
G1 X108.686 Y136.637 E.02264
G1 X108.346 Y136.296 E.02092
G1 X108.055 Y135.901 E.02128
G1 X107.833 Y135.467 E.0212
G1 X107.829 Y135.353 E.00492
G1 X107.953 Y135.271 E.00645
G1 X108.983 Y135.271 E.04469
G1 X109.388 Y135.192 E.01793
G1 X109.534 Y135.134 E.00683
G1 X109.723 Y135.023 E.00952
G1 X109.914 Y134.862 E.01083
G1 X110.023 Y134.832 E.00492
G1 X110.09 Y134.863 E.00322
G1 X110.234 Y134.99 E.00834
G1 X110.543 Y135.167 E.01546
G1 X110.783 Y135.24 E.01088
G1 X111.02 Y135.271 E.01038
G1 X126.977 Y135.271 E.69266
G1 X127.332 Y135.214 E.01563
G1 X127.487 Y135.157 E.00718
G1 X127.717 Y135.027 E.01146
G1 X127.819 Y134.952 E.00549
G1 X127.991 Y134.765 E.01102
G1 X128.167 Y134.457 E.01539
G1 X128.24 Y134.217 E.01088
G1 X128.271 Y133.98 E.01038
G1 X128.271 Y86.023 E2.08173
G1 X128.214 Y85.668 E.01563
G1 X128.157 Y85.513 E.00718
G1 X128.029 Y85.286 E.01128
G1 X127.862 Y85.089 E.01123
G1 X127.57 Y84.886 E.01546
G1 X127.462 Y84.835 E.00517
G1 X127.217 Y84.76 E.01111
G1 X126.98 Y84.729 E.01038
G1 X111.023 Y84.729 E.69269
G1 X110.61 Y84.809 E.01825
G1 X110.466 Y84.866 E.00673
G1 X110.277 Y84.977 E.00952
G1 X110.086 Y85.138 E.01083
G1 X109.977 Y85.168 E.00492
G1 X109.572 Y84.887 E.02141
G1 X109.217 Y84.76 E.01637
G1 X108.98 Y84.729 E.01038
G1 X107.945 Y84.729 E.04495
G1 X107.842 Y84.681 E.00492
G1 X107.826 Y84.531 E.00655
G1 X108.052 Y84.105 E.02093
G1 X108.318 Y83.744 E.01947
G1 X108.649 Y84.053 F18000
G1 F1200
G1 X108.988 Y83.697 E.02132
G1 X109.345 Y83.433 E.01927
G1 X109.867 Y83.17 E.0254
G1 X110.332 Y83.02 E.02119
G1 X110.777 Y82.95 E.01956
G1 X126.956 Y82.936 E.70231
G1 X127.46 Y82.978 E.02198
G1 X127.847 Y83.066 E.01723
G1 X128.139 Y83.171 E.01343
G1 X128.636 Y83.424 E.02424
G1 X129.028 Y83.712 E.0211
G1 X129.307 Y83.991 E.01714
G1 X129.545 Y84.309 E.01725
G1 X129.814 Y84.831 E.02547
G1 X129.979 Y85.33 E.02282
G1 X130.053 Y85.815 E.02129
G1 X130.065 Y133.926 E2.08845
G1 X130.028 Y134.422 E.02159
G1 X129.921 Y134.888 E.02074
G1 X129.771 Y135.272 E.01788
G1 X129.551 Y135.678 E.02007
G1 X129.291 Y136.025 E.01884
G1 X128.982 Y136.33 E.01882
G1 X128.638 Y136.578 E.01839
G1 X128.171 Y136.814 E.02274
G1 X127.668 Y136.98 E.02299
G1 X127.244 Y137.048 E.01864
G1 X111.074 Y137.065 E.70193
G1 X110.578 Y137.028 E.02158
G1 X110.112 Y136.921 E.02074
G1 X109.728 Y136.771 E.0179
G1 X109.354 Y136.572 E.01837
G1 X108.988 Y136.303 E.01972
G1 X108.647 Y135.947 E.0214
G1 X108.611 Y135.84 E.00492
G1 X108.67 Y135.743 E.00492
G1 X108.741 Y135.72 E.00324
G1 X109.079 Y135.709 E.01469
G1 X109.464 Y135.634 E.01702
G1 X109.693 Y135.553 E.01056
G1 X109.942 Y135.415 E.01236
G1 X110.07 Y135.413 E.00555
G1 X110.423 Y135.599 E.01732
G1 X110.732 Y135.685 E.01391
G1 X111.028 Y135.72 E.01291
G1 X126.965 Y135.72 E.69184
G1 X127.496 Y135.631 E.02333
G1 X127.714 Y135.544 E.01023
G1 X127.989 Y135.384 E.01378
G1 X128.156 Y135.248 E.00933
G1 X128.316 Y135.074 E.01027
G1 X128.383 Y134.983 E.00493
G1 X128.599 Y134.576 E.01998
G1 X128.685 Y134.268 E.0139
G1 X128.72 Y133.972 E.01291
G1 X128.72 Y86.033 E2.08097
G1 X128.658 Y85.605 E.01877
G1 X128.58 Y85.366 E.01094
G1 X128.425 Y85.074 E.01433
G1 X128.209 Y84.804 E.015
G1 X127.832 Y84.522 E.02043
G1 X127.66 Y84.432 E.00845
G1 X127.355 Y84.334 E.01389
G1 X127.046 Y84.285 E.01357
G1 X111.036 Y84.28 E.69501
G1 X110.435 Y84.396 E.02655
G1 X110.232 Y84.483 E.00961
G1 X110.059 Y84.584 E.00867
G1 X109.923 Y84.584 E.0059
G1 X109.711 Y84.46 E.01067
G1 X109.379 Y84.342 E.01531
G1 X109.045 Y84.285 E.01472
G1 X108.744 Y84.28 E.01303
G1 X108.642 Y84.231 E.00492
G1 X108.614 Y84.121 E.00492
G1 X108.631 Y84.089 E.00159
G1 E-1.75 F6000
;WIPE_START
G1 F1200
G1 X108.988 Y83.697 E-.39721
G1 X109.345 Y83.433 E-.333
G1 X109.368 Y83.421 E-.01978
;WIPE_END
G1 X109.654 Y83.909 F18000
G1 E2.5 F6000
G1 F1200
G1 X109.666 Y83.796 E.00492
G1 X109.721 Y83.746 E.00321
G1 X110.029 Y83.591 E.01496
G1 X110.426 Y83.461 E.01816
G1 X110.823 Y83.398 E.01743
G1 X126.943 Y83.385 E.69976
G1 X127.401 Y83.424 E.01995
G1 X127.713 Y83.495 E.0139
G1 X127.952 Y83.581 E.01103
G1 X128.391 Y83.802 E.02131
G1 X128.742 Y84.06 E.01892
G1 X128.96 Y84.279 E.01341
G1 X129.157 Y84.539 E.01418
G1 X129.395 Y84.995 E.02232
G1 X129.538 Y85.424 E.01962
G1 X129.605 Y85.859 E.0191
G1 X129.617 Y133.904 E2.08557
G1 X129.584 Y134.345 E.01917
G1 X129.487 Y134.764 E.0187
G1 X129.359 Y135.09 E.0152
G1 X129.167 Y135.444 E.01749
G1 X128.945 Y135.736 E.01591
G1 X128.683 Y135.992 E.01589
G1 X128.395 Y136.198 E.01539
G1 X127.989 Y136.402 E.01972
G1 X127.571 Y136.539 E.01908
G1 X127.218 Y136.598 E.01553
G1 X111.095 Y136.617 E.69987
G1 X110.655 Y136.584 E.01915
G1 X110.236 Y136.487 E.0187
G1 X109.923 Y136.365 E.01458
G1 X109.72 Y136.259 E.00994
G1 X109.652 Y136.168 E.00492
G1 X109.677 Y136.058 E.00492
G1 X109.731 Y136.016 E.00297
G1 X109.961 Y135.918 E.01086
G1 X110.071 Y135.92 E.00475
G1 X110.313 Y136.034 E.01163
G1 X110.602 Y136.115 E.01299
G1 X111.036 Y136.168 E.01899
G1 X127.049 Y136.16 E.69511
G1 X127.673 Y136.043 E.02754
G1 X127.946 Y135.927 E.01289
G1 X128.278 Y135.727 E.01684
G1 X128.489 Y135.548 E.01201
G1 X128.741 Y135.251 E.01688
G1 X129.034 Y134.685 E.0277
G1 X129.132 Y134.311 E.01676
G1 X129.168 Y133.965 E.01509
G1 X129.168 Y86.042 E2.08028
G1 X129.103 Y85.55 E.02156
G1 X129.01 Y85.236 E.01419
G1 X128.824 Y84.871 E.01778
G1 X128.564 Y84.53 E.01864
G1 X128.471 Y84.441 E.00559
G1 X128.109 Y84.169 E.01966
G1 X127.873 Y84.038 E.01169
G1 X127.503 Y83.91 E.01704
G1 X127.036 Y83.837 E.02049
G1 X111.048 Y83.832 E.69404
G1 X110.361 Y83.954 E.03026
G1 X110.042 Y84.077 E.01485
G1 X109.944 Y84.076 E.00428
G1 X109.731 Y83.991 E.00994
G1 X109.681 Y83.938 E.00318
G1 E-1.75 F6000
;WIPE_START
G1 F1200
G1 X109.666 Y83.796 E-.10681
G1 X109.721 Y83.746 E-.05544
G1 X110.029 Y83.591 E-.25851
G1 X110.426 Y83.461 E-.31372
G1 X110.447 Y83.458 E-.01552
;WIPE_END
G1 X110.513 Y85.358 F18000
G1 E2.5 F6000
G1 F1200
G1 X110.702 Y85.247 E.00947
G1 X111.01 Y85.177 E.01373
G1 X126.989 Y85.177 E.69364
G1 X127.152 Y85.204 E.00718
G1 X127.326 Y85.262 E.00795
G1 X127.534 Y85.393 E.01066
G1 X127.632 Y85.495 E.00617
G1 X127.772 Y85.742 E.01231
G1 X127.823 Y86.013 E.01194
G1 X127.823 Y133.989 E2.08259
G1 X127.796 Y134.152 E.00718
G1 X127.738 Y134.326 E.00795
G1 X127.607 Y134.534 E.01066
G1 X127.505 Y134.632 E.00617
G1 X127.258 Y134.772 E.01231
G1 X126.987 Y134.823 E.01194
G1 X111.011 Y134.823 E.69352
G1 X110.848 Y134.796 E.00718
G1 X110.674 Y134.738 E.00795
G1 X110.466 Y134.607 E.01066
G1 X110.368 Y134.505 E.00617
G1 X110.228 Y134.258 E.01231
G1 X110.177 Y133.987 E.01194
G1 X110.177 Y86.011 E2.08259
G1 X110.204 Y85.848 E.00718
G1 X110.262 Y85.674 E.00795
G1 X110.393 Y85.466 E.01066
G1 X110.481 Y85.381 E.00533
G1 X110.792 Y85.704 F18000
G1 F1200
G1 X110.816 Y85.681 E.00142
G1 X111 Y85.626 E.00835
G1 X127 Y85.626 E.69454
G1 X127.2 Y85.692 E.00913
G1 X127.319 Y85.816 E.00745
G1 X127.359 Y85.918 E.00476
G1 X127.374 Y86 E.00362
G1 X127.374 Y134 E2.08361
G1 X127.308 Y134.2 E.00913
G1 X127.184 Y134.319 E.00745
G1 X127.082 Y134.359 E.00476
G1 X127 Y134.374 E.00362
G1 X111 Y134.374 E.69454
G1 X110.8 Y134.308 E.00913
G1 X110.681 Y134.184 E.00745
G1 X110.641 Y134.082 E.00476
G1 X110.626 Y134 E.00362
G1 X110.626 Y86 E2.08361
G1 X110.692 Y85.8 E.00913
G1 X110.764 Y85.732 E.0043
G1 E-1.75 F6000
;WIPE_START
G1 F1200
G1 X110.816 Y85.681 E-.05448
G1 X111 Y85.626 E-.14421
G1 X111.735 Y85.626 E-.5513
;WIPE_END
G1 X126.675 Y133.675 F18000
G1 E2.5 F6000
;TYPE:Outer wall
G1 F1200
G1 X111.325 Y133.675 E.66632
G1 X111.325 Y86.325 E2.05539
G1 X126.675 Y86.325 E.66632
G1 X126.675 Y133.615 E2.05279
G1 X126.227 Y133.227 F18000
;TYPE:Inner wall
G1 F1200
G1 X111.773 Y133.227 E.62738
G1 X111.773 Y86.773 E2.01646
G1 X126.227 Y86.773 E.62738
G1 X126.227 Y133.167 E2.01385
G1 E-1.75 F6000
;WIPE_START
G1 F1200
G1 X125.227 Y133.171 E-.75
;WIPE_END
G1 X117.852 Y92.456 F18000
G1 E2.5 F6000
;TYPE:Outer wall
G1 F1200
G1 X117.828 Y92.472 E.00128
G1 X117.638 Y92.638 E.01094
G1 X117.471 Y92.829 E.011
G1 X117.326 Y93.049 E.01144
G1 X117.221 Y93.263 E.01036
G1 X117.14 Y93.502 E.01094
G1 X117.091 Y93.749 E.01094
G1 X117.074 Y94 E.01094
G1 X117.091 Y94.253 E.011
G1 X117.144 Y94.511 E.01144
G1 X117.221 Y94.737 E.01036
G1 X117.332 Y94.963 E.01094
G1 X117.472 Y95.172 E.01094
G1 X117.638 Y95.362 E.01094
G1 X117.828 Y95.528 E.01094
G1 X118.037 Y95.668 E.01094
G1 X118.263 Y95.779 E.01094
G1 X118.502 Y95.86 E.01094
G1 X118.749 Y95.909 E.01094
G1 X119 Y95.926 E.01094
G1 X119.251 Y95.909 E.01094
G1 X119.498 Y95.86 E.01094
G1 X119.737 Y95.779 E.01094
G1 X119.963 Y95.668 E.01094
G1 X120.172 Y95.528 E.01094
G1 X120.352 Y95.371 E.01036
G1 X120.528 Y95.173 E.01151
G1 X120.674 Y94.951 E.01151
G1 X120.779 Y94.737 E.01036
G1 X120.86 Y94.498 E.01094
G1 X120.909 Y94.251 E.01094
G1 X120.926 Y94 E.01094
G1 X120.909 Y93.747 E.011
G1 X120.856 Y93.489 E.01144
G1 X120.779 Y93.263 E.01036
G1 X120.667 Y93.036 E.011
