; HEADER_BLOCK_START
; generated by AnycubicSlicerNext 1.3.5.5 on 2025-08-28 at 00:40:09
; total layer number: 164
; filament_density: 1.24
; filament_diameter: 1.75
; max_z_height: 32.84
; exclude_object: 0
; model_instances: 2
; source_info: {"models":[{"file_source":0,"mo_file_id":-1,"name":"SCHELLE-001.stl_id_0_copy_0"},{"file_source":0,"mo_file_id":-1,"name":"GABELSCHELLE-002.stl_id_1_copy_0"}],"models_from":0,"plate_index":1,"slice_paras_process":1,"software_version":"AnycubicSlicerNext 1.3.5.5 20250625193040"}
; HEADER_BLOCK_END

; THUMBNAIL_BLOCK_START
; THUMBNAIL_BLOCK_END

; external perimeters extrusion width = 0.42mm
; perimeters extrusion width = 0.45mm
; infill extrusion width = 0.45mm
; solid infill extrusion width = 0.42mm
; top infill extrusion width = 0.42mm
; first layer extrusion width = 0.50mm

; external perimeters extrusion width = 0.42mm
; perimeters extrusion width = 0.45mm
; infill extrusion width = 0.45mm
; solid infill extrusion width = 0.42mm
; top infill extrusion width = 0.42mm
; first layer extrusion width = 0.50mm

; EXECUTABLE_BLOCK_START
M201 X2000 Y2000 Z800 E2000 ; sets machine_max_acceleration_x, y, z, e (mm/sec^2)
M203 X300 Y300 Z8 E100 ; sets machine_max_speed_x, y, z, e (mm/sec)
M204 P2000 R2000 T2000 ; sets machine_max_acceleration(mm/sec^2) M204 P[print] R[retract] T[travel]
M205 X10.00 Y10.00 Z2.00 E5.00 ; sets the jerk limits, mm/sec
;TYPE:Custom
G90 ; use absolute coordinates
M83 ; extruder relative mode
M104 S220 ; set extruder temp
M140 S60 ; set bed temp
M190 S60 ; wait for bed temp
M109 S220 ; wait for extruder temp
G28                                        ; move X/Y/Z to min endstops
G1 Z0.28                                   ; lift nozzle a bit 
G92 E0 
G1 Y3 F1800                                    ; zero the extruded length 
G1 X60  E25 F500                       ; Extrude 25mm of filament in a 5cm line. 
G92 E0                                     ; zero the extruded length again 
G1 E-2 F500                                ; Retract a little 
G1 X70 F4000                              ; Quickly wipe away from the filament line
M117
G90
G21
M83 ; use relative distances for extrusion
; filament start gcode
M106 S0
;LAYER_CHANGE
;Z:0.24
;HEIGHT:0.24
; BEFORE_LAYER_CHANGE 0 @ 0.24mm
G92 E0
G1 E-2.5 F6000
; AFTER_LAYER_CHANGE 0 @ 0.24mm
M204 P500
; printing object "SCHELLE-001.stl" id:0 copy 0
G1 X77.625 Y107.287 F18000
G1 Z.24
G1 E2.5 F6000
;TYPE:Brim
;WIDTH:0.5
G1 F1200
G1 X78.344 Y106.924 E.03495
G1 X79.051 Y106.697 E.03225
G1 X79.626 Y106.61 E.02523
G1 X79.626 Y109 E.10374
G1 X79.681 Y109.184 E.00835
G1 X79.8 Y109.308 E.00745
G1 X80 Y109.374 E.00913
G1 X96.228 Y109.374 E.70443
G1 X96.412 Y109.319 E.00835
G1 X96.536 Y109.2 E.00745
G1 X96.602 Y109 E.00913
G1 X96.602 Y106.618 E.1034
G1 X96.862 Y106.637 E.0113
G1 X97.482 Y106.779 E.02763
G1 X98.037 Y106.991 E.0258
G1 X98.602 Y107.29 E.02774
G1 X99.114 Y107.667 E.02759
G1 X99.564 Y108.116 E.02759
G1 X99.941 Y108.625 E.0275
G1 X100.304 Y109.344 E.03495
G1 X100.531 Y110.051 E.03225
G1 X100.626 Y110.683 E.02772
G1 X100.639 Y111.004 E.01398
G1 X100.639 Y140.992 E1.30171
G1 X100.591 Y141.634 E.02796
G1 X100.449 Y142.255 E.02763
G1 X100.237 Y142.81 E.0258
G1 X99.938 Y143.375 E.02774
G1 X99.561 Y143.886 E.02759
G1 X99.112 Y144.336 E.02759
G1 X98.604 Y144.712 E.02745
G1 X97.784 Y145.115 E.03964
G1 X97.178 Y145.303 E.02755
G1 X96.545 Y145.399 E.02777
G1 X96.224 Y145.411 E.01398
G1 X80.008 Y145.411 E.70388
G1 X79.366 Y145.363 E.02796
G1 X78.745 Y145.221 E.02763
G1 X78.19 Y145.009 E.0258
G1 X77.625 Y144.71 E.02774
G1 X77.114 Y144.333 E.02759
G1 X76.664 Y143.884 E.02759
G1 X76.287 Y143.375 E.0275
G1 X75.924 Y142.656 E.03495
G1 X75.697 Y141.949 E.03225
G1 X75.601 Y141.317 E.02772
G1 X75.589 Y140.996 E.01397
G1 X75.589 Y111.008 E1.30171
G1 X75.637 Y110.366 E.02796
G1 X75.779 Y109.745 E.02763
G1 X75.991 Y109.19 E.0258
G1 X76.29 Y108.625 E.02774
G1 X76.667 Y108.114 E.02759
G1 X77.116 Y107.664 E.02759
G1 X77.593 Y107.311 E.02576
G1 X77.86 Y107.674 F18000
G1 F1200
G1 X77.872 Y107.665 E.00064
G1 X78.505 Y107.345 E.0308
G1 X79.002 Y107.184 E.02267
G1 X79.114 Y107.198 E.00492
G1 X79.177 Y107.312 E.00566
G1 X79.177 Y108.99 E.07285
G1 X79.247 Y109.298 E.01373
G1 X79.37 Y109.507 E.01048
G1 X79.466 Y109.607 E.00605
G1 X79.674 Y109.738 E.01066
G1 X79.848 Y109.796 E.00795
G1 X80.011 Y109.823 E.00718
G1 X96.218 Y109.823 E.70353
G1 X96.526 Y109.753 E.01373
G1 X96.735 Y109.63 E.01048
G1 X96.835 Y109.534 E.00605
G1 X96.966 Y109.326 E.01066
G1 X97.024 Y109.152 E.00795
G1 X97.051 Y108.989 E.00718
G1 X97.051 Y107.309 E.07293
G1 X97.098 Y107.206 E.00492
G1 X97.215 Y107.178 E.00522
G1 X97.342 Y107.207 E.00567
G1 X97.859 Y107.404 E.02401
G1 X98.371 Y107.677 E.02519
G1 X98.828 Y108.015 E.02468
G1 X99.229 Y108.418 E.02468
G1 X99.563 Y108.872 E.02445
G1 X99.891 Y109.524 E.03172
G1 X100.089 Y110.143 E.02822
G1 X100.18 Y110.737 E.02607
G1 X100.19 Y140.97 E1.31235
G1 X100.144 Y141.577 E.02643
G1 X100.021 Y142.115 E.02394
G1 X99.824 Y142.631 E.02401
G1 X99.562 Y143.127 E.02432
G1 X99.226 Y143.585 E.02468
G1 X98.825 Y143.988 E.02468
G1 X98.379 Y144.32 E.02414
G1 X97.608 Y144.701 E.03732
G1 X97.068 Y144.866 E.02453
G1 X96.511 Y144.95 E.02446
G1 X80.03 Y144.962 E.71539
G1 X79.423 Y144.916 E.02643
G1 X78.885 Y144.793 E.02394
G1 X78.369 Y144.596 E.02401
G1 X77.873 Y144.334 E.02432
G1 X77.415 Y143.998 E.02468
G1 X77.012 Y143.597 E.02468
G1 X76.677 Y143.148 E.02434
G1 X76.337 Y142.476 E.0327
G1 X76.138 Y141.857 E.02822
G1 X76.048 Y141.263 E.02607
G1 X76.038 Y111.03 E1.31235
G1 X76.084 Y110.423 E.02643
G1 X76.207 Y109.885 E.02394
G1 X76.404 Y109.369 E.02401
G1 X76.666 Y108.873 E.02432
G1 X77.002 Y108.415 E.02468
G1 X77.418 Y107.998 E.02554
G1 X77.827 Y107.698 E.02207
G1 X78.093 Y108.061 F18000
G1 F1200
G1 X78.117 Y108.043 E.00132
G1 X78.533 Y107.833 E.02025
G1 X78.647 Y107.829 E.00492
G1 X78.729 Y107.953 E.00645
G1 X78.729 Y108.983 E.04469
G1 X78.808 Y109.388 E.01793
G1 X78.866 Y109.534 E.00683
G1 X78.977 Y109.723 E.00952
G1 X79.138 Y109.914 E.01083
G1 X79.168 Y110.023 E.00492
G1 X79.137 Y110.09 E.00322
G1 X79.01 Y110.234 E.00834
G1 X78.833 Y110.543 E.01546
G1 X78.76 Y110.783 E.01088
G1 X78.729 Y111.02 E.01038
G1 X78.729 Y140.977 E1.30041
G1 X78.809 Y141.39 E.01825
G1 X78.865 Y141.531 E.00661
G1 X79.053 Y141.824 E.01511
G1 X79.235 Y141.991 E.0107
G1 X79.543 Y142.167 E.0154
G1 X79.783 Y142.24 E.01088
G1 X80.02 Y142.271 E.01038
G1 X96.205 Y142.271 E.70258
G1 X96.618 Y142.191 E.01825
G1 X96.762 Y142.134 E.00673
G1 X96.951 Y142.023 E.00951
G1 X97.143 Y141.859 E.01096
G1 X97.217 Y141.769 E.00508
G1 X97.395 Y141.457 E.01557
G1 X97.468 Y141.217 E.01088
G1 X97.499 Y140.98 E.01038
G1 X97.499 Y111.023 E1.30041
G1 X97.419 Y110.61 E.01825
G1 X97.362 Y110.466 E.00673
G1 X97.251 Y110.277 E.00952
G1 X97.09 Y110.086 E.01083
G1 X97.059 Y109.977 E.00492
G1 X97.341 Y109.572 E.02141
G1 X97.468 Y109.217 E.01636
G1 X97.499 Y108.98 E.01038
G1 X97.499 Y107.945 E.04495
G1 X97.547 Y107.842 E.00492
G1 X97.697 Y107.826 E.00655
G1 X98.123 Y108.052 E.02093
G1 X98.541 Y108.363 E.02263
G1 X98.894 Y108.719 E.02175
G1 X99.184 Y109.117 E.02139
G1 X99.478 Y109.705 E.02853
G1 X99.648 Y110.236 E.02422
G1 X99.731 Y110.781 E.02395
G1 X99.742 Y140.947 E1.30947
G1 X99.7 Y141.5 E.02403
G1 X99.593 Y141.975 E.02114
G1 X99.417 Y142.438 E.02151
G1 X99.185 Y142.879 E.02164
G1 X98.877 Y143.3 E.02264
G1 X98.523 Y143.655 E.02176
G1 X98.133 Y143.942 E.021
G1 X97.432 Y144.285 E.03391
G1 X96.958 Y144.429 E.02148
G1 X96.467 Y144.502 E.02157
G1 X80.052 Y144.514 E.71252
G1 X79.5 Y144.472 E.02403
G1 X79.025 Y144.365 E.02114
G1 X78.562 Y144.189 E.02151
G1 X78.121 Y143.958 E.02164
G1 X77.7 Y143.649 E.02265
G1 X77.345 Y143.295 E.02176
G1 X77.055 Y142.901 E.02127
G1 X76.75 Y142.295 E.02944
G1 X76.58 Y141.764 E.02418
G1 X76.497 Y141.219 E.02395
G1 X76.486 Y111.052 E1.30947
G1 X76.528 Y110.5 E.02403
G1 X76.635 Y110.025 E.02114
G1 X76.811 Y109.562 E.02151
G1 X77.043 Y109.121 E.02164
G1 X77.351 Y108.7 E.02263
G1 X77.719 Y108.334 E.02257
G1 X78.06 Y108.085 E.01832
G1 X78.16 Y108.61 F18000
G1 F1200
G1 X78.257 Y108.668 E.00492
G1 X78.28 Y108.744 E.00344
G1 X78.28 Y108.97 E.00979
G1 X78.395 Y109.563 E.02622
G1 X78.483 Y109.768 E.0097
G1 X78.584 Y109.94 E.00862
G1 X78.587 Y110.07 E.00567
G1 X78.401 Y110.423 E.01732
G1 X78.315 Y110.732 E.01391
G1 X78.28 Y111.028 E.01291
G1 X78.28 Y140.966 E1.29957
G1 X78.367 Y141.467 E.02207
G1 X78.445 Y141.688 E.01019
G1 X78.673 Y142.061 E.01899
G1 X78.755 Y142.158 E.00549
G1 X79.023 Y142.386 E.01531
G1 X79.309 Y142.55 E.01431
G1 X79.645 Y142.666 E.01541
G1 X80.029 Y142.72 E.01684
G1 X96.192 Y142.72 E.70162
G1 X96.793 Y142.604 E.02655
G1 X96.996 Y142.517 E.00961
G1 X97.168 Y142.416 E.00863
G1 X97.496 Y142.135 E.0188
G1 X97.61 Y141.984 E.00821
G1 X97.778 Y141.691 E.01466
G1 X97.894 Y141.355 E.01541
G1 X97.948 Y140.971 E.01684
G1 X97.948 Y111.036 E1.29945
G1 X97.832 Y110.435 E.02655
G1 X97.745 Y110.232 E.00961
G1 X97.644 Y110.059 E.00867
G1 X97.644 Y109.923 E.0059
G1 X97.768 Y109.711 E.01067
G1 X97.886 Y109.379 E.01531
G1 X97.943 Y109.045 E.01472
G1 X97.948 Y108.746 E.01297
G1 X97.997 Y108.644 E.00492
G1 X98.107 Y108.616 E.00492
G1 X98.175 Y108.651 E.00333
G1 X98.542 Y109 E.02199
G1 X98.805 Y109.361 E.01938
G1 X99.064 Y109.884 E.02537
G1 X99.212 Y110.349 E.02118
G1 X99.283 Y110.825 E.0209
G1 X99.293 Y140.925 E1.30659
G1 X99.256 Y141.423 E.02167
G1 X99.164 Y141.836 E.01836
G1 X99.01 Y142.246 E.019
G1 X98.809 Y142.632 E.01892
G1 X98.528 Y143.014 E.02058
G1 X98.221 Y143.32 E.01879
G1 X97.889 Y143.562 E.01786
G1 X97.257 Y143.87 E.03052
G1 X96.85 Y143.991 E.01842
G1 X96.424 Y144.053 E.01871
G1 X80.064 Y144.065 E.71014
G1 X79.577 Y144.028 E.02122
G1 X79.164 Y143.936 E.01836
G1 X78.754 Y143.783 E.019
G1 X78.368 Y143.581 E.01892
G1 X77.986 Y143.3 E.02058
G1 X77.68 Y142.993 E.0188
G1 X77.433 Y142.655 E.0182
G1 X77.163 Y142.114 E.02622
G1 X77.016 Y141.651 E.02111
G1 X76.945 Y141.175 E.0209
G1 X76.935 Y111.075 E1.3066
G1 X76.972 Y110.577 E.02167
G1 X77.064 Y110.164 E.01836
G1 X77.217 Y109.754 E.019
G1 X77.419 Y109.368 E.01892
G1 X77.701 Y108.985 E.02065
G1 X78.053 Y108.647 E.02115
G1 X78.122 Y108.623 E.00318
G1 E-1.75 F6000
;WIPE_START
G1 F1200
G1 X78.257 Y108.668 E-.10681
G1 X78.28 Y108.744 E-.05945
G1 X78.28 Y108.97 E-.16919
G1 X78.385 Y109.512 E-.41455
;WIPE_END
G1 X77.894 Y109.671 F18000
G1 E2.5 F6000
G1 F1200
G1 X77.939 Y109.681 E.002
G1 X77.981 Y109.734 E.00297
G1 X78.08 Y109.963 E.0108
G1 X78.078 Y110.073 E.00479
G1 X77.966 Y110.313 E.01151
G1 X77.885 Y110.602 E.01299
G1 X77.832 Y111.036 E.01899
G1 X77.832 Y140.955 E1.29875
G1 X77.924 Y141.535 E.02547
G1 X78.018 Y141.826 E.01332
G1 X78.286 Y142.288 E.02315
G1 X78.471 Y142.506 E.01242
G1 X78.809 Y142.78 E.0189
G1 X79.172 Y142.977 E.0179
G1 X79.594 Y143.112 E.01923
G1 X80.038 Y143.168 E.01943
G1 X96.18 Y143.168 E.70073
G1 X96.867 Y143.046 E.03026
G1 X97.168 Y142.931 E.01402
G1 X97.386 Y142.808 E.01084
G1 X97.783 Y142.479 E.0224
G1 X98.003 Y142.2 E.01543
G1 X98.162 Y141.923 E.01386
G1 X98.314 Y141.512 E.01901
G1 X98.396 Y140.961 E.02419
G1 X98.396 Y111.047 E1.2985
G1 X98.274 Y110.361 E.03026
G1 X98.151 Y110.042 E.01485
G1 X98.152 Y109.944 E.00428
G1 X98.237 Y109.73 E.00998
G1 X98.32 Y109.653 E.00492
G1 X98.432 Y109.666 E.00492
G1 X98.483 Y109.721 E.00324
G1 X98.65 Y110.063 E.01654
G1 X98.775 Y110.461 E.01813
G1 X98.834 Y110.869 E.01787
G1 X98.845 Y140.904 E1.30377
G1 X98.812 Y141.348 E.01935
G1 X98.735 Y141.699 E.01558
G1 X98.603 Y142.055 E.01648
G1 X98.432 Y142.385 E.01616
G1 X98.18 Y142.728 E.01847
G1 X97.921 Y142.984 E.01577
G1 X97.646 Y143.181 E.01471
G1 X97.083 Y143.454 E.02717
G1 X96.743 Y143.554 E.01535
G1 X96.381 Y143.605 E.01586
G1 X80.086 Y143.616 E.70735
G1 X79.652 Y143.584 E.0189
G1 X79.301 Y143.507 E.01559
G1 X78.945 Y143.375 E.01648
G1 X78.615 Y143.204 E.01616
G1 X78.272 Y142.952 E.01847
G1 X78.016 Y142.693 E.01578
G1 X77.812 Y142.41 E.01512
G1 X77.577 Y141.935 E.02302
G1 X77.453 Y141.539 E.01803
G1 X77.394 Y141.131 E.01787
G1 X77.383 Y111.096 E1.30377
G1 X77.416 Y110.652 E.01935
G1 X77.493 Y110.301 E.01558
G1 X77.625 Y109.945 E.01648
G1 X77.738 Y109.725 E.01074
G1 X77.828 Y109.656 E.00492
G1 X77.855 Y109.662 E.00118
G1 E-1.75 F6000
;WIPE_START
G1 F1200
G1 X77.939 Y109.681 E-.06452
G1 X77.981 Y109.734 E-.05134
G1 X78.08 Y109.963 E-.18657
G1 X78.078 Y110.073 E-.08273
G1 X77.966 Y110.313 E-.19893
G1 X77.906 Y110.526 E-.16592
;WIPE_END
G1 X79.318 Y110.585 F18000
G1 E2.5 F6000
G1 F1200
G1 X79.393 Y110.466 E.00612
G1 X79.493 Y110.37 E.00605
G1 X79.702 Y110.247 E.01048
G1 X80.01 Y110.177 E.01373
G1 X96.217 Y110.177 E.70353
G1 X96.38 Y110.204 E.00718
G1 X96.554 Y110.262 E.00795
G1 X96.762 Y110.393 E.01066
G1 X96.858 Y110.493 E.00605
G1 X96.98 Y110.702 E.01048
G1 X97.051 Y111.01 E.01373
G1 X97.051 Y140.989 E1.30136
G1 X97.024 Y141.152 E.00718
G1 X96.966 Y141.326 E.00795
G1 X96.835 Y141.534 E.01066
G1 X96.735 Y141.63 E.00605
G1 X96.526 Y141.753 E.01048
G1 X96.218 Y141.823 E.01373
G1 X80.011 Y141.823 E.70353
G1 X79.848 Y141.796 E.00718
G1 X79.674 Y141.738 E.00795
G1 X79.466 Y141.607 E.01066
G1 X79.37 Y141.507 E.00605
G1 X79.247 Y141.298 E.01048
G1 X79.177 Y140.99 E.01373
G1 X79.177 Y111.011 E1.30136
G1 X79.204 Y110.848 E.00718
G1 X79.262 Y110.674 E.00795
G1 X79.296 Y110.619 E.00281
G1 X79.692 Y110.8 F18000
G1 F1200
G1 X79.816 Y110.681 E.00745
G1 X80 Y110.626 E.00835
G1 X96.228 Y110.626 E.70443
G1 X96.427 Y110.692 E.00913
G1 X96.546 Y110.816 E.00745
G1 X96.602 Y111 E.00835
G1 X96.602 Y141 E1.30226
G1 X96.536 Y141.2 E.00913
G1 X96.412 Y141.319 E.00745
G1 X96.228 Y141.374 E.00835
G1 X80 Y141.374 E.70443
G1 X79.8 Y141.308 E.00913
G1 X79.681 Y141.184 E.00745
G1 X79.626 Y141 E.00835
G1 X79.626 Y111 E1.30226
G1 X79.68 Y110.838 E.00739
G1 E-1.75 F6000
;WIPE_START
G1 F1200
G1 X79.816 Y110.681 E-.15593
G1 X80 Y110.626 E-.14421
G1 X80.6 Y110.626 E-.44986
;WIPE_END
G1 X119.361 Y111.008 F18000
G1 E2.5 F6000
G1 F1200
G1 X119.409 Y110.366 E.02796
G1 X119.551 Y109.745 E.02763
G1 X119.763 Y109.19 E.0258
G1 X120.062 Y108.625 E.02774
G1 X120.439 Y108.114 E.02759
G1 X120.888 Y107.664 E.02759
G1 X121.397 Y107.287 E.0275
G1 X122.116 Y106.924 E.03495
G1 X122.823 Y106.697 E.03225
G1 X123.398 Y106.61 E.02523
G1 X123.398 Y109 E.10374
G1 X123.454 Y109.184 E.00835
G1 X123.573 Y109.308 E.00745
G1 X123.772 Y109.374 E.00913
G1 X140 Y109.374 E.70443
G1 X140.184 Y109.319 E.00835
G1 X140.308 Y109.2 E.00745
G1 X140.374 Y109 E.00913
G1 X140.374 Y106.618 E.1034
G1 X140.634 Y106.637 E.0113
G1 X141.255 Y106.779 E.02763
G1 X141.81 Y106.991 E.0258
G1 X142.375 Y107.29 E.02774
G1 X142.886 Y107.667 E.02759
G1 X143.336 Y108.116 E.02759
G1 X143.713 Y108.625 E.0275
G1 X144.076 Y109.344 E.03495
G1 X144.303 Y110.051 E.03225
G1 X144.399 Y110.683 E.02772
G1 X144.411 Y111.004 E.01398
G1 X144.411 Y140.992 E1.30171
G1 X144.363 Y141.634 E.02796
G1 X144.221 Y142.255 E.02763
G1 X144.009 Y142.81 E.0258
G1 X143.71 Y143.375 E.02774
G1 X143.333 Y143.886 E.02759
G1 X142.884 Y144.336 E.02759
G1 X142.376 Y144.712 E.02745
G1 X141.557 Y145.115 E.03964
G1 X140.95 Y145.303 E.02755
G1 X140.317 Y145.399 E.02777
G1 X139.996 Y145.411 E.01398
G1 X123.781 Y145.411 E.70388
G1 X123.138 Y145.363 E.02796
G1 X122.518 Y145.221 E.02763
G1 X121.963 Y145.009 E.0258
G1 X121.398 Y144.71 E.02774
G1 X120.886 Y144.333 E.02759
G1 X120.436 Y143.884 E.02759
G1 X120.059 Y143.375 E.0275
G1 X119.696 Y142.656 E.03495
G1 X119.469 Y141.949 E.03225
G1 X119.374 Y141.317 E.02772
G1 X119.361 Y140.996 E.01397
G1 X119.361 Y111.048 E1.29997
G1 X119.81 Y111.048 F18000
G1 F1200
