; HEADER_BLOCK_START
; generated by AnycubicSlicerNext 1.3.2 on 2025-02-14 at 20:49:31
; total layer number: 80
; filament_density: 1.24
; filament_diameter: 1.75
; max_z_height: 16.04
; exclude_object: 0
; model_instances: 1
; HEADER_BLOCK_END

; THUMBNAIL_BLOCK_START

;
; THUMBNAIL_BLOCK_END

; external perimeters extrusion width = 0.42mm
; perimeters extrusion width = 0.45mm
; infill extrusion width = 0.45mm
; solid infill extrusion width = 0.42mm
; top infill extrusion width = 0.42mm
; first layer extrusion width = 0.50mm

; EXECUTABLE_BLOCK_START
M201 X2000 Y2000 Z800 E2000
M203 X300 Y300 Z8 E100
M204 P2000 R2000 T2000
M205 X10.00 Y10.00 Z2.00 E5.00 ; sets the jerk limits, mm/sec
;TYPE:Custom
G90 ; use absolute coordinates
M83 ; extruder relative mode
M104 S220 ; set extruder temp
M140 S60 ; set bed temp
M190 S60 ; wait for bed temp
M109 S220 ; wait for extruder temp
G28                                        ; move X/Y/Z to min endstops
G1 Z0.28                                   ; lift nozzle a bit 
G92 E0 
G1 Y3 F1800                                    ; zero the extruded length 
G1 X60  E25 F500                       ; Extrude 25mm of filament in a 5cm line. 
G92 E0                                     ; zero the extruded length again 
G1 E-2 F500                                ; Retract a little 
G1 X70 F4000                              ; Quickly wipe away from the filament line
M117
G90
G21
M82 ; use absolute distances for extrusion
G92 E0
; filament start gcode
M106 S0
;LAYER_CHANGE
;Z:0.24
;HEIGHT:0.24
; BEFORE_LAYER_CHANGE 0 @ 0.24mm
G1 E-2.5 F6000
G92 E0
; AFTER_LAYER_CHANGE 0 @ 0.24mm
;_SET_FAN_SPEED_CHANGING_LAYER
M204 P500
; printing object "Basislager.stl" id:2166418188800 copy 0
M204 T500
G1 X80.657 Y57.954 F18000
G1 Z.24
G1 E2.5 F6000
;TYPE:Brim
;WIDTH:0.5
G1 F3000
G1 X80.903 Y57.613 E2.51825
G1 X81.887 Y56.361 E2.58738
G1 X82.926 Y55.154 E2.65651
G1 X84.017 Y53.993 E2.72564
G1 X85.164 Y52.876 E2.79516
G1 X86.431 Y51.747 E2.86884
G1 X87.667 Y50.743 E2.93797
G1 X88.946 Y49.794 E3.00709
G1 X90.265 Y48.902 E3.07623
G1 X91.624 Y48.067 E3.14545
G1 X93.023 Y47.29 E3.21488
G1 X94.453 Y46.576 E3.28431
G1 X95.998 Y45.889 E3.35769
G1 X97.481 Y45.309 E3.42681
G1 X98.988 Y44.795 E3.49594
G1 X100.516 Y44.346 E3.56506
G1 X102.062 Y43.965 E3.63419
G1 X103.633 Y43.651 E3.70372
G1 X105.214 Y43.406 E3.77316
G1 X106.796 Y43.231 E3.84228
G1 X108.483 Y43.121 E3.91565
G1 X110.081 Y43.09 E3.98502
G1 X111.677 Y43.128 E4.0543
G1 X113.272 Y43.237 E4.12374
G1 X114.855 Y43.415 E4.19287
G1 X116.428 Y43.662 E4.262
G1 X117.989 Y43.977 E4.33113
G1 X119.535 Y44.36 E4.40025
G1 X121.062 Y44.811 E4.46938
G1 X122.66 Y45.362 E4.54275
G1 X124.141 Y45.948 E4.61188
G1 X125.595 Y46.598 E4.681
G1 X127.018 Y47.312 E4.75013
G1 X128.417 Y48.091 E4.81966
G1 X129.779 Y48.931 E4.8891
G1 X131.097 Y49.825 E4.95822
G1 X132.375 Y50.775 E5.02735
G1 X133.609 Y51.781 E5.09648
G1 X134.799 Y52.84 E5.16561
G1 X135.941 Y53.95 E5.23474
G1 X137.033 Y55.109 E5.30388
G1 X138.074 Y56.314 E5.373
G1 X139.061 Y57.564 E5.44214
G1 X139.993 Y58.857 E5.51131
G1 X140.493 Y59.603 E5.55031
G1 X141.389 Y61.049 E5.62414
G1 X142.166 Y62.439 E5.69326
G1 X142.881 Y63.862 E5.76239
G1 X143.533 Y65.314 E5.83151
G1 X144.124 Y66.801 E5.90094
G1 X144.65 Y68.314 E5.97047
G1 X145.106 Y69.84 E6.0396
G1 X145.494 Y71.384 E6.10873
G1 X145.816 Y72.945 E6.17791
G1 X145.963 Y73.811 E6.21604
G1 X146.138 Y75.057 E6.27068
G1 X146.279 Y76.409 E6.32965
G1 X146.364 Y77.664 E6.38426
G1 X146.406 Y78.943 E6.4398
G1 X146.404 Y80.196 E6.49422
G1 X146.358 Y81.453 E6.54883
G1 X146.26 Y82.808 E6.60779
G1 X146.125 Y84.052 E6.6621
G1 X145.946 Y85.298 E6.71676
G1 X145.817 Y86.045 E6.74963
G1 X145.571 Y87.273 E6.804
G1 X145.283 Y88.49 E6.85831
G1 X144.924 Y89.798 E6.91717
G1 X144.549 Y90.994 E6.97158
G1 X144.131 Y92.181 E7.0262
G1 X143.675 Y93.346 E7.08053
G1 X143.167 Y94.522 E7.13614
G1 X142.631 Y95.653 E7.19046
G1 X142.054 Y96.771 E7.24508
G1 X141.388 Y97.953 E7.30396
G1 X140.792 Y98.932 E7.35372
G1 X140.046 Y100.067 E7.41268
G1 X139.317 Y101.093 E7.46729
G1 X138.491 Y102.171 E7.52628
G1 X138.009 Y102.765 E7.55946
G1 X137.121 Y103.794 E7.61846
G1 X136.27 Y104.711 E7.67277
G1 X135.383 Y105.604 E7.72739
G1 X134.471 Y106.461 E7.78171
G1 X133.507 Y107.305 E7.83734
G1 X132.493 Y108.132 E7.89414
G1 X132.411 Y108.306 E7.90249
G1 X132.411 Y124.703 E8.61427
G1 X132.502 Y124.884 E8.62305
G1 X132.886 Y125.167 E8.64378
G1 X133.336 Y125.616 E8.67138
G1 X133.713 Y126.125 E8.69887
G1 X134.076 Y126.844 E8.73382
G1 X134.303 Y127.551 E8.76607
G1 X134.399 Y128.183 E8.79379
G1 X134.411 Y128.504 E8.80777
G1 X134.411 Y172.492 E10.71719
G1 X134.363 Y173.134 E10.74515
G1 X134.221 Y173.756 E10.77284
G1 X134.056 Y174.202 E10.79349
G1 X133.71 Y174.876 E10.82637
G1 X133.333 Y175.386 E10.85391
G1 X132.884 Y175.836 E10.8815
G1 X132.375 Y176.213 E10.909
G1 X131.656 Y176.576 E10.94395
G1 X130.949 Y176.803 E10.97619
G1 X130.317 Y176.899 E11.00392
G1 X90.008 Y176.911 E12.75368
G1 X89.366 Y176.863 E12.78163
G1 X88.744 Y176.721 E12.80932
G1 X88.298 Y176.556 E12.82997
G1 X87.624 Y176.21 E12.86285
G1 X87.114 Y175.833 E12.89039
G1 X86.664 Y175.384 E12.91798
G1 X86.288 Y174.876 E12.94543
G1 X85.885 Y174.057 E12.98507
G1 X85.697 Y173.45 E13.01262
G1 X85.601 Y172.817 E13.04039
G1 X85.589 Y172.496 E13.05437
G1 X85.589 Y128.508 E14.96379
G1 X85.637 Y127.866 E14.99175
G1 X85.779 Y127.245 E15.01938
G1 X85.991 Y126.69 E15.04518
G1 X86.29 Y126.125 E15.07292
G1 X86.667 Y125.614 E15.10051
G1 X87.116 Y125.164 E15.12811
G1 X87.498 Y124.881 E15.14876
G1 X87.589 Y124.701 E15.15752
G1 X87.589 Y108.305 E15.86921
G1 X87.505 Y108.131 E15.87763
G1 X86.894 Y107.64 E15.91167
G1 X85.935 Y106.824 E15.96631
G1 X84.989 Y105.96 E16.02194
G1 X84.035 Y105.025 E16.0799
G1 X83.153 Y104.096 E16.13552
G1 X82.324 Y103.159 E16.18984
G1 X81.527 Y102.194 E16.24416
G1 X80.76 Y101.197 E16.29877
G1 X79.972 Y100.093 E16.35764
G1 X79.281 Y99.047 E16.41208
G1 X78.877 Y98.397 E16.44526
G1 X78.246 Y97.316 E16.49962
G1 X77.64 Y96.189 E16.55515
G1 X77.084 Y95.066 E16.60956
G1 X76.566 Y93.919 E16.66419
G1 X76.09 Y92.762 E16.7185
G1 X75.619 Y91.487 E16.77749
G1 X75.377 Y90.769 E16.81037
G1 X75.008 Y89.566 E16.86502
G1 X74.683 Y88.357 E16.91935
G1 X74.4 Y87.138 E16.97367
G1 X74.138 Y85.798 E17.03292
G1 X73.943 Y84.562 E17.08724
G1 X73.787 Y83.291 E17.14286
G1 X73.679 Y82.044 E17.19718
G1 X73.613 Y80.794 E17.25149
G1 X73.589 Y79.536 E17.30615
G1 X73.597 Y78.778 E17.33903
G1 X73.643 Y77.534 E17.39309
G1 X73.732 Y76.279 E17.4477
G1 X73.864 Y75.034 E17.50203
G1 X74.044 Y73.766 E17.55762
G1 X74.347 Y72.11 E17.63071
G1 X74.705 Y70.558 E17.69982
G1 X75.129 Y69.024 E17.76896
G1 X75.621 Y67.509 E17.83809
G1 X76.181 Y66.009 E17.9076
G1 X76.807 Y64.536 E17.97704
G1 X77.493 Y63.099 E18.04617
G1 X78.289 Y61.608 E18.11955
G1 X79.102 Y60.239 E18.18866
G1 X79.973 Y58.906 E18.2578
G1 X80.634 Y57.987 E18.30694
G1 X80.998 Y58.248 F18000
G1 F3000
G1 X81.263 Y57.88 E18.32663
G1 X82.236 Y56.644 E18.3949
G1 X83.262 Y55.452 E18.46318
G1 X84.339 Y54.306 E18.53146
G1 X85.472 Y53.202 E18.60011
G1 X86.72 Y52.091 E18.67266
G1 X87.945 Y51.095 E18.74117
G1 X89.208 Y50.158 E18.80944
G1 X90.511 Y49.277 E18.87773
G1 X91.853 Y48.453 E18.9461
G1 X93.234 Y47.686 E19.01468
G1 X94.648 Y46.98 E19.08324
G1 X96.168 Y46.305 E19.15547
G1 X97.638 Y45.73 E19.22399
G1 X99.127 Y45.221 E19.29227
G1 X100.636 Y44.779 E19.36054
G1 X102.163 Y44.403 E19.42881
G1 X103.714 Y44.092 E19.49749
G1 X105.276 Y43.85 E19.56607
G1 X106.839 Y43.678 E19.63433
G1 X108.499 Y43.57 E19.70656
G1 X110.083 Y43.538 E19.77533
G1 X111.659 Y43.577 E19.84375
G1 X113.229 Y43.684 E19.91208
G1 X114.798 Y43.86 E19.98062
G1 X116.352 Y44.104 E20.04889
G1 X117.894 Y44.415 E20.11717
G1 X119.42 Y44.794 E20.18544
G1 X120.929 Y45.239 E20.2537
G1 X122.502 Y45.781 E20.32593
G1 X123.964 Y46.36 E20.3942
G1 X125.405 Y47.005 E20.46273
G1 X126.811 Y47.71 E20.531
G1 X128.188 Y48.477 E20.59942
G1 X129.533 Y49.306 E20.66801
G1 X130.835 Y50.189 E20.73628
G1 X132.097 Y51.128 E20.80456
G1 X133.316 Y52.121 E20.87283
G1 X134.491 Y53.167 E20.94111
G1 X135.619 Y54.263 E21.00939
G1 X136.698 Y55.407 E21.07767
G1 X137.726 Y56.598 E21.14594
G1 X138.701 Y57.832 E21.21423
G1 X139.623 Y59.111 E21.28267
G1 X140.117 Y59.848 E21.32119
G1 X141.004 Y61.279 E21.39426
G1 X141.768 Y62.647 E21.46226
G1 X142.477 Y64.057 E21.53079
G1 X143.121 Y65.492 E21.59906
G1 X143.704 Y66.96 E21.66763
G1 X144.223 Y68.455 E21.73631
G1 X144.672 Y69.956 E21.80434
G1 X145.058 Y71.487 E21.87287
G1 X145.375 Y73.03 E21.94126
G1 X145.52 Y73.882 E21.97876
G1 X145.693 Y75.114 E22.03278
G1 X145.832 Y76.445 E22.09084
G1 X145.916 Y77.689 E22.14497
G1 X145.958 Y78.947 E22.19963
G1 X145.955 Y80.19 E22.25357
G1 X145.91 Y81.431 E22.30751
G1 X145.813 Y82.765 E22.36555
G1 X145.679 Y83.998 E22.41939
G1 X145.503 Y85.227 E22.47326
G1 X145.376 Y85.964 E22.50576
G1 X145.132 Y87.179 E22.55954
G1 X144.848 Y88.382 E22.61317
G1 X144.494 Y89.669 E22.67113
G1 X144.122 Y90.854 E22.72505
G1 X143.71 Y92.026 E22.779
G1 X143.259 Y93.178 E22.83266
G1 X142.757 Y94.34 E22.8876
G1 X142.228 Y95.456 E22.94124
G1 X141.658 Y96.56 E22.99517
G1 X141.002 Y97.724 E23.05317
G1 X140.411 Y98.694 E23.10246
G1 X139.677 Y99.812 E23.16052
G1 X138.957 Y100.824 E23.21444
G1 X138.14 Y101.892 E23.27282
G1 X137.664 Y102.478 E23.3056
G1 X136.788 Y103.493 E23.36378
G1 X135.948 Y104.399 E23.4174
G1 X135.072 Y105.281 E23.47135
G1 X134.168 Y106.13 E23.52521
G1 X133.216 Y106.964 E23.58015
G1 X132.222 Y107.775 E23.63585
G1 X132.082 Y107.953 E23.64568
G1 X132.012 Y108.1 E23.65273
G1 X131.962 Y108.321 E23.66256
G1 X131.962 Y124.687 E24.37301
G1 X132.018 Y124.919 E24.38337
G1 X132.094 Y125.072 E24.39078
G1 X132.249 Y125.254 E24.40114
G1 X132.6 Y125.515 E24.42015
G1 X132.988 Y125.903 E24.44396
G1 X133.335 Y126.372 E24.46928
G1 X133.655 Y127.005 E24.50008
G1 X133.862 Y127.643 E24.52921
G1 X133.95 Y128.217 E24.55441
G1 X133.962 Y128.51 E24.56714
G1 X133.962 Y172.47 E26.47536
G1 X133.916 Y173.077 E26.50179
G1 X133.792 Y173.619 E26.52592
G1 X133.647 Y174.013 E26.54417
G1 X133.332 Y174.629 E26.57419
G1 X132.998 Y175.085 E26.59873
G1 X132.597 Y175.488 E26.6234
G1 X132.128 Y175.835 E26.64872
G1 X131.495 Y176.155 E26.67952
G1 X130.857 Y176.362 E26.70866
G1 X130.274 Y176.45 E26.73425
G1 X90.03 Y176.462 E28.48116
G1 X89.423 Y176.416 E28.50758
G1 X88.881 Y176.292 E28.53171
G1 X88.487 Y176.147 E28.54996
G1 X87.871 Y175.832 E28.57998
G1 X87.415 Y175.498 E28.60452
G1 X87.012 Y175.097 E28.6292
G1 X86.667 Y174.631 E28.65438
G1 X86.299 Y173.88 E28.69066
G1 X86.134 Y173.34 E28.71519
G1 X86.05 Y172.783 E28.73964
G1 X86.038 Y172.49 E28.75237
G1 X86.038 Y128.53 E30.66059
G1 X86.084 Y127.923 E30.68702
G1 X86.207 Y127.385 E30.71096
G1 X86.404 Y126.869 E30.73497
G1 X86.666 Y126.373 E30.75929
G1 X87.002 Y125.915 E30.78396
G1 X87.403 Y125.512 E30.80864
G1 X87.752 Y125.251 E30.82758
G1 X87.906 Y125.069 E30.83792
G1 X87.983 Y124.917 E30.84532
G1 X88.038 Y124.685 E30.85566
G1 X88.038 Y108.321 E31.56601
G1 X87.987 Y108.098 E31.57592
G1 X87.916 Y107.95 E31.58303
G1 X87.774 Y107.771 E31.59294
G1 X87.178 Y107.293 E31.62612
G1 X86.233 Y106.489 E31.67997
G1 X85.299 Y105.636 E31.7349
G1 X84.357 Y104.713 E31.79217
G1 X83.485 Y103.795 E31.8471
G1 X82.663 Y102.866 E31.90095
G1 X81.879 Y101.916 E31.9544
G1 X81.119 Y100.928 E32.00853
G1 X80.344 Y99.841 E32.06649
G1 X79.66 Y98.806 E32.12034
G1 X79.261 Y98.164 E32.15314
G1 X78.636 Y97.094 E32.20691
G1 X78.039 Y95.986 E32.26156
G1 X77.491 Y94.876 E32.3153
G1 X76.979 Y93.743 E32.36926
G1 X76.509 Y92.601 E32.42288
G1 X76.043 Y91.339 E32.48126
G1 X75.804 Y90.63 E32.51375
G1 X75.44 Y89.444 E32.56762
G1 X75.118 Y88.246 E32.62147
G1 X74.838 Y87.042 E32.67511
G1 X74.581 Y85.723 E32.73345
G1 X74.387 Y84.498 E32.7873
G1 X74.234 Y83.246 E32.84203
G1 X74.126 Y82.015 E32.89568
G1 X74.061 Y80.781 E32.94932
G1 X74.038 Y79.535 E33.00339
G1 X74.045 Y78.787 E33.0359
G1 X74.091 Y77.556 E33.08938
G1 X74.179 Y76.316 E33.14332
G1 X74.31 Y75.087 E33.19697
G1 X74.486 Y73.841 E33.25161
G1 X74.786 Y72.204 E33.32384
G1 X75.139 Y70.671 E33.3921
G1 X75.56 Y69.15 E33.46064
G1 X76.045 Y67.654 E33.52892
G1 X76.599 Y66.172 E33.59758
G1 X77.217 Y64.718 E33.66616
G1 X77.894 Y63.299 E33.73442
G1 X78.678 Y61.831 E33.80666
G1 X79.484 Y60.473 E33.87517
G1 X80.345 Y59.157 E33.94346
G1 X80.975 Y58.281 E33.9903
G1 X81.339 Y58.543 F18000
G1 F3000
G1 X81.623 Y58.147 E34.01144
G1 X82.584 Y56.927 E34.07886
G1 X83.597 Y55.75 E34.14628
G1 X84.661 Y54.618 E34.21371
G1 X85.78 Y53.528 E34.2815
G1 X87.008 Y52.434 E34.3529
G1 X88.218 Y51.452 E34.42055
G1 X89.465 Y50.526 E34.48797
G1 X90.757 Y49.652 E34.55566
G1 X92.082 Y48.839 E34.62317
G1 X93.446 Y48.081 E34.6909
G1 X94.842 Y47.385 E34.7586
G1 X96.338 Y46.72 E34.82969
G1 X97.795 Y46.15 E34.8976
G1 X99.26 Y45.65 E34.96477
G1 X100.756 Y45.211 E35.03244
G1 X102.264 Y44.84 E35.09987
G1 X103.796 Y44.533 E35.16769
G1 X105.332 Y44.295 E35.23516
G1 X106.881 Y44.124 E35.30281
G1 X108.515 Y44.018 E35.3739
G1 X110.085 Y43.987 E35.44206
G1 X111.641 Y44.025 E35.50963
G1 X113.186 Y44.13 E35.57685
G1 X114.741 Y44.305 E35.64479
G1 X116.276 Y44.546 E35.71221
G1 X117.798 Y44.854 E35.77964
G1 X119.306 Y45.228 E35.84706
G1 X120.795 Y45.667 E35.91446
G1 X122.343 Y46.201 E35.98555
G1 X123.792 Y46.775 E36.05321
G1 X125.215 Y47.412 E36.12089
G1 X126.604 Y48.108 E36.18831
G1 X127.958 Y48.862 E36.25561
G1 X129.287 Y49.681 E36.32335
G1 X130.572 Y50.553 E36.39077
G1 X131.819 Y51.48 E36.45819
G1 X133.023 Y52.461 E36.52562
G1 X134.183 Y53.493 E36.59305
G1 X135.297 Y54.576 E36.66047
G1 X136.363 Y55.706 E36.7279
G1 X137.378 Y56.881 E36.79532
G1 X138.341 Y58.1 E36.86275
G1 X139.254 Y59.365 E36.93046
G1 X139.742 Y60.093 E36.9685
G1 X140.619 Y61.509 E37.04081
G1 X141.373 Y62.859 E37.10794
G1 X142.073 Y64.252 E37.17562
G1 X142.709 Y65.669 E37.24304
G1 X143.285 Y67.119 E37.31075
G1 X143.796 Y68.59 E37.37832
G1 X144.239 Y70.072 E37.4455
G1 X144.62 Y71.584 E37.51318
G1 X144.935 Y73.115 E37.58104
G1 X145.077 Y73.953 E37.61791
G1 X145.248 Y75.171 E37.67132
G1 X145.385 Y76.481 E37.72846
G1 X145.468 Y77.714 E37.78211
G1 X145.509 Y78.952 E37.83589
G1 X145.507 Y80.184 E37.88936
G1 X145.462 Y81.41 E37.94261
G1 X145.367 Y82.722 E37.99975
G1 X145.234 Y83.945 E38.05311
G1 X145.06 Y85.155 E38.10619
G1 X144.935 Y85.884 E38.13831
G1 X144.694 Y87.086 E38.19151
G1 X144.413 Y88.273 E38.24446
G1 X144.065 Y89.54 E38.30151
G1 X143.696 Y90.715 E38.35496
G1 X143.288 Y91.872 E38.40823
G1 X142.844 Y93.009 E38.46122
G1 X142.35 Y94.152 E38.51528
G1 X141.825 Y95.259 E38.56845
G1 X141.262 Y96.349 E38.6217
G1 X140.616 Y97.495 E38.67881
G1 X140.031 Y98.456 E38.72763
G1 X139.308 Y99.556 E38.78481
G1 X138.598 Y100.556 E38.83802
G1 X137.789 Y101.613 E38.89578
G1 X137.318 Y102.192 E38.92817
G1 X136.455 Y103.192 E38.98553
G1 X135.623 Y104.09 E39.03867
G1 X134.761 Y104.957 E39.09174
G1 X133.868 Y105.796 E39.14493
G1 X132.928 Y106.62 E39.19918
G1 X131.864 Y107.504 E39.25924
G1 X131.736 Y107.667 E39.26824
G1 X131.611 Y107.899 E39.27969
G1 X131.526 Y108.217 E39.29398
G1 X131.514 Y124.674 E40.00835
G1 X131.58 Y125.014 E40.02337
G1 X131.693 Y125.27 E40.03551
G1 X131.755 Y125.365 E40.04046
G1 X131.991 Y125.622 E40.05559
G1 X132.314 Y125.863 E40.07306
G1 X132.641 Y126.189 E40.09311
G1 X132.957 Y126.618 E40.11624
G1 X133.234 Y127.167 E40.14294
G1 X133.421 Y127.737 E40.16899
G1 X133.502 Y128.253 E40.19167
G1 X133.514 Y128.517 E40.20311
G1 X133.514 Y172.447 E42.11009
G1 X133.469 Y173.019 E42.13498
G1 X133.363 Y173.483 E42.15562
G1 X133.238 Y173.826 E42.17145
G1 X132.954 Y174.383 E42.19863
G1 X132.662 Y174.785 E42.22018
