; HEADER_BLOCK_START
; generated by AnycubicSlicerNext 1.3.3.1 on 2025-03-21 at 01:04:53
; total layer number: 70
; filament_density: 1.24
; filament_diameter: 1.75
; max_z_height: 14.04
; exclude_object: 0
; model_instances: 4
; HEADER_BLOCK_END

; THUMBNAIL_BLOCK_START
; THUMBNAIL_BLOCK_END

; external perimeters extrusion width = 0.42mm
; perimeters extrusion width = 0.45mm
; infill extrusion width = 0.45mm
; solid infill extrusion width = 0.42mm
; top infill extrusion width = 0.42mm
; support material extrusion width = 0.40mm
; first layer extrusion width = 0.50mm

; external perimeters extrusion width = 0.42mm
; perimeters extrusion width = 0.45mm
; infill extrusion width = 0.45mm
; solid infill extrusion width = 0.42mm
; top infill extrusion width = 0.42mm
; support material extrusion width = 0.40mm
; first layer extrusion width = 0.50mm

; external perimeters extrusion width = 0.42mm
; perimeters extrusion width = 0.45mm
; infill extrusion width = 0.45mm
; solid infill extrusion width = 0.42mm
; top infill extrusion width = 0.42mm
; support material extrusion width = 0.40mm
; first layer extrusion width = 0.50mm

; external perimeters extrusion width = 0.42mm
; perimeters extrusion width = 0.45mm
; infill extrusion width = 0.45mm
; solid infill extrusion width = 0.42mm
; top infill extrusion width = 0.42mm
; support material extrusion width = 0.40mm
; first layer extrusion width = 0.50mm

; EXECUTABLE_BLOCK_START
M201 X2000 Y2000 Z800 E2000
M203 X300 Y300 Z8 E100
M204 P2000 R2000 T2000
M205 X10.00 Y10.00 Z2.00 E5.00 ; sets the jerk limits, mm/sec
;TYPE:Custom
G90 ; use absolute coordinates
M83 ; extruder relative mode
M104 S220 ; set extruder temp
M140 S60 ; set bed temp
M190 S60 ; wait for bed temp
M109 S220 ; wait for extruder temp
G28                                        ; move X/Y/Z to min endstops
G1 Z0.28                                   ; lift nozzle a bit 
G92 E0 
G1 Y3 F1800                                    ; zero the extruded length 
G1 X60  E25 F500                       ; Extrude 25mm of filament in a 5cm line. 
G92 E0                                     ; zero the extruded length again 
G1 E-2 F500                                ; Retract a little 
G1 X70 F4000                              ; Quickly wipe away from the filament line
M117
G90
G21
M83 ; use relative distances for extrusion
; filament start gcode
M106 S0
;LAYER_CHANGE
;Z:0.24
;HEIGHT:0.24
; BEFORE_LAYER_CHANGE 0 @ 0.24mm
G92 E0
G1 E-2.5 F6000
; AFTER_LAYER_CHANGE 0 @ 0.24mm
M204 P500
; printing object "Cyclo6ReceiverBase.stl" id:2082253111040 copy 0
M204 T500
G1 X45.411 Y141.165 F18000
G1 Z.24
G1 E2.5 F6000
;TYPE:Support
;WIDTH:0.5
;MM3_PER_MM:0.107639
G1 F1500
G3 X45.344 Y141.161 I-.177 J2.493 E.67886
G1 X47.211 Y144.714 F18000
G1 F1500
G2 X47.145 Y142.94 I-2.987 J-.777 E.07816
G2 X46.713 Y142.23 I-2.184 J.842 E.03627
G1 X46.713 Y145.075 E.12346
G3 X46.214 Y145.472 I-1.759 J-1.694 E.02775
G1 X46.214 Y141.835 E.15787
G2 X45.716 Y141.63 I-1.041 J1.82 E.02346
G1 X45.716 Y145.677 E.17567
G3 X45.218 Y145.748 I-.624 J-2.603 E.02188
G1 X45.218 Y141.558 E.18185
G2 X44.72 Y141.608 I.032 J2.826 E.02177
G1 X44.72 Y145.698 E.17753
G3 X44.221 Y145.519 I.464 J-2.074 E.02305
G1 X44.221 Y141.788 E.16196
G2 X43.723 Y142.141 I.978 J1.907 E.02661
G1 X43.723 Y145.164 E.1312
G3 X43.225 Y144.421 I1.598 J-1.61 E.0391
G1 X43.225 Y142.44 E.08596
G1 E-1.75 F6000
;WIPE_START
G1 F1500
G1 X43.225 Y143.44 E-.75
;WIPE_END
G1 X50.61 Y162.292 F18000
G1 E2.5 F6000
G1 F1500
G3 X50.543 Y162.292 I-.04 J2.499 E.67886
G1 X52.194 Y166.352 F18000
G1 F1500
G1 X52.194 Y163.543 E.12194
G2 X51.696 Y163.063 I-1.886 J1.457 E.03016
G1 X51.696 Y166.518 E.14999
G3 X51.198 Y166.77 I-1.235 J-1.826 E.0243
G1 X51.198 Y162.811 E.17184
G2 X50.699 Y162.703 I-.693 J2.002 E.02218
G1 X50.699 Y166.876 E.18112
G3 X50.201 Y166.862 I-.191 J-2.107 E.02169
G1 X50.201 Y162.718 E.1799
G2 X49.703 Y162.858 I.323 J2.112 E.02252
G1 X49.703 Y166.723 E.16778
G3 X49.204 Y166.428 I1.063 J-2.368 E.02518
G1 X49.204 Y163.152 E.1422
G2 X48.706 Y163.727 I1.32 J1.648 E.03319
G1 X48.706 Y166.21 E.10779
G1 E-1.75 F6000
;WIPE_START
G1 F1500
G1 X48.706 Y165.21 E-.75
;WIPE_END
G1 X71.611 Y168.24 F18000
G1 E2.5 F6000
G1 F1500
G3 X71.544 Y168.239 I-.067 J2.499 E.67888
G1 X73.124 Y172.345 F18000
G1 F1500
G1 X73.124 Y169.432 E.12643
G2 X72.626 Y168.979 I-1.904 J1.593 E.02933
G1 X72.626 Y172.494 E.15259
G3 X72.128 Y172.731 I-1.198 J-1.877 E.02402
G1 X72.128 Y168.742 E.17317
G2 X71.629 Y168.647 I-.778 J2.718 E.02205
G1 X71.629 Y172.826 E.18144
G3 X71.131 Y172.801 I-.143 J-2.094 E.02171
G1 X71.131 Y168.672 E.17925
G2 X70.633 Y168.822 I.368 J2.118 E.02265
G1 X70.632 Y172.651 E.1662
G3 X70.134 Y172.338 I.879 J-1.952 E.0256
G1 X70.134 Y169.135 E.13905
G2 X69.636 Y169.75 I1.369 J1.619 E.03456
G1 X69.636 Y172.1 E.10203
G1 E-1.75 F6000
;WIPE_START
G1 F1500
G1 X69.636 Y171.1 E-.75
;WIPE_END
G1 X87.275 Y153.051 F18000
G1 E2.5 F6000
G1 F1500
G3 X87.208 Y153.05 I-.095 J2.498 E.67886
G1 X89.071 Y156.76 F18000
G1 F1500
G1 X89.071 Y154.779 E.086
G2 X88.572 Y154.036 I-2.1 J.869 E.0391
G1 X88.572 Y157.058 E.1312
G3 X88.074 Y157.412 I-1.476 J-1.554 E.02661
G1 X88.074 Y153.681 E.16196
G2 X87.576 Y153.501 I-.962 J1.894 E.02305
G1 X87.576 Y157.591 E.17753
G3 X87.077 Y157.641 I-.53 J-2.776 E.02177
G1 X87.077 Y153.452 E.18186
G2 X86.579 Y153.523 I.137 J2.743 E.02188
G1 X86.579 Y157.57 E.17567
G3 X86.081 Y157.364 I.542 J-2.025 E.02346
G1 X86.081 Y153.728 E.15787
G2 X85.582 Y154.125 I1.26 J2.091 E.02775
G1 X85.582 Y156.969 E.12346
G3 X85.084 Y156.036 I1.651 J-1.482 E.04635
G1 X85.084 Y154.485 E.06733
G1 E-1.75 F6000
;WIPE_START
G1 F1500
G1 X85.084 Y155.485 E-.75
;WIPE_END
G1 X81.966 Y131.917 F18000
G1 E2.5 F6000
G1 F1500
G3 X81.898 Y131.914 I-.122 J2.497 E.67888
G1 X83.589 Y135.83 F18000
G1 F1500
G1 X83.589 Y133.347 E.10779
G2 X83.091 Y132.771 I-1.993 J1.223 E.03318
G1 X83.091 Y136.047 E.1422
G3 X82.592 Y136.342 I-1.315 J-1.654 E.02521
G1 X82.592 Y132.477 E.16778
G2 X82.094 Y132.337 I-.983 J2.549 E.0225
G1 X82.094 Y136.482 E.1799
G3 X81.596 Y136.496 I-.334 J-2.941 E.02167
G1 X81.596 Y132.323 E.18114
G2 X81.097 Y132.43 I.196 J2.132 E.02217
G1 X81.097 Y136.389 E.17184
G3 X80.599 Y136.137 I.687 J-1.979 E.02431
G1 X80.599 Y132.682 E.14999
G2 X80.101 Y133.162 I1.415 J1.966 E.03015
G1 X80.101 Y135.973 E.12201
G1 E-1.75 F6000
;WIPE_START
G1 F1500
G1 X80.101 Y134.973 E-.75
;WIPE_END
G1 X61.02 Y125.972 F18000
G1 E2.5 F6000
G1 F1500
G3 X60.953 Y125.969 I-.15 J2.495 E.67886
G1 X62.659 Y129.827 F18000
G1 F1500
G1 X62.655 Y127.467 E.10245
G2 X62.161 Y126.862 I-2.044 J1.163 E.03407
G1 X62.161 Y130.065 E.13905
G3 X61.663 Y130.377 I-1.369 J-1.629 E.02562
G1 X61.663 Y126.549 E.1662
G2 X61.164 Y126.399 I-1.019 J2.483 E.02263
G1 X61.164 Y130.528 E.17925
G3 X60.666 Y130.553 I-.358 J-2.147 E.02171
G1 X60.666 Y126.373 E.18144
G2 X60.168 Y126.469 I.28 J2.819 E.02205
G1 X60.162 Y130.456 E.17309
G3 X59.669 Y130.221 I.952 J-2.624 E.02372
G1 X59.666 Y126.708 E.15249
G2 X59.171 Y127.159 I1.192 J1.804 E.02917
G1 X59.171 Y130.071 E.12643
G1 E-1.75 F6000
;WIPE_START
G1 F1500
G1 X59.171 Y129.071 E-.75
;WIPE_END
G1 X55.183 Y119.533 F18000
G1 E2.5 F6000
;TYPE:Brim
G1 F1500
G1 X55.543 Y119.397 E.01675
G1 X56.942 Y118.942 E.06384
G1 X58.491 Y118.518 E.0697
G1 X60.09 Y118.168 E.07108
G1 X61.611 Y117.912 E.06692
G1 X63.205 Y117.725 E.06968
G1 X64.84 Y117.616 E.07114
G1 X66.305 Y117.59 E.06358
G1 X67.915 Y117.638 E.06992
G1 X69.531 Y117.769 E.07041
G1 X71.06 Y117.969 E.0669
G1 X72.672 Y118.261 E.07113
G1 X74.243 Y118.63 E.07005
G1 X75.664 Y119.037 E.06416
G1 X77.125 Y119.53 E.06693
G1 X78.617 Y120.118 E.06965
G1 X80.111 Y120.795 E.07117
G1 X81.544 Y121.535 E.07005
G1 X82.824 Y122.276 E.06416
G1 X84.12 Y123.111 E.06692
G1 X85.49 Y124.094 E.07319
G1 X86.694 Y125.054 E.06685
G1 X87.911 Y126.126 E.07043
G1 X88.91 Y127.093 E.06034
G1 X90.032 Y128.288 E.07115
G1 X91.07 Y129.512 E.06967
G1 X92.066 Y130.814 E.07115
G1 X92.847 Y131.942 E.05958
G1 X93.716 Y133.332 E.07115
G1 X94.501 Y134.742 E.07005
G1 X95.15 Y136.052 E.06345
G1 X95.768 Y137.464 E.06691
G1 X96.351 Y138.996 E.07114
G1 X96.806 Y140.393 E.0638
G1 X97.229 Y141.943 E.06974
G1 X97.577 Y143.527 E.07037
G1 X97.844 Y145.126 E.07041
G1 X98.022 Y146.657 E.06689
G1 X98.131 Y148.284 E.07078
G1 X98.158 Y149.762 E.06416
G1 X98.113 Y151.303 E.06693
G1 X97.987 Y152.903 E.06968
G1 X97.779 Y154.512 E.07041
G1 X97.518 Y155.967 E.06417
G1 X97.153 Y157.556 E.07075
G1 X96.735 Y159.04 E.06693
G1 X96.217 Y160.577 E.07041
G1 X95.623 Y162.086 E.0704
G1 X94.952 Y163.563 E.0704
G1 X94.208 Y165.004 E.07041
G1 X93.471 Y166.277 E.06384
G1 X92.637 Y167.572 E.06689
G1 X91.702 Y168.877 E.06968
G1 X90.682 Y170.16 E.07114
G1 X89.713 Y171.265 E.0638
G1 X88.642 Y172.374 E.06693
G1 X87.46 Y173.484 E.0704
G1 X86.223 Y174.533 E.0704
G1 X84.934 Y175.518 E.07041
G1 X83.723 Y176.353 E.06384
G1 X82.415 Y177.168 E.06689
G1 X81.013 Y177.949 E.06969
G1 X79.688 Y178.606 E.06418
G1 X78.193 Y179.257 E.0708
G1 X76.752 Y179.803 E.06689
G1 X75.353 Y180.258 E.06384
G1 X73.804 Y180.681 E.0697
G1 X72.204 Y181.032 E.07112
G1 X70.684 Y181.287 E.06688
G1 X69.09 Y181.475 E.06968
G1 X67.455 Y181.584 E.07114
G1 X65.985 Y181.61 E.06381
G1 X64.596 Y181.573 E.06033
G1 X62.978 Y181.453 E.07045
G1 X61.384 Y181.254 E.0697
G1 X59.788 Y180.972 E.07038
G1 X58.191 Y180.606 E.0711
G1 X56.708 Y180.187 E.06692
G1 X55.171 Y179.669 E.07041
G1 X53.669 Y179.078 E.07006
G1 X52.322 Y178.47 E.06416
G1 X50.891 Y177.74 E.06974
G1 X49.471 Y176.923 E.07108
G1 X48.175 Y176.089 E.06692
G1 X46.871 Y175.155 E.06964
G1 X45.594 Y174.14 E.07081
G1 X44.483 Y173.165 E.06416
G1 X43.373 Y172.094 E.06693
G1 X42.263 Y170.912 E.07041
G1 X41.225 Y169.688 E.06963
G1 X40.234 Y168.393 E.07082
G1 X39.394 Y167.176 E.06416
G1 X38.579 Y165.868 E.06693
G1 X37.794 Y164.457 E.07006
G1 X37.145 Y163.148 E.06345
G1 X36.49 Y161.646 E.07112
G1 X35.944 Y160.204 E.06693
G1 X35.49 Y158.806 E.06381
G1 X35.066 Y157.256 E.06974
G1 X34.719 Y155.673 E.07037
G1 X34.451 Y154.073 E.07042
G1 X34.273 Y152.542 E.06689
G1 X34.164 Y150.915 E.07078
G1 X34.138 Y149.438 E.06416
G1 X34.182 Y147.896 E.06693
G1 X34.308 Y146.296 E.06968
G1 X34.516 Y144.687 E.07041
G1 X34.777 Y143.232 E.06417
G1 X35.142 Y141.644 E.07075
G1 X35.561 Y140.16 E.06693
G1 X36.078 Y138.623 E.07041
G1 X36.673 Y137.114 E.0704
G1 X37.343 Y135.637 E.0704
G1 X38.087 Y134.196 E.07041
G1 X38.824 Y132.924 E.0638
G1 X39.659 Y131.628 E.06692
G1 X40.603 Y130.309 E.07041
G1 X41.613 Y129.04 E.07042
G1 X42.583 Y127.935 E.0638
G1 X43.653 Y126.825 E.06693
G1 X44.836 Y125.715 E.07041
G1 X46.073 Y124.666 E.0704
G1 X47.362 Y123.681 E.07041
G1 X48.572 Y122.846 E.06384
G1 X49.88 Y122.031 E.06689
G1 X51.297 Y121.242 E.07042
G1 X52.607 Y120.594 E.06345
G1 X54.102 Y119.942 E.0708
G1 X55.145 Y119.547 E.0484
G1 X55.304 Y119.967 F18000
G1 F1500
G1 X55.689 Y119.821 E.01788
G1 X57.074 Y119.371 E.0632
G1 X58.602 Y118.953 E.06875
G1 X60.179 Y118.608 E.0701
G1 X61.677 Y118.356 E.06595
G1 X63.243 Y118.172 E.06841
G1 X64.856 Y118.064 E.07018
G1 X66.305 Y118.038 E.06292
G1 X67.893 Y118.086 E.06897
G1 X69.481 Y118.215 E.06914
G1 X70.994 Y118.412 E.06623
G1 X72.577 Y118.7 E.06986
G1 X74.127 Y119.063 E.06909
G1 X75.533 Y119.466 E.06351
G1 X76.974 Y119.953 E.066
G1 X78.439 Y120.53 E.06838
G1 X79.912 Y121.197 E.07018
G1 X81.326 Y121.927 E.06909
G1 X82.592 Y122.661 E.06351
G1 X83.865 Y123.48 E.06569
G1 X85.216 Y124.45 E.07221
G1 X86.403 Y125.396 E.06589
G1 X87.605 Y126.454 E.06949
G1 X88.588 Y127.406 E.05942
G1 X89.695 Y128.584 E.07019
G1 X90.719 Y129.791 E.06868
G1 X91.701 Y131.075 E.07021
G1 X92.471 Y132.186 E.05866
G1 X93.328 Y133.557 E.07019
G1 X94.102 Y134.948 E.0691
G1 X94.745 Y136.245 E.06281
G1 X95.354 Y137.637 E.06598
G1 X95.927 Y139.142 E.0699
G1 X96.377 Y140.525 E.06314
G1 X96.794 Y142.054 E.06879
G1 X97.135 Y143.608 E.06909
G1 X97.399 Y145.186 E.06944
G1 X97.575 Y146.695 E.06593
G1 X97.683 Y148.3 E.06983
G1 X97.709 Y149.756 E.06323
G1 X97.665 Y151.282 E.06627
G1 X97.541 Y152.854 E.06842
G1 X97.336 Y154.441 E.06946
G1 X97.078 Y155.881 E.06351
G1 X96.72 Y157.442 E.06951
G1 X96.305 Y158.91 E.06625
G1 X95.794 Y160.426 E.06943
G1 X95.211 Y161.908 E.06912
G1 X94.55 Y163.364 E.06942
G1 X93.816 Y164.786 E.06945
G1 X93.086 Y166.045 E.06319
G1 X92.267 Y167.317 E.06567
G1 X91.342 Y168.61 E.069
G1 X90.34 Y169.87 E.06989
G1 X89.38 Y170.963 E.06314
G1 X88.329 Y172.052 E.06571
G1 X87.163 Y173.147 E.06943
G1 X85.944 Y174.182 E.06941
G1 X84.673 Y175.153 E.06945
G1 X83.48 Y175.977 E.06292
G1 X82.185 Y176.784 E.06624
G1 X80.801 Y177.554 E.06874
G1 X79.496 Y178.2 E.06324
G1 X78.027 Y178.841 E.06956
G1 X76.606 Y179.379 E.06595
G1 X75.221 Y179.829 E.0632
G1 X73.694 Y180.246 E.06875
G1 X72.115 Y180.592 E.07014
G1 X70.618 Y180.843 E.06592
G1 X69.053 Y181.028 E.06842
G1 X67.439 Y181.135 E.07018
G1 X65.984 Y181.161 E.06317
G1 X64.615 Y181.124 E.05944
G1 X63.019 Y181.006 E.06951
G1 X61.448 Y180.81 E.06872
G1 X59.874 Y180.532 E.06939
G1 X58.306 Y180.172 E.06983
G1 X56.837 Y179.757 E.06624
G1 X55.328 Y179.249 E.06914
G1 X53.846 Y178.666 E.0691
G1 X52.513 Y178.064 E.0635
G1 X51.101 Y177.344 E.06878
G1 X49.708 Y176.542 E.06981
G1 X48.43 Y175.72 E.06596
G1 X47.138 Y174.795 E.06896
G1 X45.884 Y173.798 E.06956
G1 X44.784 Y172.832 E.06351
G1 X43.695 Y171.782 E.0657
G1 X42.6 Y170.615 E.06944
G1 X41.577 Y169.409 E.06865
G1 X40.599 Y168.131 E.06986
G1 X39.771 Y166.933 E.06323
G1 X38.964 Y165.637 E.06627
G1 X38.19 Y164.246 E.06911
G1 X37.551 Y162.955 E.06251
G1 X36.907 Y161.48 E.06988
G1 X36.369 Y160.058 E.06599
G1 X35.919 Y158.674 E.06316
G1 X35.501 Y157.146 E.06879
G1 X35.158 Y155.585 E.06938
G1 X34.896 Y154.013 E.06915
G1 X34.72 Y152.505 E.06593
G1 X34.613 Y150.9 E.06983
G1 X34.586 Y149.443 E.06323
G1 X34.631 Y147.917 E.06627
G1 X34.754 Y146.346 E.06842
G1 X34.959 Y144.759 E.06946
G1 X35.217 Y143.319 E.06351
G1 X35.576 Y141.758 E.06951
G1 X35.99 Y140.289 E.06625
G1 X36.501 Y138.773 E.06943
G1 X37.085 Y137.292 E.06912
G1 X37.745 Y135.836 E.06942
G1 X38.479 Y134.414 E.06946
G1 X39.209 Y133.155 E.06315
G1 X40.028 Y131.882 E.0657
G1 X40.959 Y130.582 E.06943
G1 X41.955 Y129.33 E.06946
G1 X42.915 Y128.237 E.06315
G1 X43.966 Y127.147 E.06571
G1 X45.132 Y126.052 E.06943
G1 X46.351 Y125.018 E.06941
G1 X47.623 Y124.046 E.06946
G1 X48.815 Y123.223 E.06292
G1 X50.11 Y122.416 E.06623
G1 X51.509 Y121.638 E.06946
G1 X52.8 Y121 E.06251
G1 X54.268 Y120.359 E.06956
G1 X55.267 Y119.981 E.04633
G1 X55.426 Y120.401 F18000
G1 F1500
G1 X55.835 Y120.245 E.01902
G1 X57.205 Y119.8 E.06254
G1 X58.712 Y119.388 E.06779
G1 X60.267 Y119.048 E.06912
G1 X61.744 Y118.8 E.06499
G1 X63.28 Y118.619 E.06715
G1 X64.872 Y118.513 E.06922
G1 X66.306 Y118.487 E.06226
G1 X67.872 Y118.535 E.06802
G1 X69.43 Y118.66 E.06788
G1 X70.928 Y118.856 E.06555
G1 X72.482 Y119.138 E.06859
G1 X74.011 Y119.497 E.06813
G1 X75.403 Y119.895 E.06286
G1 X76.823 Y120.375 E.06507
G1 X78.261 Y120.942 E.06712
G1 X79.713 Y121.6 E.06919
G1 X81.108 Y122.32 E.06813
G1 X82.361 Y123.045 E.06286
G1 X83.61 Y123.849 E.06446
G1 X84.943 Y124.805 E.07123
G1 X86.113 Y125.737 E.06492
G1 X87.298 Y126.781 E.06856
G1 X88.266 Y127.719 E.0585
G1 X89.358 Y128.881 E.06922
G1 X90.367 Y130.07 E.0677
G1 X91.337 Y131.337 E.06927
G1 X92.094 Y132.431 E.05775
G1 X92.94 Y133.782 E.06922
G1 X93.704 Y135.154 E.06814
G1 X94.339 Y136.437 E.06216
G1 X94.94 Y137.81 E.06504
G1 X95.502 Y139.288 E.06866
G1 X95.948 Y140.657 E.06248
G1 X96.359 Y142.164 E.06784
G1 X96.694 Y143.69 E.06781
G1 X96.955 Y145.246 E.06847
G1 X97.128 Y146.732 E.06497
G1 X97.234 Y148.316 E.06888
