; HEADER_BLOCK_START
; generated by AnycubicSlicerNext 1.3.3.1 on 2025-03-22 at 15:38:28
; total layer number: 20
; filament_density: 1.24
; filament_diameter: 1.75
; max_z_height: 4.04
; exclude_object: 0
; model_instances: 2
; HEADER_BLOCK_END

; THUMBNAIL_BLOCK_START
; THUMBNAIL_BLOCK_END

; external perimeters extrusion width = 0.42mm
; perimeters extrusion width = 0.45mm
; infill extrusion width = 0.45mm
; solid infill extrusion width = 0.42mm
; top infill extrusion width = 0.42mm
; support material extrusion width = 0.40mm
; first layer extrusion width = 0.50mm

; external perimeters extrusion width = 0.42mm
; perimeters extrusion width = 0.45mm
; infill extrusion width = 0.45mm
; solid infill extrusion width = 0.42mm
; top infill extrusion width = 0.42mm
; support material extrusion width = 0.40mm
; first layer extrusion width = 0.50mm

; EXECUTABLE_BLOCK_START
M201 X2000 Y2000 Z800 E2000
M203 X300 Y300 Z8 E100
M204 P2000 R2000 T2000
M205 X10.00 Y10.00 Z2.00 E5.00 ; sets the jerk limits, mm/sec
;TYPE:Custom
G90 ; use absolute coordinates
M83 ; extruder relative mode
M104 S220 ; set extruder temp
M140 S60 ; set bed temp
M190 S60 ; wait for bed temp
M109 S220 ; wait for extruder temp
G28                                        ; move X/Y/Z to min endstops
G1 Z0.28                                   ; lift nozzle a bit 
G92 E0 
G1 Y3 F1800                                    ; zero the extruded length 
G1 X60  E25 F500                       ; Extrude 25mm of filament in a 5cm line. 
G92 E0                                     ; zero the extruded length again 
G1 E-2 F500                                ; Retract a little 
G1 X70 F4000                              ; Quickly wipe away from the filament line
M117
G90
G21
M83 ; use relative distances for extrusion
; filament start gcode
M106 S0
;LAYER_CHANGE
;Z:0.24
;HEIGHT:0.24
; BEFORE_LAYER_CHANGE 0 @ 0.24mm
G92 E0
G1 E-2.5 F6000
; AFTER_LAYER_CHANGE 0 @ 0.24mm
M204 P500
; printing object "Cyclo6InnerAdapter.stl" id:1815495842560 copy 0
M204 T500
G1 X90.174 Y119.112 F18000
G1 Z.24
G1 E2.5 F6000
;TYPE:Brim
;WIDTH:0.5
;MM3_PER_MM:0.107639
G1 F1500
G1 X90.695 Y118.775 E.02694
G1 X91.254 Y118.469 E.02766
G1 X91.819 Y118.214 E.02694
G1 X92.418 Y117.995 E.02766
G1 X93.015 Y117.827 E.02694
G1 X93.646 Y117.699 E.02796
G1 X94.474 Y117.605 E.03615
G1 X95.11 Y117.59 E.0276
G1 X95.728 Y117.621 E.02688
G1 X96.56 Y117.735 E.03645
G1 X97.378 Y117.932 E.03651
G1 X97.773 Y118.059 E.01802
G1 X98.351 Y118.285 E.02694
G1 X99.104 Y118.658 E.03646
G1 X99.814 Y119.103 E.03639
G1 X100.477 Y119.617 E.03639
G1 X101.081 Y120.19 E.03616
G1 X101.361 Y120.497 E.01803
G1 X101.707 Y120.926 E.02392
G1 X101.832 Y121.004 E.00641
G1 X101.935 Y121.003 E.00444
G1 X102.907 Y120.765 E.04346
G1 X103.962 Y120.544 E.04678
G1 X104.74 Y120.404 E.03431
G1 X106.02 Y120.217 E.05615
G1 X107.733 Y120.049 E.07471
G1 X108.873 Y119.989 E.04954
G1 X110.031 Y119.969 E.05028
G1 X110.973 Y119.984 E.04091
G1 X112.264 Y120.049 E.05612
G1 X113.977 Y120.217 E.07469
G1 X115.256 Y120.404 E.05613
G1 X116.019 Y120.54 E.03362
G1 X116.942 Y120.731 E.04095
G1 X118.066 Y121.003 E.05018
G1 X118.213 Y120.988 E.00641
G1 X118.293 Y120.926 E.00443
G1 X118.624 Y120.515 E.02288
G1 X118.904 Y120.206 E.01811
G1 X119.349 Y119.77 E.02706
G1 X119.666 Y119.497 E.01815
G1 X119.996 Y119.24 E.01814
G1 X120.523 Y118.88 E.02772
G1 X121.061 Y118.568 E.027
G1 X121.449 Y118.376 E.0188
G1 X122.023 Y118.133 E.02706
G1 X122.416 Y117.996 E.01808
G1 X123.017 Y117.826 E.02707
G1 X123.424 Y117.738 E.01808
G1 X124.056 Y117.642 E.02778
G1 X124.47 Y117.606 E.01801
G1 X125.324 Y117.595 E.03707
G1 X125.931 Y117.641 E.02645
G1 X126.756 Y117.774 E.03628
G1 X127.376 Y117.932 E.02778
G1 X127.773 Y118.059 E.01808
G1 X128.354 Y118.286 E.02706
G1 X128.731 Y118.462 E.01808
G1 X129.294 Y118.768 E.02778
G1 X129.646 Y118.989 E.01808
G1 X130.153 Y119.352 E.02706
G1 X130.476 Y119.616 E.01808
G1 X130.944 Y120.05 E.02771
G1 X131.362 Y120.499 E.02665
G1 X131.881 Y121.164 E.03663
G1 X132.229 Y121.702 E.02778
G1 X132.433 Y122.065 E.01808
G1 X132.704 Y122.626 E.02706
G1 X132.862 Y123.012 E.01809
G1 X133.06 Y123.6 E.02696
G1 X133.263 Y124.433 E.0372
G1 X133.355 Y125.039 E.02658
G1 X133.393 Y125.46 E.01837
G1 X133.404 Y126.303 E.03658
G1 X133.357 Y126.938 E.02766
G1 X133.3 Y127.351 E.01808
G1 X133.177 Y127.962 E.02706
G1 X132.942 Y128.764 E.0363
G1 X132.747 Y129.27 E.02352
G1 X132.742 Y129.417 E.00641
G1 X132.795 Y129.506 E.00446
G1 X133.392 Y130.128 E.03742
G1 X134.256 Y131.091 E.05619
G1 X134.764 Y131.697 E.0343
G1 X135.473 Y132.594 E.04964
G1 X136.111 Y133.462 E.04677
G1 X136.552 Y134.1 E.03366
G1 X137.063 Y134.885 E.04066
G1 X137.735 Y135.997 E.0564
G1 X138.553 Y137.51 E.07466
G1 X139.115 Y138.675 E.05615
G1 X139.434 Y139.398 E.03431
G1 X139.865 Y140.458 E.04964
G1 X140.236 Y141.469 E.04676
G1 X140.486 Y142.219 E.03434
G1 X140.86 Y143.477 E.05696
G1 X140.947 Y143.597 E.00641
G1 X141.041 Y143.635 E.00441
G1 X141.56 Y143.716 E.02279
G1 X142.165 Y143.853 E.02697
G1 X142.776 Y144.041 E.02772
G1 X143.167 Y144.189 E.01814
G1 X143.55 Y144.356 E.01815
G1 X144.104 Y144.639 E.027
G1 X144.649 Y144.971 E.02772
G1 X144.99 Y145.21 E.01808
G1 X145.478 Y145.598 E.02706
G1 X145.787 Y145.877 E.01808
G1 X146.233 Y146.334 E.02772
G1 X146.628 Y146.803 E.02659
G1 X147.006 Y147.327 E.02805
G1 X147.228 Y147.68 E.0181
G1 X147.526 Y148.227 E.02706
G1 X147.702 Y148.603 E.01803
G1 X148.002 Y149.392 E.03664
G1 X148.12 Y149.79 E.01801
G1 X148.262 Y150.411 E.02765
G1 X148.377 Y151.243 E.03644
G1 X148.409 Y152.082 E.03648
G1 X148.379 Y152.702 E.02694
G1 X148.333 Y153.115 E.01802
G1 X148.178 Y153.942 E.03652
G1 X147.941 Y154.747 E.03645
G1 X147.715 Y155.326 E.02696
G1 X147.533 Y155.719 E.01881
G1 X147.337 Y156.089 E.01816
G1 X147.013 Y156.621 E.02706
G1 X146.774 Y156.963 E.01808
G1 X146.386 Y157.451 E.02709
G1 X146.097 Y157.772 E.01875
G1 X145.651 Y158.208 E.02708
G1 X145.335 Y158.48 E.01809
G1 X144.825 Y158.867 E.02778
G1 X144.478 Y159.098 E.01808
G1 X143.94 Y159.409 E.027
G1 X143.365 Y159.687 E.02772
G1 X142.979 Y159.844 E.01808
G1 X142.388 Y160.043 E.02706
G1 X141.985 Y160.152 E.01814
G1 X141.56 Y160.243 E.01888
G1 X141.041 Y160.324 E.0228
G1 X140.91 Y160.394 E.00641
G1 X140.86 Y160.482 E.0044
G1 X140.487 Y161.736 E.05681
G1 X140.242 Y162.471 E.03361
G1 X139.92 Y163.357 E.04095
G1 X139.436 Y164.557 E.05618
G1 X139.116 Y165.28 E.0343
G1 X138.555 Y166.446 E.05615
G1 X137.737 Y167.959 E.07469
G1 X137.069 Y169.066 E.05612
G1 X136.554 Y169.856 E.04094
G1 X136.113 Y170.493 E.03362
G1 X135.475 Y171.363 E.04683
G1 X134.767 Y172.259 E.04957
G1 X134.258 Y172.865 E.03435
G1 X133.541 Y173.671 E.04683
G1 X132.794 Y174.453 E.04695
G1 X132.733 Y174.588 E.00641
G1 X132.747 Y174.689 E.00444
G1 X132.937 Y175.18 E.02285
G1 X133.065 Y175.576 E.01805
G1 X133.262 Y176.393 E.0365
G1 X133.377 Y177.223 E.03638
G1 X133.409 Y178.064 E.03654
G1 X133.394 Y178.479 E.01802
G1 X133.334 Y179.089 E.02659
G1 X133.178 Y179.922 E.0368
G1 X132.944 Y180.719 E.03605
G1 X132.626 Y181.505 E.03679
G1 X132.337 Y182.071 E.02761
G1 X132.014 Y182.6 E.02688
G1 X131.521 Y183.271 E.03616
G1 X131.096 Y183.754 E.02793
G1 X130.652 Y184.188 E.02696
G1 X130.165 Y184.597 E.0276
G1 X129.476 Y185.08 E.03651
G1 X128.94 Y185.39 E.02688
G1 X128.36 Y185.67 E.02796
G1 X127.581 Y185.964 E.03615
G1 X126.986 Y186.132 E.02683
G1 X126.161 Y186.289 E.03646
G1 X125.325 Y186.364 E.03644
G1 X124.682 Y186.364 E.0279
G1 X123.852 Y186.291 E.03615
G1 X123.242 Y186.184 E.02688
G1 X122.626 Y186.028 E.0276
G1 X121.832 Y185.751 E.03651
G1 X121.269 Y185.497 E.02682
G1 X120.534 Y185.087 E.03651
G1 X120.01 Y184.73 E.02754
G1 X119.36 Y184.198 E.03645
G1 X118.766 Y183.605 E.03642
G1 X118.291 Y183.031 E.03235
G1 X118.165 Y182.955 E.00641
G1 X118.065 Y182.956 E.00433
G1 X117.093 Y183.194 E.04346
G1 X116.038 Y183.415 E.04678
G1 X115.26 Y183.555 E.03431
G1 X113.98 Y183.742 E.05615
G1 X112.267 Y183.91 E.07471
G1 X111.127 Y183.97 E.04954
G1 X109.969 Y183.99 E.05028
G1 X109.027 Y183.975 E.04091
G1 X107.736 Y183.91 E.05612
G1 X106.023 Y183.742 E.07469
G1 X104.744 Y183.555 E.05613
G1 X103.981 Y183.419 E.03363
G1 X103.058 Y183.228 E.04094
G1 X101.934 Y182.956 E.05018
G1 X101.787 Y182.971 E.00641
G1 X101.708 Y183.031 E.00432
G1 X101.243 Y183.595 E.03173
G1 X100.799 Y184.051 E.02763
G1 X100.335 Y184.461 E.02688
G1 X99.66 Y184.961 E.03646
G1 X98.939 Y185.391 E.03645
G1 X98.36 Y185.67 E.0279
G1 X97.581 Y185.964 E.03615
G1 X96.986 Y186.132 E.02683
G1 X96.16 Y186.29 E.03651
G1 X95.529 Y186.353 E.02754
G1 X94.688 Y186.364 E.03651
G1 X94.07 Y186.319 E.02688
G1 X93.441 Y186.224 E.0276
G1 X92.625 Y186.028 E.03645
G1 X91.832 Y185.751 E.03646
G1 X91.267 Y185.496 E.02688
G1 X90.708 Y185.192 E.02766
G1 X90.187 Y184.857 E.02688
G1 X89.522 Y184.341 E.03651
G1 X89.056 Y183.909 E.0276
G1 X88.634 Y183.456 E.02688
G1 X88.117 Y182.792 E.03651
G1 X87.772 Y182.259 E.0276
G1 X87.475 Y181.715 E.02688
G1 X87.137 Y180.943 E.03658
G1 X86.999 Y180.551 E.01802
G1 X86.83 Y179.954 E.02696
G1 X86.67 Y179.113 E.03715
G1 X86.597 Y178.294 E.0357
G1 X86.606 Y177.437 E.03721
G1 X86.642 Y177.023 E.01802
G1 X86.734 Y176.41 E.02694
G1 X86.931 Y175.59 E.03658
G1 X87.058 Y175.195 E.01804
G1 X87.253 Y174.689 E.02352
G1 X87.258 Y174.542 E.00641
G1 X87.205 Y174.453 E.00446
G1 X86.608 Y173.831 E.03742
G1 X85.744 Y172.868 E.05619
G1 X85.236 Y172.263 E.0343
G1 X84.527 Y171.365 E.04964
G1 X83.889 Y170.497 E.04677
G1 X83.448 Y169.859 E.03366
G1 X82.937 Y169.074 E.04065
G1 X82.265 Y167.962 E.05641
G1 X81.449 Y166.455 E.0744
G1 X80.885 Y165.284 E.05642
G1 X80.566 Y164.561 E.03431
G1 X80.135 Y163.502 E.04964
G1 X79.765 Y162.491 E.04674
G1 X79.399 Y161.373 E.05106
G1 X79.141 Y160.484 E.04018
G1 X79.056 Y160.363 E.00641
G1 X78.96 Y160.324 E.00447
G1 X78.439 Y160.243 E.02289
G1 X78.031 Y160.156 E.01811
G1 X77.431 Y159.987 E.02706
G1 X76.649 Y159.693 E.03627
G1 X76.073 Y159.416 E.02772
G1 X75.534 Y159.106 E.027
G1 X75.187 Y158.876 E.01808
G1 X74.677 Y158.49 E.02778
G1 X74.361 Y158.218 E.01809
G1 X73.914 Y157.784 E.02706
G1 X73.634 Y157.475 E.01808
G1 X73.244 Y156.988 E.02709
G1 X72.995 Y156.633 E.01881
G1 X72.772 Y156.279 E.01816
G1 X72.475 Y155.734 E.02694
G1 X72.138 Y154.964 E.03652
G1 X71.934 Y154.36 E.02765
G1 X71.826 Y153.956 E.01814
G1 X71.738 Y153.548 E.01813
G1 X71.646 Y152.942 E.02659
G1 X71.591 Y152.093 E.03693
G1 X71.596 Y151.678 E.01802
G1 X71.643 Y151.043 E.02765
G1 X71.778 Y150.211 E.03658
G1 X71.875 Y149.808 E.01803
G1 X72.058 Y149.213 E.027
G1 X72.285 Y148.633 E.02703
G1 X72.663 Y147.87 E.03696
G1 X72.986 Y147.339 E.027
G1 X73.349 Y146.833 E.02703
G1 X73.623 Y146.497 E.01881
G1 X73.904 Y146.186 E.01816
G1 X74.349 Y145.751 E.02706
G1 X74.665 Y145.479 E.01809
G1 X75.174 Y145.093 E.02772
G1 X75.696 Y144.755 E.027
G1 X76.059 Y144.55 E.01808
G1 X76.635 Y144.272 E.02778
G1 X77.021 Y144.115 E.01808
G1 X77.612 Y143.916 E.02706
G1 X78.015 Y143.807 E.01815
G1 X78.424 Y143.719 E.01816
G1 X78.96 Y143.635 E.02352
G1 X79.09 Y143.565 E.00641
G1 X79.14 Y143.477 E.0044
G1 X79.513 Y142.223 E.05681
G1 X79.758 Y141.488 E.03361
G1 X80.08 Y140.602 E.04095
G1 X80.564 Y139.401 E.05618
G1 X80.884 Y138.679 E.0343
G1 X81.445 Y137.513 E.05615
G1 X82.263 Y136 E.07469
G1 X82.931 Y134.893 E.05612
G1 X83.446 Y134.103 E.04094
G1 X83.887 Y133.466 E.03362
G1 X84.525 Y132.596 E.04683
G1 X85.233 Y131.7 E.04957
G1 X85.742 Y131.094 E.03435
G1 X86.459 Y130.288 E.04683
G1 X87.206 Y129.506 E.04695
G1 X87.267 Y129.371 E.00641
G1 X87.253 Y129.27 E.00444
G1 X87.063 Y128.779 E.02286
G1 X86.935 Y128.383 E.01804
G1 X86.738 Y127.566 E.03651
G1 X86.623 Y126.735 E.03639
G1 X86.591 Y125.898 E.03638
G1 X86.643 Y125.061 E.03642
G1 X86.778 Y124.23 E.03651
G1 X86.875 Y123.827 E.01802
G1 X87.055 Y123.241 E.02659
G1 X87.374 Y122.454 E.03688
G1 X87.663 Y121.888 E.02759
G1 X87.986 Y121.358 E.02694
G1 X88.358 Y120.84 E.02766
G1 X88.751 Y120.371 E.02658
G1 X89.201 Y119.908 E.02803
G1 X89.666 Y119.497 E.02694
G1 X90.142 Y119.136 E.02593
G1 X90.413 Y119.493 F18000
G1 F1500
G1 X90.427 Y119.482 E.00078
G1 X90.929 Y119.158 E.02592
G1 X91.45 Y118.874 E.02577
G1 X91.984 Y118.631 E.02548
G1 X92.551 Y118.424 E.0262
G1 X93.116 Y118.264 E.02547
G1 X93.722 Y118.142 E.02685
G1 X94.499 Y118.054 E.03393
G1 X95.109 Y118.039 E.0265
G1 X95.692 Y118.068 E.02535
G1 X96.47 Y118.175 E.03409
G1 X97.252 Y118.363 E.03489
G1 X97.626 Y118.483 E.01709
G1 X98.164 Y118.694 E.02506
G1 X98.878 Y119.047 E.0346
G1 X99.551 Y119.468 E.03445
G1 X100.189 Y119.962 E.03503
G1 X100.764 Y120.508 E.0344
G1 X101.023 Y120.792 E.01669
G1 X101.351 Y121.199 E.02269
G1 X101.48 Y121.313 E.00747
G1 X101.58 Y121.375 E.00509
G1 X101.852 Y121.451 E.01227
G1 X102.052 Y121.436 E.00873
G1 X103.009 Y121.202 E.04275
G1 X104.05 Y120.984 E.04616
G1 X104.814 Y120.847 E.03372
G1 X106.071 Y120.663 E.05515
G1 X107.77 Y120.497 E.07408
G1 X108.891 Y120.437 E.04873
G1 X110.029 Y120.418 E.04941
G1 X110.961 Y120.432 E.04045
G1 X112.228 Y120.497 E.05508
G1 X113.926 Y120.663 E.07405
G1 X115.182 Y120.846 E.05512
G1 X115.932 Y120.98 E.03306
G1 X116.846 Y121.169 E.04054
G1 X117.949 Y121.436 E.04926
G1 X118.238 Y121.437 E.01251
G1 X118.504 Y121.33 E.01245
G1 X118.559 Y121.287 E.00304
G1 X119.23 Y120.514 E.04444
G1 X119.65 Y120.103 E.02549
G1 X119.953 Y119.842 E.01738
G1 X120.264 Y119.6 E.01708
G1 X120.758 Y119.262 E.02598
G1 X121.27 Y118.966 E.02568
G1 X121.64 Y118.782 E.01795
G1 X122.181 Y118.554 E.02549
G1 X122.556 Y118.422 E.01724
G1 X123.121 Y118.263 E.0255
G1 X123.501 Y118.18 E.01686
G1 X124.106 Y118.088 E.02656
G1 X124.487 Y118.054 E.01663
G1 X125.316 Y118.044 E.03597
G1 X125.884 Y118.087 E.02476
G1 X126.671 Y118.215 E.03459
G1 X127.257 Y118.364 E.02624
G1 X127.626 Y118.483 E.01687
G1 X128.173 Y118.698 E.0255
G1 X128.533 Y118.865 E.01723
G1 X129.063 Y119.153 E.02619
G1 X129.4 Y119.364 E.01723
G1 X129.877 Y119.706 E.0255
G1 X130.184 Y119.957 E.01723
G1 X130.623 Y120.364 E.02598
G1 X131.017 Y120.786 E.02504
G1 X131.512 Y121.42 E.03492
G1 X131.843 Y121.93 E.02638
G1 X132.037 Y122.276 E.01723
G1 X132.296 Y122.813 E.02585
G1 X132.443 Y123.173 E.01688
G1 X132.627 Y123.72 E.02507
G1 X132.821 Y124.514 E.0355
G1 X132.909 Y125.088 E.02521
G1 X132.944 Y125.488 E.01744
G1 X132.955 Y126.295 E.03503
G1 X132.91 Y126.895 E.02612
G1 X132.857 Y127.28 E.01686
G1 X132.743 Y127.849 E.02518
G1 X132.519 Y128.615 E.03465
G1 X132.333 Y129.098 E.02246
G1 X132.298 Y129.266 E.00747
G1 X132.295 Y129.384 E.00509
G1 X132.365 Y129.658 E.01229
G1 X132.479 Y129.825 E.00877
G1 X133.064 Y130.435 E.03671
G1 X133.919 Y131.387 E.05554
G1 X134.418 Y131.981 E.03368
G1 X135.118 Y132.868 E.04902
G1 X135.744 Y133.721 E.04596
G1 X136.181 Y134.352 E.03328
G1 X136.685 Y135.125 E.04007
G1 X137.344 Y136.217 E.05537
G1 X138.155 Y137.717 E.07402
G1 X138.707 Y138.861 E.05515
G1 X139.022 Y139.575 E.03388
G1 X139.446 Y140.617 E.04882
G1 X139.812 Y141.615 E.04616
G1 X140.059 Y142.357 E.03392
G1 X140.427 Y143.594 E.05605
G1 X140.503 Y143.749 E.00747
G1 X140.572 Y143.844 E.00509
G1 X140.797 Y144.02 E.01242
G1 X140.86 Y144.046 E.00298
G1 X141.474 Y144.156 E.02705
G1 X142.054 Y144.288 E.02585
G1 X142.637 Y144.468 E.02649
G1 X143.351 Y144.758 E.03343
G1 X143.889 Y145.033 E.02621
G1 X144.4 Y145.345 E.02598
G1 X144.718 Y145.567 E.01687
G1 X145.184 Y145.938 E.02586
G1 X145.479 Y146.204 E.01723
G1 X145.897 Y146.632 E.02598
G1 X146.27 Y147.075 E.02514
G1 X146.636 Y147.581 E.02711
G1 X146.843 Y147.911 E.01688
G1 X147.128 Y148.434 E.02586
G1 X147.291 Y148.783 E.01673
G1 X147.578 Y149.541 E.03518
G1 X147.687 Y149.908 E.01664
G1 X147.819 Y150.486 E.02574
G1 X147.929 Y151.275 E.03457
