; HEADER_BLOCK_START
; generated by AnycubicSlicerNext 1.3.2 on 2025-02-23 at 02:32:05
; total layer number: 178
; filament_density: 1.24
; filament_diameter: 1.75
; max_z_height: 35.94
; exclude_object: 0
; model_instances: 1
; HEADER_BLOCK_END

; THUMBNAIL_BLOCK_START

;
; THUMBNAIL_BLOCK_END

; external perimeters extrusion width = 0.42mm
; perimeters extrusion width = 0.45mm
; infill extrusion width = 0.45mm
; solid infill extrusion width = 0.42mm
; top infill extrusion width = 0.42mm
; support material extrusion width = 0.40mm
; first layer extrusion width = 0.50mm

; EXECUTABLE_BLOCK_START
M201 X2000 Y2000 Z800 E2000
M203 X300 Y300 Z8 E100
M204 P2000 R2000 T2000
M205 X10.00 Y10.00 Z2.00 E5.00 ; sets the jerk limits, mm/sec
;TYPE:Custom
G90 ; use absolute coordinates
M83 ; extruder relative mode
M104 S220 ; set extruder temp
M140 S60 ; set bed temp
M190 S60 ; wait for bed temp
M109 S220 ; wait for extruder temp
G28                                        ; move X/Y/Z to min endstops
G1 Z0.28                                   ; lift nozzle a bit 
G92 E0 
G1 Y3 F1800                                    ; zero the extruded length 
G1 X60  E25 F500                       ; Extrude 25mm of filament in a 5cm line. 
G92 E0                                     ; zero the extruded length again 
G1 E-2 F500                                ; Retract a little 
G1 X70 F4000                              ; Quickly wipe away from the filament line
M117
G90
G21
M82 ; use absolute distances for extrusion
G92 E0
; filament start gcode
M106 S0
;LAYER_CHANGE
;Z:0.24
;HEIGHT:0.24
; BEFORE_LAYER_CHANGE 0 @ 0.24mm
G1 E-2.5 F6000
G92 E0
; AFTER_LAYER_CHANGE 0 @ 0.24mm
;_SET_FAN_SPEED_CHANGING_LAYER
M204 P500
; printing object "GearFrame.stl" id:2175068157440 copy 0
M204 T500
G1 X177.5 Y87.525 F18000
G1 Z.24
G1 E2.5 F6000
;TYPE:Support
;WIDTH:0.5
G1 F3000
G1 X178.275 Y86.75 E2.54758
G1 X184.725 Y86.75 E2.82756
G1 X185.75 Y87.775 E2.89049
G1 X185.75 Y132.225 E4.81999
G1 X184.725 Y133.25 E4.88292
G1 X43.276 Y133.25 E11.02302
G1 X42.5 Y132.475 E11.07062
G1 X41.725 Y133.25 E11.11823
G1 X35.275 Y133.25 E11.39819
G1 X34.25 Y132.225 E11.46112
G1 X34.25 Y87.775 E13.39062
G1 X35.275 Y86.75 E13.45355
G1 X176.725 Y86.75 E19.59368
G1 X177.452 Y87.478 E19.63834
G1 E17.88834 F6000
;WIPE_START
G1 F3000
G1 X176.745 Y86.77 E17.13834
;WIPE_END
G92 E0
G1 X59.37 Y107.154 F18000
G1 E2.5 F6000
G1 F3000
G3 X59.303 Y107.159 I.168 J2.842 E3.27367
G1 E1.52367 F6000
;WIPE_START
G1 F3000
G1 X58.335 Y107.413 E.77367
;WIPE_END
G92 E0
G1 X97.567 Y107.154 F18000
G1 E2.5 F6000
G1 F3000
G3 X97.5 Y107.159 I.168 J2.842 E3.27367
G1 E1.52367 F6000
;WIPE_START
G1 F3000
G1 X96.533 Y107.413 E.77367
;WIPE_END
G92 E0
G1 X135.764 Y107.154 F18000
G1 E2.5 F6000
G1 F3000
G3 X135.697 Y107.159 I.168 J2.842 E3.27367
G1 X136.388 Y106.786 F18000
G1 F3000
G2 X135.422 Y106.782 I-.497 J3.173 E3.31579
G1 E1.56579 F6000
;WIPE_START
G1 F3000
G1 X136.388 Y106.786 E.81579
;WIPE_END
G92 E0
G1 X98.191 Y106.786 F18000
G1 E2.5 F6000
G1 F3000
G2 X97.225 Y106.782 I-.497 J3.173 E2.54212
G1 E.79212 F6000
;WIPE_START
G1 F3000
G1 X98.191 Y106.786 E.04212
;WIPE_END
G92 E0
G1 X59.994 Y106.786 F18000
G1 E2.5 F6000
G1 F3000
G2 X59.027 Y106.782 I-.497 J3.173 E2.54212
G1 E.79212 F6000
;WIPE_START
G1 F3000
G1 X59.994 Y106.786 E.04212
;WIPE_END
G92 E0
G1 X135.398 Y113.214 F18000
G1 E2.5 F6000
G1 F3000
G2 X136.233 Y113.235 I.512 J-3.762 E2.5363
G1 E.7863 F6000
;WIPE_START
G1 F3000
G1 X135.398 Y113.214 E.0363
;WIPE_END
G92 E0
G1 X97.201 Y113.214 F18000
G1 E2.5 F6000
G1 F3000
G2 X98.035 Y113.235 I.512 J-3.762 E2.5363
G1 E.7863 F6000
;WIPE_START
G1 F3000
G1 X97.201 Y113.214 E.0363
;WIPE_END
G92 E0
G1 X59.004 Y113.214 F18000
G1 E2.5 F6000
G1 F3000
G2 X59.999 Y113.214 I.498 J-3.279 E2.54338
G1 E.79338 F6000
;WIPE_START
G1 F3000
G1 X59.004 Y113.214 E.04338
;WIPE_END
G92 E0
G1 X184.821 Y87.417 F18000
G1 E2.5 F6000
G1 F3000
G1 X184.558 Y87.154 E2.51615
G1 X178.442 Y87.154 E2.78161
G1 X178.021 Y87.575 E2.80749
G1 X184.979 Y87.575 E3.10955
G1 X185.346 Y88.074 E3.13641
G1 X177.522 Y88.074 E3.47604
G1 X176.821 Y87.417 F18000
G1 F3000
G1 X176.558 Y87.154 E3.49219
G1 X35.442 Y87.154 E9.6178
G1 X35.021 Y87.575 E9.64368
G1 X176.979 Y87.575 E15.80589
G1 X177.478 Y88.074 E15.83649
G1 X34.654 Y88.074 E22.03626
G1 X34.654 Y88.572 E22.0579
G1 X185.346 Y88.572 E28.59925
G1 X185.346 Y89.07 E28.62088
G1 X34.654 Y89.07 E35.16223
G1 X34.654 Y89.569 E35.18386
G1 X185.346 Y89.569 E41.72521
G1 X185.346 Y90.067 E41.74684
G1 X34.654 Y90.067 E48.28819
G1 X34.654 Y90.565 E48.30982
G1 X185.346 Y90.565 E54.85117
G1 X185.346 Y91.064 E54.8728
G1 X34.654 Y91.064 E61.41415
G1 X34.654 Y91.562 E61.43579
G1 X185.346 Y91.562 E67.97714
G1 X185.346 Y92.06 E67.99877
G1 X34.654 Y92.06 E74.54012
G1 X34.654 Y92.559 E74.56175
G1 X185.346 Y92.559 E81.1031
G1 X185.346 Y93.057 E81.12473
G1 X34.654 Y93.057 E87.66608
G1 X34.654 Y93.555 E87.68771
G1 X185.346 Y93.555 E94.22906
G1 X185.346 Y94.054 E94.25069
G1 X34.654 Y94.054 E100.79204
G1 X34.654 Y94.552 E100.81368
G1 X185.346 Y94.552 E107.35502
G1 X185.346 Y95.05 E107.37666
G1 X34.654 Y95.05 E113.91801
G1 X34.654 Y95.548 E113.93964
G1 X185.346 Y95.548 E120.48099
G1 X185.346 Y96.047 E120.50262
G1 X34.654 Y96.047 E127.04397
G1 X34.654 Y96.545 E127.0656
G1 X185.346 Y96.545 E133.60695
G1 X185.346 Y97.043 E133.62858
G1 X34.654 Y97.043 E140.16993
G1 X34.654 Y97.542 E140.19156
G1 X185.346 Y97.542 E146.73291
G1 X185.346 Y98.04 E146.75455
G1 X34.654 Y98.04 E153.2959
G1 X34.654 Y98.538 E153.31753
G1 X185.346 Y98.538 E159.85888
G1 X185.346 Y99.037 E159.88051
G1 X34.654 Y99.037 E166.42186
G1 X34.654 Y99.535 E166.44349
G1 X185.346 Y99.535 E172.98484
G1 X185.346 Y100.033 E173.00647
G1 X34.654 Y100.033 E179.54782
G1 X34.654 Y100.532 E179.56945
G1 X185.346 Y100.532 E186.1108
G1 X185.346 Y101.03 E186.13244
G1 X34.654 Y101.03 E192.67379
G1 X34.654 Y101.528 E192.69542
G1 X185.346 Y101.528 E199.23677
G1 X185.346 Y102.027 E199.2584
G1 X34.654 Y102.027 E205.79975
G1 X34.654 Y102.525 E205.82138
G1 X185.346 Y102.525 E212.36273
G1 X185.346 Y103.023 E212.38436
G1 X34.654 Y103.023 E218.92571
G1 X34.654 Y103.522 E218.94734
G1 X185.346 Y103.522 E225.48869
G1 X185.346 Y104.02 E225.51033
G1 X34.654 Y104.02 E232.05168
G1 X34.654 Y104.518 E232.07331
G1 X185.346 Y104.518 E238.61466
G1 X185.346 Y105.017 E238.63629
G1 X34.654 Y105.017 E245.17764
G1 X34.654 Y105.515 E245.19927
G1 X185.346 Y105.515 E251.74062
G1 X185.346 Y106.013 E251.76225
G1 X34.654 Y106.013 E258.3036
G1 X34.654 Y106.512 E258.32523
G1 X185.346 Y106.512 E264.86658
G1 X185.346 Y107.01 E264.88822
G1 X137.173 Y107.01 E266.97935
G3 X137.984 Y107.508 I-1.29 J3.009 E267.02083
G1 X185.346 Y107.508 E269.07675
G1 X185.346 Y108.007 E269.09838
G1 X138.464 Y108.007 E271.13349
G3 X138.783 Y108.505 I-2.639 J2.042 E271.15921
G1 X185.346 Y108.505 E273.18047
G1 X185.346 Y109.003 E273.2021
G1 X138.99 Y109.003 E275.21437
G3 X139.108 Y109.502 I-4.915 J1.432 E275.23661
G1 X185.346 Y109.502 E277.24373
G1 X185.346 Y110 E277.26536
G1 X139.147 Y110 E279.2708
G3 X139.108 Y110.498 I-5.834 J-.202 E279.2925
G1 X185.346 Y110.498 E281.29962
G1 X185.346 Y110.997 E281.32125
G1 X138.99 Y110.997 E283.33352
G3 X138.782 Y111.495 I-4.297 J-1.499 E283.35697
G1 X185.346 Y111.495 E285.37825
G1 X185.346 Y111.993 E285.39989
G1 X138.464 Y111.993 E287.435
G3 X137.984 Y112.492 I-2.591 J-2.012 E287.46507
G1 X185.346 Y112.492 E289.52098
G1 X185.346 Y112.99 E289.54261
G1 X137.173 Y112.991 E291.63373
G3 X136.778 Y113.13 I-1.349 J-3.213 E291.65194
G1 E289.90194 F6000
;WIPE_START
G1 F3000
G1 X137.173 Y112.991 E289.58745
G1 X137.754 Y112.991 E289.15194
;WIPE_END
G92 E0
G1 X135.011 Y113.13 F18000
G1 E2.5 F6000
G1 F3000
G3 X134.615 Y112.99 I1.925 J-6.096 E2.51823
G1 X98.978 Y112.99 E4.06518
G2 X99.788 Y112.492 I-1.491 J-3.33 E4.10656
G1 X133.805 Y112.492 E5.5832
G3 X133.325 Y111.993 I2.098 J-2.5 E5.61329
G1 X100.266 Y111.993 E7.04832
G2 X100.586 Y111.495 I-2.638 J-2.042 E7.07404
G1 X133.006 Y111.495 E8.48138
G3 X132.798 Y110.997 I3.199 J-1.632 E8.50485
G1 X100.792 Y110.997 E9.89416
G2 X100.911 Y110.498 I-4.48 J-1.325 E9.9164
G1 X132.68 Y110.498 E11.29548
G3 X132.642 Y110 I5.338 J-.659 E11.31718
G1 X100.95 Y110 E12.69289
G2 X100.911 Y109.502 I-4.066 J.071 E12.7146
G1 X132.68 Y109.502 E14.09367
G3 X132.799 Y109.003 I5.169 J.97 E14.11591
G1 X100.792 Y109.003 E15.50526
G2 X100.586 Y108.505 I-4.392 J1.531 E15.5287
G1 X133.006 Y108.505 E16.93601
G3 X133.325 Y108.007 I3.855 J2.118 E16.96172
G1 X100.266 Y108.007 E18.39675
G2 X99.787 Y107.508 I-2.591 J2.012 E18.42681
G1 X133.809 Y107.503 E19.90366
G3 X134.615 Y107.01 I2.292 J2.838 E19.94479
G1 X98.976 Y107.01 E21.49183
G2 X98.581 Y106.871 I-2.29 J5.845 E21.50999
G1 E19.75999 F6000
;WIPE_START
G1 F3000
G1 X98.976 Y107.01 E19.44629
G1 X99.558 Y107.01 E19.00999
;WIPE_END
G92 E0
G1 X96.814 Y113.129 F18000
G1 E2.5 F6000
G1 F3000
G3 X96.418 Y112.99 I1.925 J-6.095 E2.51823
G1 X60.781 Y112.99 E4.06518
G2 X61.59 Y112.492 I-1.313 J-3.039 E4.10657
G1 X95.608 Y112.492 E5.58323
G3 X95.128 Y111.993 I2.098 J-2.5 E5.61331
G1 X62.069 Y111.993 E7.04834
G2 X62.388 Y111.495 I-2.639 J-2.042 E7.07407
G1 X94.809 Y111.495 E8.48141
G3 X94.602 Y110.997 I4.068 J-1.985 E8.50485
G1 X62.596 Y110.997 E9.8942
G2 X62.714 Y110.498 I-4.917 J-1.433 E9.91644
G1 X94.484 Y110.498 E11.29551
G3 X94.445 Y110 I3.325 J-.508 E11.31722
G1 X62.753 Y110 E12.69293
G2 X62.714 Y109.502 I-5.853 J.204 E12.71464
G1 X94.484 Y109.502 E14.0937
G3 X94.602 Y109.003 I4.702 J.853 E14.11594
G1 X62.595 Y109.003 E15.5053
G2 X62.388 Y108.505 I-4.393 J1.532 E15.52874
G1 X94.809 Y108.505 E16.93608
G3 X95.128 Y108.007 I2.916 J1.514 E16.96179
G1 X62.069 Y108.007 E18.39682
G2 X61.59 Y107.508 I-2.591 J2.012 E18.42689
G1 X95.612 Y107.503 E19.90374
G3 X96.418 Y107.01 I2.292 J2.838 E19.94486
G1 X60.779 Y107.01 E21.49191
G2 X60.384 Y106.87 I-2.291 J5.847 E21.51007
G1 E19.76007 F6000
;WIPE_START
G1 F3000
G1 X60.779 Y107.01 E19.44637
G1 X61.36 Y107.01 E19.01007
;WIPE_END
G92 E0
G1 X58.617 Y113.129 F18000
G1 E2.5 F6000
G1 F3000
G3 X58.219 Y112.99 I2.224 J-6.974 E2.5183
G1 X34.654 Y112.99 E3.54123
G1 X34.654 Y112.492 E3.56286
G1 X57.41 Y112.492 E4.5507
G3 X56.931 Y111.993 I2.099 J-2.5 E4.58079
G1 X34.654 Y111.993 E5.5478
G1 X34.654 Y111.495 E5.56943
G1 X56.612 Y111.495 E6.52261
G3 X56.403 Y110.997 I3.198 J-1.632 E6.54609
G1 X34.654 Y110.997 E7.49021
G1 X34.654 Y110.498 E7.51184
G1 X56.286 Y110.498 E8.45087
G3 X56.248 Y110 I5.338 J-.66 E8.47257
G1 X34.654 Y110 E9.40994
G1 X34.654 Y109.502 E9.43157
G1 X56.286 Y109.502 E10.37059
G3 X56.405 Y109.003 I5.17 J.97 E10.39283
G1 X34.654 Y109.003 E11.33701
G1 X34.654 Y108.505 E11.35864
G1 X56.611 Y108.505 E12.31179
G3 X56.931 Y108.007 I3.856 J2.119 E12.3375
G1 X34.654 Y108.007 E13.30451
G1 X34.654 Y107.508 E13.32614
G1 X57.415 Y107.503 E14.31418
G3 X58.221 Y107.01 I2.292 J2.838 E14.3553
G1 X34.654 Y107.01 E15.37831
G1 X34.654 Y106.736 E15.3902
G1 E13.6402 F6000
;WIPE_START
G1 F3000
G1 X34.654 Y107.01 E13.43464
G1 X35.38 Y107.01 E12.8902
;WIPE_END
G92 E0
G1 X43.18 Y132.583 F18000
G1 E2.5 F6000
G1 F3000
G1 X43.443 Y132.846 E2.51615
G1 X184.558 Y132.846 E8.64174
G1 X184.979 Y132.425 E8.66762
G1 X43.021 Y132.425 E14.82981
G1 X42.523 Y131.926 E14.86041
G1 X185.346 Y131.926 E21.06017
G1 X185.346 Y131.428 E21.0818
G1 X34.654 Y131.428 E27.62315
G1 X34.654 Y130.93 E27.64479
G1 X185.346 Y130.93 E34.18614
G1 X185.346 Y130.431 E34.20777
G1 X34.654 Y130.431 E40.74912
G1 X34.654 Y129.933 E40.77075
G1 X185.346 Y129.933 E47.3121
G1 X185.346 Y129.435 E47.33373
G1 X34.654 Y129.435 E53.87508
G1 X34.654 Y128.936 E53.89671
G1 X185.346 Y128.936 E60.43806
G1 X185.346 Y128.438 E60.45969
G1 X34.654 Y128.438 E67.00104
G1 X34.654 Y127.94 E67.02267
G1 X185.346 Y127.94 E73.56402
G1 X185.346 Y127.441 E73.58566
G1 X34.654 Y127.441 E80.12701
G1 X34.654 Y126.943 E80.14864
G1 X185.346 Y126.943 E86.68999
G1 X185.346 Y126.445 E86.71162
G1 X34.654 Y126.445 E93.25297
G1 X34.654 Y125.946 E93.2746
G1 X185.346 Y125.946 E99.81595
G1 X185.346 Y125.448 E99.83758
G1 X34.654 Y125.448 E106.37893
G1 X34.654 Y124.95 E106.40056
G1 X185.346 Y124.95 E112.94191
G1 X185.346 Y124.452 E112.96355
G1 X34.654 Y124.452 E119.5049
G1 X34.654 Y123.953 E119.52653
G1 X185.346 Y123.953 E126.06788
G1 X185.346 Y123.455 E126.08951
G1 X34.654 Y123.455 E132.63086
G1 X34.654 Y122.957 E132.65249
G1 X185.346 Y122.957 E139.19384
G1 X185.346 Y122.458 E139.21547
G1 X34.654 Y122.458 E145.75682
G1 X34.654 Y121.96 E145.77845
G1 X185.346 Y121.96 E152.3198
G1 X185.346 Y121.462 E152.34144
G1 X34.654 Y121.462 E158.88279
G1 X34.654 Y120.963 E158.90442
G1 X185.346 Y120.963 E165.44577
G1 X185.346 Y120.465 E165.4674
G1 X34.654 Y120.465 E172.00875
G1 X34.654 Y119.967 E172.03038
G1 X185.346 Y119.967 E178.57173
G1 X185.346 Y119.468 E178.59336
G1 X34.654 Y119.468 E185.13471
G1 X34.654 Y118.97 E185.15634
G1 X185.346 Y118.97 E191.69769
G1 X185.346 Y118.472 E191.71933
G1 X34.654 Y118.472 E198.26068
G1 X34.654 Y117.973 E198.28231
G1 X185.346 Y117.973 E204.82366
G1 X185.346 Y117.475 E204.84529
G1 X34.654 Y117.475 E211.38664
G1 X34.654 Y116.977 E211.40827
G1 X185.346 Y116.977 E217.94962
G1 X185.346 Y116.478 E217.97125
G1 X34.654 Y116.478 E224.5126
G1 X34.654 Y115.98 E224.53423
G1 X185.346 Y115.98 E231.07558
G1 X185.346 Y115.482 E231.09721
G1 X34.654 Y115.482 E237.63856
G1 X34.654 Y114.983 E237.6602
G1 X185.346 Y114.983 E244.20155
G1 X185.346 Y114.485 E244.22318
G1 X34.654 Y114.485 E250.76453
G1 X34.654 Y113.987 E250.78616
G1 X185.346 Y113.987 E257.32751
G1 X185.346 Y113.488 E257.34914
G1 X34.654 Y113.488 E263.89049
G1 X34.654 Y113.214 E263.90239
G1 E262.15239 F6000
;WIPE_START
G1 F3000
G1 X34.654 Y113.488 E261.94683
G1 X35.38 Y113.488 E261.40239
;WIPE_END
G92 E0
G1 X34.654 Y131.652 F18000
G1 E2.5 F6000
G1 F3000
G1 X34.654 Y131.926 E2.5119
G1 X42.478 Y131.926 E2.85152
G1 X41.979 Y132.425 E2.88211
G1 X35.021 Y132.425 E3.18417
G1 X35.442 Y132.846 E3.21005
G1 X41.558 Y132.846 E3.4755
G1 X41.821 Y132.583 E3.49165
; stop printing object GearFrame.stl id:2175068157440 copy 0
G1 E1.74165 F6000
;WIPE_START
G1 F3000
G1 X41.558 Y132.846 E1.46265
G1 X40.93 Y132.846 E.99165
;WIPE_END
G92 E0
M106 S102
;LAYER_CHANGE
;Z:0.54
;HEIGHT:0.3
; BEFORE_LAYER_CHANGE 1 @ 0.54mm
; AFTER_LAYER_CHANGE 1 @ 0.54mm
;_SET_FAN_SPEED_CHANGING_LAYER
M204 P2000
M104 S190 ; set nozzle temperature
; printing object "GearFrame.stl" id:2175068157440 copy 0
M204 T2000
G1 X43.679 Y131.128 Z.54 F18000
G1 E2.5 F6000
;TYPE:Support interface
;WIDTH:0.4
G1 F4800
G2 X43.867 Y131.821 I.441 J.252 E2.53241
G1 X44.551 Y131.821 E2.56016
G1 X43.679 Y130.95 E2.61023
G1 X43.678 Y129.737 E2.65946
G1 X45.763 Y131.821 E2.77916
G1 X46.975 Y131.821 E2.82837
G1 X43.678 Y128.525 E3.01769
G1 X43.678 Y127.312 E3.06692
G1 X48.187 Y131.821 E3.32587
G1 X49.399 Y131.821 E3.37509
G1 X43.677 Y126.1 E3.70366
G1 X43.677 Y125.06 E3.74586
G1 E1.99586 F6000
;WIPE_START
G1 F4800
G1 X43.677 Y126.06 E1.24586
;WIPE_END
G92 E0
G1 X42.441 Y123.824 F18000
G1 E2.5 F6000
G1 F4800
G2 X41.72 Y124.118 I.076 J1.218 E2.53215
G1 X35.679 Y118.101 E2.87837
G1 X35.679 Y119.313 E2.92759
G1 X41.324 Y124.958 E3.25175
G2 X41.322 Y126.168 I12.062 J.625 E3.30091
G1 X35.679 Y120.525 E3.62496
G1 X35.679 Y121.737 E3.67418
G1 X41.322 Y127.38 E3.99823
G1 X41.322 Y128.592 E4.04744
G1 X35.679 Y122.949 E4.37148
G1 X35.679 Y124.161 E4.4207
G1 X41.321 Y129.804 E4.74474
G1 X41.321 Y131.016 E4.79395
G1 X35.679 Y125.373 E5.11798
G1 X35.679 Y126.585 E5.1672
G1 X40.915 Y131.821 E5.46787
G1 X39.702 Y131.821 E5.51708
G1 X35.679 Y127.798 E5.74815
