; HEADER_BLOCK_START
; generated by AnycubicSlicerNext 1.3.3.1 on 2025-03-02 at 18:31:23
; total layer number: 80
; filament_density: 1.24
; filament_diameter: 1.75
; max_z_height: 16.04
; exclude_object: 0
; model_instances: 1
; HEADER_BLOCK_END

; THUMBNAIL_BLOCK_START
; THUMBNAIL_BLOCK_END

; external perimeters extrusion width = 0.42mm
; perimeters extrusion width = 0.45mm
; infill extrusion width = 0.45mm
; solid infill extrusion width = 0.42mm
; top infill extrusion width = 0.42mm
; support material extrusion width = 0.40mm
; first layer extrusion width = 0.50mm

; EXECUTABLE_BLOCK_START
M201 X2000 Y2000 Z800 E2000
M203 X300 Y300 Z8 E100
M204 P2000 R2000 T2000
M205 X10.00 Y10.00 Z2.00 E5.00 ; sets the jerk limits, mm/sec
;TYPE:Custom
G90 ; use absolute coordinates
M83 ; extruder relative mode
M104 S220 ; set extruder temp
M140 S60 ; set bed temp
M190 S60 ; wait for bed temp
M109 S220 ; wait for extruder temp
G28                                        ; move X/Y/Z to min endstops
G1 Z0.28                                   ; lift nozzle a bit 
G92 E0 
G1 Y3 F1800                                    ; zero the extruded length 
G1 X60  E25 F500                       ; Extrude 25mm of filament in a 5cm line. 
G92 E0                                     ; zero the extruded length again 
G1 E-2 F500                                ; Retract a little 
G1 X70 F4000                              ; Quickly wipe away from the filament line
M117
G90
G21
M83 ; use relative distances for extrusion
; filament start gcode
M106 S0
;LAYER_CHANGE
;Z:0.24
;HEIGHT:0.24
; BEFORE_LAYER_CHANGE 0 @ 0.24mm
G92 E0
G1 E-2.5 F6000
; AFTER_LAYER_CHANGE 0 @ 0.24mm
M204 P500
; printing object "Cyclo2Case.stl" id:2287424896256 copy 0
M204 T500
G1 X93.474 Y75.89 F18000
G1 Z.24
G1 E2.5 F6000
;TYPE:Support
;WIDTH:0.5
;MM3_PER_MM:0.107639
G1 F3000
G3 X97.393 Y77.789 I-.57 J6.167 E.19313
G1 X97.361 Y77.802 E.00149
G2 X88.334 Y83.036 I12.635 J32.187 E.4547
G3 X93.407 Y75.887 I5.1 J-1.756 E.44426
G1 X96.545 Y77.916 F18000
G1 F3000
G2 X96.047 Y77.128 I-.651 J-.14 E.04486
G1 X96.047 Y77.908 E.03388
G2 X95.548 Y78.13 I9.406 J21.831 E.02367
G1 X95.548 Y76.82 E.05685
G1 X95.05 Y76.607 E.02352
G1 X95.05 Y78.361 E.07615
G2 X94.552 Y78.601 I10.308 J22.12 E.02399
G1 X94.552 Y76.45 E.09338
G1 X94.054 Y76.336 E.02219
G1 X94.054 Y78.851 E.10918
G2 X93.555 Y79.111 I10.777 J21.238 E.02441
G1 X93.456 Y76.293 E.1224
G2 X93.057 Y76.281 I-.234 J1.094 E.01744
G1 X93.057 Y79.382 E.1346
G1 X92.952 Y79.44 E.00521
G2 X92.559 Y79.664 I12.887 J23.048 E.01965
G1 X92.559 Y76.349 E.14392
G2 X92.06 Y76.445 I.017 J1.421 E.02215
G1 X92.06 Y79.955 E.15236
G1 X91.917 Y80.041 E.00726
G2 X91.562 Y80.258 I15.668 J25.968 E.01806
G1 X91.562 Y76.607 E.15848
G2 X91.064 Y76.835 I.379 J1.487 E.02392
G1 X91.064 Y80.574 E.16229
G2 X90.565 Y80.899 I11.205 J17.688 E.02584
G1 X90.565 Y77.111 E.16443
G1 X90.067 Y77.509 E.02767
G1 X90.067 Y81.238 E.16188
G2 X89.569 Y81.59 I20.375 J29.352 E.02649
G1 X89.569 Y78.024 E.15482
G2 X89.07 Y78.73 I1.696 J1.726 E.03772
G1 X89.07 Y81.955 E.13999
G2 X88.572 Y82.335 I15.898 J21.39 E.02719
G1 X88.572 Y79.289 E.13218
G1 E-1.75 F6000
;WIPE_START
G1 F3000
G1 X88.572 Y80.289 E-.75
;WIPE_END
G1 X75.709 Y105.461 F18000
G1 E2.5 F6000
G1 F3000
G2 X75.824 Y115.328 I34.293 J4.534 E.4298
G3 X75.793 Y104.867 I.893 J-5.233 E.6447
G1 X75.718 Y105.395 E.02314
G1 X75.117 Y114.943 F18000
G1 F3000
G1 X75.117 Y105.461 E.4116
G2 X74.619 Y105.656 I.29 J1.472 E.02336
G1 X74.619 Y114.535 E.3854
G1 X74.12 Y114.266 E.02458
G1 X74.12 Y105.925 E.36205
G2 X73.622 Y106.292 I.761 J1.557 E.02699
G1 X73.622 Y113.899 E.33024
G3 X73.124 Y113.437 I1.027 J-1.606 E.02968
G1 X73.124 Y106.754 E.29008
G2 X72.625 Y107.381 I1.48 J1.688 E.03494
G1 X72.625 Y112.81 E.23568
G3 X72.127 Y111.825 I2.469 J-1.868 E.04819
G1 X72.127 Y107.822 E.17374
G1 E-1.75 F6000
;WIPE_START
G1 F3000
G1 X72.127 Y108.822 E-.75
;WIPE_END
G1 X87.884 Y136.597 F18000
G1 E2.5 F6000
G1 F3000
G2 X96.818 Y141.98 I22.131 J-26.624 E.4545
G3 X87.842 Y136.59 I-4.011 J-3.49 E.6441
G1 X96.047 Y142.444 F18000
G1 F3000
G1 X96.047 Y142.092 E.0153
G3 X95.548 Y141.87 I7.937 J-18.485 E.02368
G3 X95.05 Y142.861 I-.757 J.241 E.05335
G1 X95.05 Y141.64 E.05303
G3 X94.552 Y141.399 I40.473 J-84.53 E.02402
G1 X94.552 Y143.074 E.07267
G3 X94.054 Y143.235 I-.695 J-1.294 E.02286
G1 X94.054 Y141.149 E.09056
G3 X93.555 Y140.889 I10.803 J-21.288 E.02441
G1 X93.555 Y143.348 E.10677
G3 X93.057 Y143.39 I-.363 J-1.354 E.02182
G1 X93.057 Y140.617 E.12035
G3 X92.559 Y140.337 I9.776 J-17.979 E.02481
G1 X92.559 Y143.41 E.13338
G1 X92.06 Y143.342 E.02183
G1 X92.06 Y140.045 E.14311
G1 X91.917 Y139.96 E.00725
G3 X91.562 Y139.742 I15.693 J-26.008 E.01806
G1 X91.562 Y143.249 E.15222
G1 X91.064 Y143.087 E.02275
G1 X91.064 Y139.428 E.15883
G3 X90.565 Y139.1 I18.877 J-29.287 E.02588
G1 X90.565 Y142.862 E.16329
G3 X90.067 Y142.59 I.503 J-1.512 E.02478
G1 X90.067 Y138.761 E.16622
G3 X89.569 Y138.41 I12.054 J-17.656 E.02645
G1 X89.569 Y142.193 E.16421
G3 X89.07 Y141.683 I1.157 J-1.63 E.0311
G1 X89.07 Y138.045 E.15793
G3 X88.572 Y137.665 I15.91 J-21.407 E.02719
G1 X88.572 Y140.986 E.14413
G3 X88.074 Y139.869 I2.831 J-1.933 E.05335
G1 X88.074 Y137.013 E.12398
G1 E-1.75 F6000
;WIPE_START
G1 F3000
G1 X88.074 Y138.013 E-.75
;WIPE_END
G1 X131.967 Y137.837 F18000
G1 E2.5 F6000
G1 F3000
G3 X129.731 Y143.153 I-5.295 J.901 E.26425
G3 X122.659 Y142.191 I-3.006 J-4.376 E.33976
G2 X131.716 Y136.924 I-12.656 J-32.185 E.45656
G1 X131.949 Y137.772 E.03817
G1 X131.428 Y140.775 F18000
G1 F3000
G1 X131.428 Y137.666 E.135
G1 X131.309 Y137.758 E.00655
G3 X130.93 Y138.045 I-21.14 J-27.538 E.02065
G1 X130.93 Y141.332 E.14266
G1 X130.431 Y142.017 E.03677
G1 X130.431 Y138.41 E.15658
G3 X129.933 Y138.762 I-20.874 J-29 E.02649
G1 X129.933 Y142.494 E.162
G3 X129.435 Y142.864 I-2.175 J-2.403 E.027
G1 X129.435 Y139.101 E.16338
G3 X128.936 Y139.426 I-11.703 J-17.362 E.02584
G1 X128.936 Y143.165 E.16231
G1 X128.438 Y143.379 E.02353
G1 X128.438 Y139.742 E.15785
G3 X127.94 Y140.045 I-13.127 J-21.034 E.02532
G1 X127.94 Y143.531 E.1513
G1 X127.441 Y143.645 E.02219
G1 X127.441 Y140.336 E.14362
G3 X126.943 Y140.618 I-10.532 J-18.02 E.02486
G1 X126.943 Y143.677 E.13278
G3 X126.445 Y143.689 I-.281 J-1.369 E.02175
G1 X126.445 Y140.889 E.12154
G3 X125.946 Y141.149 I-11.275 J-20.977 E.02441
G1 X125.946 Y143.622 E.10733
G3 X125.448 Y143.519 I.033 J-1.425 E.0222
G1 X125.417 Y141.415 E.09137
G3 X124.95 Y141.639 I-13.301 J-27.187 E.0225
G1 X124.95 Y143.358 E.07464
G3 X124.452 Y143.124 I.397 J-1.491 E.02404
G1 X124.452 Y141.87 E.05441
G1 X124.333 Y141.924 E.00565
G2 X123.953 Y142.839 I.126 J.589 E.05052
G3 X123.455 Y142.084 I.051 J-.576 E.04513
G1 E-1.75 F6000
;WIPE_START
G1 F3000
G1 X123.455 Y142.443 E-.26942
G1 X123.953 Y142.839 E-.47754
G1 X123.953 Y142.835 E-.00304
;WIPE_END
G1 X144.939 Y105.012 F18000
G1 E2.5 F6000
G1 F3000
G3 X144.179 Y115.314 I-1.672 J5.056 E.61256
G1 X144.194 Y115.224 E.00393
G2 X144.203 Y104.843 I-34.215 J-5.221 E.45235
G1 X144.873 Y104.997 E.02987
G1 X147.873 Y112.313 F18000
G1 F3000
G1 X147.873 Y108.304 E.17406
G2 X147.375 Y107.364 I-2.841 J.905 E.04641
G1 X147.375 Y112.787 E.23541
G3 X146.876 Y113.424 I-2.006 J-1.056 E.0353
G1 X146.876 Y106.727 E.29071
G1 X146.378 Y106.25 E.02996
G1 X146.378 Y113.902 E.33216
G3 X145.88 Y114.237 I-1.174 J-1.206 E.02622
G1 X145.88 Y105.914 E.36128
G2 X145.381 Y105.641 I-1.003 J1.237 E.02481
G1 X145.381 Y114.51 E.38501
G1 X144.883 Y114.724 E.02354
G1 X144.883 Y105.208 E.4131
G1 E-1.75 F6000
;WIPE_START
G1 F3000
G1 X144.883 Y106.208 E-.75
;WIPE_END
G1 X126.654 Y75.764 F18000
G1 E2.5 F6000
G1 F3000
G3 X131.488 Y82.894 I-.178 J5.323 E.43544
G1 X131.436 Y82.852 E.00287
G2 X122.383 Y77.703 I-21.463 J27.199 E.45382
G3 X126.587 Y75.761 I4.421 J4.051 E.20637
G1 X130.93 Y82.207 F18000
G1 F3000
G1 X130.93 Y78.994 E.13949
G2 X130.431 Y78.156 I-2.557 J.954 E.04254
G1 X130.431 Y81.59 E.14908
G1 X130.347 Y81.529 E.00454
G2 X129.933 Y81.238 I-55.096 J77.851 E.02195
G1 X129.933 Y77.58 E.15879
G2 X129.435 Y77.14 I-1.463 J1.153 E.02902
G1 X129.435 Y80.9 E.16322
G2 X128.936 Y80.572 I-19.418 J29.024 E.02588
G1 X128.936 Y76.811 E.16329
G2 X128.438 Y76.571 I-.911 J1.253 E.02414
G1 X128.438 Y80.258 E.16006
G2 X127.94 Y79.955 I-13.129 J21.038 E.02532
G1 X127.94 Y76.371 E.15556
G1 X127.441 Y76.258 E.02219
G1 X127.441 Y79.663 E.14782
G2 X126.943 Y79.383 I-10.316 J17.771 E.02482
G1 X126.943 Y76.182 E.13896
G1 X126.445 Y76.159 E.02165
G1 X126.445 Y79.111 E.12815
G2 X125.946 Y78.851 I-11.281 J20.987 E.02441
G1 X125.946 Y76.195 E.11531
G1 X125.448 Y76.262 E.02183
G1 X125.448 Y78.602 E.10157
G2 X124.95 Y78.361 I-8.734 J17.406 E.02403
G1 X124.95 Y76.414 E.08452
G2 X124.452 Y76.597 I.257 J1.465 E.02318
G1 X124.452 Y78.13 E.06653
G2 X123.953 Y77.91 I-8.275 J18.048 E.02365
G1 X123.953 Y76.866 E.04532
G2 X123.455 Y77.915 I.267 J.77 E.05614
G1 E-1.75 F6000
;WIPE_START
G1 F3000
G1 X123.455 Y77.217 E-.52339
G1 X123.702 Y77.043 E-.22661
;WIPE_END
G1 X123.02 Y79.026 F18000
G1 E2.5 F6000
;TYPE:Brim
G1 F3000
G1 X123.068 Y79.044 E.0022
G1 X124.536 Y79.706 E.0699
G1 X125.97 Y80.437 E.06987
G1 X127.42 Y81.267 E.07253
G1 X128.775 Y82.134 E.06984
G1 X130.224 Y83.167 E.07726
G1 X131.486 Y84.166 E.06986
G1 X132.698 Y85.225 E.06987
G1 X133.859 Y86.34 E.06987
G1 X134.965 Y87.51 E.06988
G1 X136.051 Y88.778 E.07249
G1 X137.039 Y90.052 E.06997
G1 X138.054 Y91.506 E.07699
G1 X138.909 Y92.874 E.07003
G1 X139.696 Y94.278 E.06987
G1 X140.441 Y95.774 E.0725
G1 X141.087 Y97.248 E.06986
G1 X141.718 Y98.911 E.07722
G1 X142.213 Y100.443 E.06989
G1 X142.648 Y102.055 E.07251
G1 X142.991 Y103.628 E.06986
G1 X143.259 Y105.216 E.06988
G1 X143.45 Y106.816 E.06996
G1 X143.571 Y108.589 E.07714
G1 X143.6 Y110.198 E.06987
G1 X143.552 Y111.807 E.06988
G1 X143.421 Y113.472 E.07251
G1 X143.216 Y115.069 E.06987
G1 X142.935 Y116.656 E.06997
G1 X142.537 Y118.388 E.07714
G1 X142.098 Y119.936 E.06984
G1 X141.585 Y121.462 E.06991
G1 X140.977 Y123.018 E.0725
G1 X140.318 Y124.486 E.06986
G1 X139.509 Y126.07 E.07722
G1 X138.705 Y127.466 E.0699
G1 X137.836 Y128.82 E.06987
G1 X136.865 Y130.182 E.07259
G1 X135.763 Y131.571 E.07698
G1 X134.697 Y132.783 E.07003
G1 X133.589 Y133.928 E.06918
G1 X132.404 Y135.041 E.07056
G1 X131.131 Y136.125 E.0726
G1 X129.72 Y137.206 E.07715
G1 X128.395 Y138.119 E.06983
G1 X127.027 Y138.968 E.06991
G1 X125.62 Y139.75 E.06987
G1 X124.122 Y140.489 E.0725
G1 X122.646 Y141.131 E.06987
G1 X121.14 Y141.7 E.06987
G1 X119.594 Y142.202 E.07055
G1 X118.056 Y142.621 E.06923
G1 X116.483 Y142.97 E.06993
G1 X114.734 Y143.266 E.07699
G1 X113.132 Y143.455 E.07003
G1 X111.466 Y143.569 E.0725
G1 X109.857 Y143.601 E.06986
G1 X108.078 Y143.546 E.07723
G1 X106.474 Y143.415 E.0699
G1 X104.817 Y143.199 E.07251
G1 X103.308 Y142.928 E.06654
G1 X101.723 Y142.566 E.07057
G1 X100.173 Y142.132 E.06987
G1 X98.588 Y141.604 E.07253
G1 X97.086 Y141.02 E.06995
G1 X95.618 Y140.367 E.06976
G1 X94.033 Y139.565 E.07709
G1 X92.58 Y138.733 E.07268
G1 X91.212 Y137.858 E.07051
G1 X89.912 Y136.935 E.06923
G1 X88.514 Y135.834 E.07724
G1 X87.302 Y134.775 E.06986
G1 X86.141 Y133.66 E.06987
G1 X85.035 Y132.49 E.06988
G1 X83.987 Y131.269 E.06987
G1 X82.962 Y129.949 E.07253
G1 X82.038 Y128.632 E.06985
G1 X81.178 Y127.271 E.06988
G1 X80.383 Y125.869 E.06996
G1 X79.585 Y124.281 E.07714
G1 X78.913 Y122.752 E.07252
G1 X78.282 Y121.089 E.07719
G1 X77.787 Y119.557 E.06989
G1 X77.366 Y118.003 E.06988
G1 X77.009 Y116.372 E.0725
G1 X76.741 Y114.785 E.06987
G1 X76.55 Y113.184 E.06996
G1 X76.429 Y111.411 E.07715
G1 X76.4 Y109.802 E.06986
G1 X76.448 Y108.193 E.06988
G1 X76.579 Y106.527 E.07254
G1 X76.784 Y104.931 E.06984
G1 X77.068 Y103.331 E.07055
G1 X77.421 Y101.776 E.06921
G1 X77.902 Y100.064 E.0772
G1 X78.415 Y98.538 E.06989
G1 X79.023 Y96.982 E.0725
G1 X79.682 Y95.514 E.06986
G1 X80.491 Y93.93 E.07721
G1 X81.295 Y92.534 E.0699
G1 X82.164 Y91.18 E.06987
G1 X83.134 Y89.819 E.07252
G1 X84.24 Y88.426 E.07721
G1 X85.303 Y87.217 E.06988
G1 X86.411 Y86.072 E.06918
G1 X87.596 Y84.959 E.07056
G1 X88.869 Y83.875 E.0726
G1 X90.28 Y82.794 E.07715
G1 X91.605 Y81.881 E.06983
G1 X92.973 Y81.032 E.06991
G1 X94.38 Y80.25 E.06987
G1 X95.878 Y79.511 E.0725
G1 X97.354 Y78.869 E.06987
G1 X98.86 Y78.3 E.06988
G1 X100.393 Y77.802 E.06998
G1 X101.946 Y77.379 E.06986
G1 X103.678 Y76.999 E.07699
G1 X105.27 Y76.734 E.07003
G1 X106.928 Y76.54 E.0725
G1 X108.534 Y76.431 E.06987
G1 X110.149 Y76.399 E.07009
G1 X111.922 Y76.454 E.077
G1 X113.526 Y76.585 E.0699
G1 X115.183 Y76.801 E.0725
G1 X116.782 Y77.091 E.07055
G1 X118.276 Y77.434 E.06657
G1 X119.9 Y77.891 E.0732
G1 X121.411 Y78.396 E.06919
G1 X122.983 Y79.011 E.07326
G1 X122.82 Y79.429 F18000
G1 F3000
G1 X122.89 Y79.456 E.0033
G1 X124.339 Y80.109 E.06895
G1 X125.759 Y80.833 E.06921
G1 X127.184 Y81.649 E.07129
G1 X128.527 Y82.507 E.06916
G1 X129.952 Y83.524 E.07598
G1 X131.196 Y84.509 E.06891
G1 X132.393 Y85.553 E.06894
G1 X133.542 Y86.658 E.06922
G1 X134.633 Y87.813 E.06894
G1 X135.706 Y89.064 E.07154
G1 X136.68 Y90.321 E.06901
G1 X137.678 Y91.751 E.07571
G1 X138.522 Y93.1 E.06908
G1 X139.301 Y94.491 E.06921
G1 X140.033 Y95.961 E.07127
G1 X140.673 Y97.42 E.06918
G1 X141.294 Y99.056 E.07594
G1 X141.782 Y100.567 E.06893
G1 X142.212 Y102.159 E.07156
G1 X142.55 Y103.71 E.06892
G1 X142.815 Y105.283 E.06923
G1 X143.003 Y106.861 E.06901
G1 X143.123 Y108.605 E.07587
G1 X143.152 Y110.192 E.06891
G1 X143.104 Y111.786 E.06922
G1 X142.975 Y113.423 E.07127
G1 X142.772 Y115.004 E.06921
G1 X142.495 Y116.57 E.06902
G1 X142.103 Y118.273 E.07587
G1 X141.671 Y119.8 E.06889
G1 X141.163 Y121.312 E.06925
G1 X140.562 Y122.847 E.07155
G1 X139.912 Y124.295 E.0689
G1 X139.116 Y125.853 E.07594
G1 X138.323 Y127.23 E.06895
G1 X137.462 Y128.572 E.06921
G1 X136.504 Y129.915 E.07162
G1 X135.42 Y131.281 E.0757
G1 X134.37 Y132.476 E.06908
G1 X133.277 Y133.607 E.06825
G1 X132.103 Y134.709 E.0699
G1 X130.846 Y135.778 E.07162
G1 X129.459 Y136.841 E.07586
G1 X128.152 Y137.741 E.06888
G1 X126.796 Y138.582 E.06925
G1 X125.408 Y139.354 E.06894
G1 X123.936 Y140.081 E.07127
G1 X122.48 Y140.714 E.06893
G1 X120.989 Y141.278 E.06922
G1 X119.469 Y141.771 E.06934
G1 X117.945 Y142.186 E.06858
G1 X116.393 Y142.53 E.06898
G1 X114.674 Y142.821 E.07571
G1 X113.094 Y143.008 E.06906
G1 X111.449 Y143.121 E.07155
G1 X109.862 Y143.152 E.06889
G1 X108.107 Y143.098 E.07624
G1 X106.524 Y142.97 E.06893
G1 X104.889 Y142.756 E.07157
G1 X103.401 Y142.489 E.06562
G1 X101.837 Y142.132 E.06964
G1 X100.302 Y141.702 E.0692
G1 X98.744 Y141.183 E.0713
G1 X97.256 Y140.605 E.06929
G1 X95.807 Y139.961 E.06881
G1 X94.249 Y139.172 E.0758
G1 X92.816 Y138.351 E.07171
G1 X91.466 Y137.487 E.06957
G1 X90.178 Y136.573 E.06856
G1 X88.803 Y135.491 E.07596
G1 X87.607 Y134.447 E.06891
G1 X86.458 Y133.342 E.06922
G1 X85.367 Y132.187 E.06895
G1 X84.332 Y130.982 E.06893
G1 X83.325 Y129.685 E.0713
G1 X82.409 Y128.38 E.06919
G1 X81.561 Y127.038 E.06894
G1 X80.777 Y125.655 E.06901
G1 X79.993 Y124.093 E.07585
G1 X79.327 Y122.579 E.07182
G1 X78.706 Y120.944 E.0759
G1 X78.218 Y119.433 E.06894
G1 X77.801 Y117.894 E.06922
G1 X77.45 Y116.29 E.07127
G1 X77.185 Y114.717 E.06921
G1 X76.997 Y113.139 E.06901
G1 X76.877 Y111.395 E.07587
G1 X76.848 Y109.808 E.06891
G1 X76.896 Y108.214 E.06922
G1 X77.025 Y106.577 E.0713
G1 X77.227 Y105.002 E.0689
G1 X77.508 Y103.417 E.0699
G1 X77.857 Y101.883 E.06826
G1 X78.33 Y100.199 E.07592
G1 X78.837 Y98.688 E.06922
G1 X79.438 Y97.153 E.07155
G1 X80.088 Y95.705 E.0689
G1 X80.884 Y94.147 E.07594
G1 X81.677 Y92.77 E.06895
G1 X82.538 Y91.428 E.06921
G1 X83.495 Y90.086 E.07155
G1 X84.582 Y88.716 E.07592
G1 X85.63 Y87.524 E.06893
G1 X86.723 Y86.393 E.06825
G1 X87.897 Y85.291 E.0699
G1 X89.154 Y84.222 E.07162
G1 X90.541 Y83.159 E.07586
G1 X91.848 Y82.259 E.06888
G1 X93.204 Y81.418 E.06925
G1 X94.592 Y80.646 E.06894
G1 X96.064 Y79.919 E.07127
G1 X97.52 Y79.286 E.06892
G1 X99.011 Y78.722 E.06922
G1 X100.524 Y78.231 E.06905
G1 X102.056 Y77.814 E.06891
G1 X103.76 Y77.44 E.07572
G1 X105.336 Y77.177 E.06936
G1 X106.966 Y76.987 E.07126
G1 X108.557 Y76.879 E.06921
G1 X110.149 Y76.848 E.06914
