; HEADER_BLOCK_START
; generated by AnycubicSlicerNext 1.3.3.1 on 2025-03-02 at 18:31:50
; total layer number: 35
; filament_density: 1.24
; filament_diameter: 1.75
; max_z_height: 7.04
; exclude_object: 0
; model_instances: 1
; HEADER_BLOCK_END

; THUMBNAIL_BLOCK_START
; THUMBNAIL_BLOCK_END

; external perimeters extrusion width = 0.42mm
; perimeters extrusion width = 0.45mm
; infill extrusion width = 0.45mm
; solid infill extrusion width = 0.42mm
; top infill extrusion width = 0.42mm
; support material extrusion width = 0.40mm
; first layer extrusion width = 0.50mm

; EXECUTABLE_BLOCK_START
M201 X2000 Y2000 Z800 E2000
M203 X300 Y300 Z8 E100
M204 P2000 R2000 T2000
M205 X10.00 Y10.00 Z2.00 E5.00 ; sets the jerk limits, mm/sec
;TYPE:Custom
G90 ; use absolute coordinates
M83 ; extruder relative mode
M104 S220 ; set extruder temp
M140 S60 ; set bed temp
M190 S60 ; wait for bed temp
M109 S220 ; wait for extruder temp
G28                                        ; move X/Y/Z to min endstops
G1 Z0.28                                   ; lift nozzle a bit 
G92 E0 
G1 Y3 F1800                                    ; zero the extruded length 
G1 X60  E25 F500                       ; Extrude 25mm of filament in a 5cm line. 
G92 E0                                     ; zero the extruded length again 
G1 E-2 F500                                ; Retract a little 
G1 X70 F4000                              ; Quickly wipe away from the filament line
M117
G90
G21
M83 ; use relative distances for extrusion
; filament start gcode
M106 S0
;LAYER_CHANGE
;Z:0.24
;HEIGHT:0.24
; BEFORE_LAYER_CHANGE 0 @ 0.24mm
G92 E0
G1 E-2.5 F6000
; AFTER_LAYER_CHANGE 0 @ 0.24mm
M204 P500
; printing object "Cyclo2Disk.stl" id:7885642849935715695 copy 0
M204 T500
G1 X89.798 Y89.459 F18000
G1 Z.24
G1 E2.5 F6000
;TYPE:Brim
;WIDTH:0.5
;MM3_PER_MM:0.107639
G1 F3000
G1 X90.182 Y89.096 E.02294
G1 X90.584 Y88.756 E.02285
G1 X90.998 Y88.444 E.02252
G1 X91.659 Y88.013 E.03423
G1 X92.087 Y87.773 E.02128
G1 X92.702 Y87.475 E.02967
G1 X93.333 Y87.222 E.0295
G1 X93.93 Y87.027 E.02727
G1 X94.034 Y86.954 E.00553
G1 X94.46 Y86.425 E.02949
G1 X94.923 Y85.922 E.02967
G1 X95.423 Y85.45 E.02981
G1 X95.8 Y85.135 E.02135
G1 X96.439 Y84.67 E.03431
G1 X96.88 Y84.394 E.02256
G1 X97.341 Y84.139 E.02287
G1 X97.817 Y83.909 E.02294
G1 X98.304 Y83.707 E.02291
G1 X98.798 Y83.533 E.02274
G1 X99.292 Y83.388 E.02236
G1 X100.01 Y83.228 E.03192
G1 X100.485 Y83.153 E.02088
G1 X101.197 Y83.086 E.03103
G1 X101.798 Y83.069 E.02613
G1 X102.239 Y83.079 E.01911
G1 X102.363 Y83.044 E.00561
G1 X102.949 Y82.676 E.03004
G1 X103.742 Y82.259 E.03888
G1 X104.639 Y81.892 E.04208
G1 X105.394 Y81.662 E.03427
G1 X106.141 Y81.498 E.03318
G1 X106.662 Y81.421 E.02286
G1 X107.191 Y81.373 E.02305
G1 X107.996 Y81.355 E.03498
G1 X108.745 Y81.4 E.03257
G1 X109.712 Y81.547 E.04245
G1 X110.59 Y81.769 E.03929
G1 X111.385 Y82.045 E.03656
G1 X111.508 Y82.052 E.00531
G1 X112.435 Y81.845 E.04123
G1 X113.343 Y81.73 E.03973
G1 X113.827 Y81.704 E.02105
G1 X114.327 Y81.702 E.02174
G1 X115.08 Y81.75 E.03272
G1 X115.883 Y81.867 E.03522
G1 X116.398 Y81.98 E.02288
G1 X116.905 Y82.12 E.02284
G1 X117.624 Y82.373 E.0331
G1 X118.34 Y82.692 E.03404
G1 X118.961 Y83.029 E.03067
G1 X119.716 Y83.523 E.03917
G1 X120.368 Y84.035 E.03596
G1 X120.486 Y84.082 E.0055
G1 X121.024 Y84.131 E.02346
G1 X121.63 Y84.222 E.02659
G1 X122.335 Y84.376 E.03133
G1 X122.801 Y84.51 E.02105
G1 X123.498 Y84.758 E.03211
G1 X123.974 Y84.963 E.02247
G1 X124.443 Y85.197 E.02278
G1 X124.902 Y85.458 E.02293
G1 X125.346 Y85.745 E.02294
G1 X125.771 Y86.054 E.02282
G1 X126.173 Y86.381 E.0225
G1 X126.748 Y86.918 E.03413
G1 X127.082 Y87.274 E.0212
G1 X127.515 Y87.797 E.02949
G1 X127.91 Y88.345 E.02931
G1 X128.217 Y88.832 E.02497
G1 X128.313 Y88.916 E.00553
G1 X128.977 Y89.222 E.03178
G1 X129.762 Y89.664 E.03908
G1 X130.56 Y90.22 E.04223
G1 X131.164 Y90.73 E.03432
G1 X131.707 Y91.269 E.03323
G1 X132.055 Y91.665 E.02287
G1 X132.38 Y92.08 E.02287
G1 X132.834 Y92.75 E.03512
G1 X133.202 Y93.402 E.03251
G1 X133.602 Y94.291 E.04233
G1 X133.892 Y95.144 E.0391
G1 X134.085 Y95.922 E.03479
G1 X134.145 Y96.028 E.00531
G1 X134.854 Y96.722 E.04308
G1 X135.284 Y97.218 E.02848
G1 X135.575 Y97.598 E.02076
G1 X136.007 Y98.242 E.03366
G1 X136.263 Y98.686 E.02226
G1 X136.499 Y99.152 E.02269
G1 X136.711 Y99.635 E.02289
G1 X136.896 Y100.129 E.02289
G1 X137.117 Y100.867 E.03347
G1 X137.231 Y101.371 E.02241
G1 X137.352 Y102.147 E.03409
G1 X137.395 Y102.632 E.02115
G1 X137.414 Y103.309 E.0294
G1 X137.386 Y103.982 E.02921
G1 X137.332 Y104.528 E.02383
G1 X137.357 Y104.655 E.0056
G1 X137.627 Y105.167 E.02514
G1 X137.881 Y105.728 E.02676
G1 X138.136 Y106.407 E.03147
G1 X138.278 Y106.873 E.02111
G1 X138.448 Y107.595 E.0322
G1 X138.534 Y108.105 E.02248
G1 X138.592 Y108.627 E.0228
G1 X138.621 Y109.155 E.02293
G1 X138.621 Y109.683 E.02294
G1 X138.593 Y110.208 E.02279
G1 X138.536 Y110.722 E.02246
G1 X138.397 Y111.494 E.03405
G1 X138.279 Y111.967 E.02115
G1 X138.077 Y112.612 E.02934
G1 X137.832 Y113.238 E.02918
G1 X137.609 Y113.725 E.02325
G1 X137.591 Y113.852 E.0056
G1 X137.681 Y114.438 E.02571
G1 X137.739 Y115.053 E.02681
G1 X137.759 Y115.779 E.03152
G1 X137.741 Y116.265 E.02114
G1 X137.666 Y117.004 E.03222
G1 X137.581 Y117.513 E.02241
G1 X137.39 Y118.304 E.03533
G1 X137.231 Y118.807 E.02287
G1 X137.044 Y119.3 E.02289
G1 X136.833 Y119.777 E.02267
G1 X136.6 Y120.235 E.02228
G1 X136.228 Y120.86 E.03161
G1 X135.679 Y121.625 E.04086
G1 X135.245 Y122.135 E.02905
G1 X134.885 Y122.513 E.02267
G1 X134.826 Y122.626 E.00552
G1 X134.68 Y123.399 E.03416
G1 X134.438 Y124.272 E.03933
G1 X134.088 Y125.184 E.0424
G1 X133.736 Y125.894 E.0344
G1 X133.341 Y126.551 E.03328
G1 X133.04 Y126.983 E.02287
G1 X132.715 Y127.398 E.02287
G1 X132.173 Y127.998 E.03507
G1 X131.629 Y128.51 E.03243
G1 X130.865 Y129.109 E.04214
G1 X130.112 Y129.591 E.03882
G1 X129.453 Y129.941 E.03242
G1 X129.362 Y130.03 E.0055
G1 X129.06 Y130.57 E.02689
G1 X128.725 Y131.093 E.02694
G1 X128.291 Y131.678 E.0316
G1 X127.977 Y132.05 E.02117
G1 X127.462 Y132.586 E.03228
G1 X127.079 Y132.936 E.02251
G1 X126.671 Y133.268 E.02282
G1 X126.244 Y133.579 E.02294
G1 X125.8 Y133.866 E.02293
G1 X125.345 Y134.126 E.02276
G1 X124.882 Y134.357 E.02245
G1 X124.16 Y134.659 E.03398
G1 X123.701 Y134.816 E.02107
G1 X123.051 Y134.996 E.02926
G1 X122.598 Y135.093 E.0201
G1 X121.905 Y135.203 E.03048
G1 X121.792 Y135.256 E.00543
G1 X121.18 Y135.794 E.03537
G1 X120.45 Y136.333 E.03938
G1 X119.809 Y136.727 E.03267
G1 X119.149 Y137.064 E.03216
G1 X118.405 Y137.372 E.03497
G1 X117.906 Y137.539 E.02282
G1 X117.397 Y137.678 E.0229
G1 X116.644 Y137.83 E.03336
G1 X115.853 Y137.922 E.03457
G1 X115.353 Y137.947 E.02175
G1 X114.867 Y137.946 E.02109
G1 X114.024 Y137.886 E.03668
G1 X113.054 Y137.728 E.04264
G1 X112.931 Y137.742 E.00538
G1 X112.336 Y137.993 E.02806
G1 X111.939 Y138.137 E.01831
G1 X111.044 Y138.392 E.04041
G1 X110.565 Y138.492 E.02125
G1 X110.065 Y138.569 E.02196
G1 X109.551 Y138.621 E.02241
G1 X109.029 Y138.644 E.02267
G1 X108.256 Y138.626 E.03358
G1 X107.731 Y138.579 E.02286
G1 X107.214 Y138.502 E.0227
G1 X106.436 Y138.332 E.03458
G1 X105.813 Y138.145 E.02821
G1 X105.124 Y137.883 E.03201
G1 X104.501 Y137.593 E.02983
G1 X103.869 Y137.244 E.03132
G1 X103.746 Y137.217 E.0055
G1 X103.089 Y137.261 E.02858
G1 X102.464 Y137.264 E.02712
G1 X101.735 Y137.217 E.03172
G1 X101.249 Y137.155 E.02124
G1 X100.518 Y137.013 E.03234
G1 X100.016 Y136.881 E.02255
G1 X99.515 Y136.719 E.02284
G1 X99.022 Y136.529 E.02295
G1 X98.541 Y136.312 E.02289
G1 X98.035 Y136.047 E.0248
G1 X97.459 Y135.698 E.02922
G1 X97.045 Y135.409 E.02191
G1 X96.661 Y135.112 E.02109
G1 X96.12 Y134.635 E.03133
G1 X95.688 Y134.2 E.02657
G1 X95.337 Y133.805 E.02296
G1 X95.23 Y133.737 E.0055
G1 X94.404 Y133.506 E.03722
G1 X93.751 Y133.268 E.03018
G1 X92.87 Y132.859 E.04215
G1 X92.229 Y132.489 E.03217
G1 X91.566 Y132.03 E.03501
G1 X91.156 Y131.702 E.0228
G1 X90.646 Y131.236 E.02998
G1 X90.249 Y130.824 E.02484
G1 X89.764 Y130.244 E.03283
G1 X89.469 Y129.839 E.02173
G1 X89.204 Y129.434 E.02101
G1 X88.759 Y128.634 E.03973
G1 X88.382 Y127.776 E.0407
G1 X88.304 Y127.681 E.0053
G1 X87.588 Y127.187 E.03778
G1 X86.884 Y126.603 E.03969
G1 X86.535 Y126.269 E.02098
G1 X86.192 Y125.905 E.02169
G1 X85.687 Y125.29 E.03454
G1 X85.296 Y124.73 E.02967
G1 X84.878 Y124.019 E.03578
G1 X84.646 Y123.551 E.0227
G1 X84.34 Y122.809 E.03484
G1 X84.116 Y122.109 E.03192
G1 X83.944 Y121.384 E.03235
G1 X83.811 Y120.5 E.0388
G1 X83.762 Y119.821 E.02951
G1 X83.718 Y119.703 E.0055
G1 X83.298 Y119.144 E.03032
G1 X82.954 Y118.618 E.02729
G1 X82.596 Y117.978 E.03183
G1 X82.384 Y117.535 E.02132
G1 X82.134 Y116.918 E.02894
G1 X81.954 Y116.38 E.02463
G1 X81.816 Y115.871 E.02288
G1 X81.707 Y115.354 E.02295
G1 X81.626 Y114.832 E.02291
G1 X81.575 Y114.31 E.02278
G1 X81.552 Y113.794 E.0224
G1 X81.569 Y113.056 E.03204
G1 X81.61 Y112.575 E.02096
G1 X81.716 Y111.864 E.0312
G1 X81.845 Y111.27 E.02638
G1 X81.975 Y110.797 E.02132
G1 X81.973 Y110.67 E.0055
G1 X81.704 Y109.813 E.03899
G1 X81.548 Y109.132 E.03035
G1 X81.42 Y108.242 E.039
G1 X81.377 Y107.456 E.03418
G1 X81.396 Y106.693 E.03315
G1 X81.446 Y106.169 E.02285
G1 X81.524 Y105.648 E.02287
G1 X81.701 Y104.856 E.03519
G1 X81.924 Y104.138 E.03266
G1 X82.103 Y103.672 E.02167
G1 X82.299 Y103.231 E.02097
G1 X82.727 Y102.427 E.03953
G1 X83.218 Y101.677 E.0389
G1 X83.255 Y101.558 E.00539
G1 X83.268 Y100.833 E.03148
G1 X83.315 Y100.264 E.02477
G1 X83.383 Y99.765 E.02188
G1 X83.474 Y99.287 E.0211
G1 X83.592 Y98.801 E.02172
G1 X83.739 Y98.31 E.02225
G1 X83.916 Y97.82 E.02261
G1 X84.121 Y97.335 E.02286
G1 X84.353 Y96.862 E.02288
G1 X84.74 Y96.194 E.03352
G1 X85.029 Y95.764 E.02247
G1 X85.513 Y95.141 E.03425
G1 X85.839 Y94.774 E.02131
G1 X86.325 Y94.292 E.02971
G1 X86.839 Y93.846 E.02955
G1 X87.35 Y93.459 E.02783
G1 X87.426 Y93.356 E.00553
G1 X87.652 Y92.73 E.02891
G1 X87.82 Y92.332 E.01873
G1 X88.137 Y91.688 E.03121
G1 X88.377 Y91.268 E.02096
G1 X88.783 Y90.653 E.03201
G1 X89.095 Y90.242 E.02241
G1 X89.434 Y89.842 E.02275
G1 X89.77 Y89.488 E.02119
G1 X90.096 Y89.796 F18000
G1 F3000
G1 X90.117 Y89.774 E.00137
G1 X90.484 Y89.428 E.02186
G1 X90.867 Y89.104 E.02177
G1 X91.26 Y88.808 E.02136
G1 X91.895 Y88.394 E.03291
G1 X92.298 Y88.169 E.02002
G1 X92.879 Y87.888 E.02802
G1 X93.482 Y87.646 E.02822
G1 X94.056 Y87.457 E.02623
G1 X94.286 Y87.325 E.0115
G1 X94.39 Y87.228 E.00619
G1 X94.803 Y86.714 E.02862
G1 X95.239 Y86.241 E.02794
G1 X95.718 Y85.789 E.02856
G1 X96.073 Y85.492 E.02008
G1 X96.687 Y85.045 E.03298
G1 X97.104 Y84.783 E.0214
G1 X97.544 Y84.54 E.02179
G1 X98.004 Y84.317 E.02219
G1 X98.468 Y84.124 E.02183
G1 X98.939 Y83.959 E.02167
G1 X99.408 Y83.822 E.02123
G1 X100.098 Y83.668 E.03066
G1 X100.545 Y83.598 E.01966
G1 X101.22 Y83.534 E.02941
G1 X102.212 Y83.527 E.04308
G1 X102.478 Y83.477 E.01175
G1 X102.611 Y83.419 E.00627
G1 X103.178 Y83.062 E.02907
G1 X103.937 Y82.664 E.03724
G1 X104.784 Y82.317 E.03971
G1 X105.513 Y82.095 E.03309
G1 X106.217 Y81.941 E.03129
G1 X106.719 Y81.866 E.02202
G1 X107.221 Y81.821 E.02187
G1 X107.993 Y81.805 E.03354
G1 X108.704 Y81.848 E.03092
G1 X109.63 Y81.989 E.04065
G1 X110.455 Y82.197 E.03696
G1 X111.23 Y82.465 E.03556
G1 X111.364 Y82.492 E.00593
G1 X111.618 Y82.487 E.01104
G1 X112.506 Y82.289 E.03947
G1 X113.388 Y82.177 E.0386
G1 X114.31 Y82.151 E.04003
G1 X115.039 Y82.197 E.03171
G1 X115.798 Y82.308 E.03329
G1 X116.286 Y82.414 E.0217
G1 X116.774 Y82.55 E.022
G1 X117.463 Y82.793 E.03169
G1 X118.137 Y83.093 E.03203
G1 X118.726 Y83.412 E.0291
G1 X119.45 Y83.885 E.03752
G1 X120.081 Y84.379 E.03478
G1 X120.317 Y84.496 E.01144
G1 X120.455 Y84.529 E.00615
G1 X120.974 Y84.577 E.02265
G1 X121.553 Y84.664 E.02541
G1 X122.221 Y84.811 E.02969
G1 X122.66 Y84.936 E.01982
G1 X123.33 Y85.174 E.03084
G1 X123.781 Y85.368 E.02133
G1 X124.235 Y85.594 E.02202
G1 X124.673 Y85.844 E.02186
G1 X125.096 Y86.117 E.02186
G1 X125.501 Y86.412 E.02174
G1 X125.882 Y86.722 E.02134
G1 X126.434 Y87.239 E.03281
G1 X126.748 Y87.574 E.01995
G1 X127.157 Y88.068 E.02786
G1 X127.535 Y88.593 E.02807
G1 X127.83 Y89.059 E.02395
G1 X128.014 Y89.249 E.01149
G1 X128.134 Y89.327 E.00618
G1 X128.778 Y89.625 E.03081
G1 X129.529 Y90.048 E.0374
G1 X130.282 Y90.573 E.03984
G1 X130.857 Y91.057 E.03266
G1 X131.377 Y91.574 E.03181
G1 X131.712 Y91.955 E.02202
G1 X132.02 Y92.348 E.02169
G1 X132.449 Y92.981 E.0332
G1 X132.804 Y93.61 E.03134
G1 X133.182 Y94.45 E.03996
G1 X133.459 Y95.265 E.03738
G1 X133.647 Y96.021 E.03381
G1 X133.698 Y96.147 E.00593
G1 X133.841 Y96.358 E.01103
G1 X134.531 Y97.034 E.04194
G1 X134.934 Y97.499 E.02671
G1 X135.213 Y97.863 E.01992
G1 X135.624 Y98.475 E.03198
G1 X135.867 Y98.896 E.02111
G1 X136.095 Y99.347 E.02194
G1 X136.297 Y99.807 E.02181
G1 X136.472 Y100.276 E.02172
G1 X136.684 Y100.986 E.03215
G1 X136.791 Y101.46 E.02109
G1 X136.906 Y102.197 E.03238
G1 X136.947 Y102.662 E.02029
G1 X136.965 Y103.302 E.02778
G1 X136.939 Y103.946 E.02799
G1 X136.887 Y104.469 E.02282
G1 X136.917 Y104.736 E.01165
G1 X136.964 Y104.872 E.00627
G1 X137.225 Y105.368 E.02431
G1 X137.468 Y105.904 E.02556
G1 X137.709 Y106.548 E.02982
G1 X137.843 Y106.985 E.01987
G1 X138.007 Y107.679 E.03093
G1 X138.089 Y108.164 E.02134
G1 X138.145 Y108.669 E.02205
G1 X138.173 Y109.171 E.02185
G1 X138.173 Y109.675 E.02186
G1 X138.145 Y110.175 E.02172
G1 X138.091 Y110.662 E.0213
G1 X137.957 Y111.405 E.03274
G1 X137.846 Y111.849 E.0199
G1 X137.655 Y112.459 E.02771
G1 X137.421 Y113.059 E.02797
G1 X137.205 Y113.528 E.02242
G1 X137.165 Y113.667 E.00626
G1 X137.15 Y113.935 E.01165
G1 X137.237 Y114.497 E.0247
G1 X137.292 Y115.084 E.0256
G1 X137.31 Y115.772 E.02987
G1 X137.293 Y116.239 E.02027
G1 X137.222 Y116.94 E.03058
G1 X137.142 Y117.419 E.02108
G1 X136.959 Y118.179 E.03397
G1 X136.808 Y118.656 E.02169
G1 X136.631 Y119.126 E.02181
G1 X136.426 Y119.588 E.02192
G1 X136.205 Y120.022 E.02115
G1 X135.855 Y120.61 E.02969
G1 X135.321 Y121.353 E.03971
G1 X134.914 Y121.832 E.02729
G1 X134.57 Y122.193 E.02167
G1 X134.43 Y122.418 E.01148
G1 X134.384 Y122.552 E.00617
G1 X134.242 Y123.303 E.03317
G1 X134.01 Y124.138 E.03762
G1 X133.679 Y124.998 E.04
G1 X133.34 Y125.684 E.03321
G1 X132.967 Y126.303 E.03139
G1 X132.677 Y126.72 E.02203
G1 X132.368 Y127.113 E.02169
G1 X131.849 Y127.687 E.03363
G1 X131.332 Y128.173 E.03079
G1 X130.611 Y128.739 E.03979
G1 X129.89 Y129.2 E.03714
G1 X129.251 Y129.54 E.03144
G1 X129.136 Y129.624 E.00615
G1 X128.964 Y129.823 E.01144
G1 X128.673 Y130.343 E.02587
G1 X128.353 Y130.842 E.02571
G1 X127.942 Y131.396 E.02994
G1 X127.646 Y131.747 E.01993
G1 X127.152 Y132.262 E.031
G1 X126.788 Y132.594 E.02137
G1 X126.4 Y132.911 E.02175
G1 X125.993 Y133.207 E.02186
G1 X125.57 Y133.481 E.02186
G1 X125.13 Y133.732 E.02201
G1 X124.691 Y133.951 E.02129
G1 X123.997 Y134.241 E.03267
G1 X123.564 Y134.389 E.01983
G1 X122.948 Y134.56 E.02776
G1 X122.513 Y134.653 E.01932
G1 X121.849 Y134.757 E.02918
G1 X121.605 Y134.849 E.01128
G1 X121.488 Y134.925 E.00606
G1 X120.893 Y135.448 E.03438
G1 X120.203 Y135.957 E.03723
G1 X119.593 Y136.333 E.0311
G1 X118.956 Y136.659 E.03107
G1 X118.252 Y136.95 E.03306
G1 X117.779 Y137.108 E.02165
G1 X117.289 Y137.242 E.02206
G1 X116.568 Y137.387 E.03194
G1 X115.808 Y137.476 E.03321
G1 X114.879 Y137.497 E.04034
G1 X114.082 Y137.44 E.03467
G1 X113.136 Y137.287 E.04161
G1 X112.997 Y137.284 E.00601
G1 X112.743 Y137.335 E.01125
G1 X111.796 Y137.711 E.04423
G1 X110.928 Y137.958 E.0392
G1 X110.004 Y138.125 E.04073
G1 X109.522 Y138.173 E.02105
G1 X109.029 Y138.195 E.02144
G1 X108.286 Y138.178 E.03226
G1 X107.781 Y138.132 E.02202
G1 X107.29 Y138.06 E.02153
G1 X106.543 Y137.896 E.03318
G1 X105.953 Y137.718 E.02676
G1 X105.303 Y137.472 E.0302
G1 X104.7 Y137.191 E.02885
G1 X104.098 Y136.858 E.02985
G1 X103.847 Y136.781 E.01143
G1 X103.706 Y136.77 E.00614
G1 X103.077 Y136.812 E.02737
G1 X102.482 Y136.815 E.02582
G1 X101.782 Y136.771 E.03045
G1 X101.325 Y136.713 E.01999
G1 X100.622 Y136.577 E.03106
G1 X100.145 Y136.451 E.02141
G1 X99.668 Y136.297 E.02176
G1 X99.198 Y136.116 E.02187
G1 X98.734 Y135.907 E.02211
G1 X98.252 Y135.654 E.02362
