; HEADER_BLOCK_START
; generated by AnycubicSlicerNext 1.3.3.1 on 2025-04-18 at 01:11:19
; total layer number: 125
; filament_density: 1.24
; filament_diameter: 1.75
; max_z_height: 25.04
; exclude_object: 0
; model_instances: 4
; HEADER_BLOCK_END

; THUMBNAIL_BLOCK_START
; THUMBNAIL_BLOCK_END

; external perimeters extrusion width = 0.42mm
; perimeters extrusion width = 0.45mm
; infill extrusion width = 0.45mm
; solid infill extrusion width = 0.42mm
; top infill extrusion width = 0.42mm
; support material extrusion width = 0.40mm
; first layer extrusion width = 0.50mm

; external perimeters extrusion width = 0.42mm
; perimeters extrusion width = 0.45mm
; infill extrusion width = 0.45mm
; solid infill extrusion width = 0.42mm
; top infill extrusion width = 0.42mm
; support material extrusion width = 0.40mm
; first layer extrusion width = 0.50mm

; external perimeters extrusion width = 0.42mm
; perimeters extrusion width = 0.45mm
; infill extrusion width = 0.45mm
; solid infill extrusion width = 0.42mm
; top infill extrusion width = 0.42mm
; support material extrusion width = 0.40mm
; first layer extrusion width = 0.50mm

; external perimeters extrusion width = 0.42mm
; perimeters extrusion width = 0.45mm
; infill extrusion width = 0.45mm
; solid infill extrusion width = 0.42mm
; top infill extrusion width = 0.42mm
; support material extrusion width = 0.40mm
; first layer extrusion width = 0.50mm

; EXECUTABLE_BLOCK_START
M201 X2000 Y2000 Z800 E2000
M203 X300 Y300 Z8 E100
M204 P2000 R2000 T2000
M205 X10.00 Y10.00 Z2.00 E5.00 ; sets the jerk limits, mm/sec
;TYPE:Custom
G90 ; use absolute coordinates
M83 ; extruder relative mode
M104 S220 ; set extruder temp
M140 S60 ; set bed temp
M190 S60 ; wait for bed temp
M109 S220 ; wait for extruder temp
G28                                        ; move X/Y/Z to min endstops
G1 Z0.28                                   ; lift nozzle a bit 
G92 E0 
G1 Y3 F1800                                    ; zero the extruded length 
G1 X60  E25 F500                       ; Extrude 25mm of filament in a 5cm line. 
G92 E0                                     ; zero the extruded length again 
G1 E-2 F500                                ; Retract a little 
G1 X70 F4000                              ; Quickly wipe away from the filament line
M117
G90
G21
M83 ; use relative distances for extrusion
; filament start gcode
M106 S0
;LAYER_CHANGE
;Z:0.24
;HEIGHT:0.24
; BEFORE_LAYER_CHANGE 0 @ 0.24mm
G92 E0
G1 E-2.5 F6000
; AFTER_LAYER_CHANGE 0 @ 0.24mm
M204 P500
; printing object "bracketR.stl" id:4835272142852949608 copy 0
M204 T500
G1 X146.911 Y119.113 F18000
G1 Z.24
G1 E2.5 F6000
;TYPE:Brim
;WIDTH:0.5
;MM3_PER_MM:0.107639
G1 F1500
G1 X147.365 Y118.669 E.02759
G1 X147.879 Y118.299 E.0275
G1 X148.603 Y117.945 E.03495
G1 X149.313 Y117.727 E.03225
G1 X149.945 Y117.64 E.02772
G1 X150.267 Y117.632 E.01397
G1 X157.942 Y117.731 E.33319
G1 X158.254 Y117.735 E.01353
G1 X158.896 Y117.791 E.02796
G1 X159.514 Y117.94 E.02763
G1 X160.067 Y118.16 E.0258
G1 X160.628 Y118.465 E.02774
G1 X161.135 Y118.849 E.02759
G1 X161.579 Y119.304 E.02759
G1 X161.948 Y119.817 E.02745
G1 X162.341 Y120.641 E.03964
G1 X162.52 Y121.25 E.02755
G1 X162.608 Y121.884 E.02777
G1 X162.616 Y122.206 E.01397
G1 X162.488 Y132.192 E.43354
G1 X162.432 Y132.834 E.02796
G1 X162.282 Y133.453 E.02763
G1 X162.062 Y134.005 E.0258
G1 X161.757 Y134.566 E.02774
G1 X161.373 Y135.073 E.02759
G1 X160.918 Y135.517 E.02759
G1 X160.404 Y135.887 E.0275
G1 X159.681 Y136.241 E.03495
G1 X158.971 Y136.459 E.03225
G1 X158.342 Y136.546 E.02757
G1 X156.654 Y136.537 E.07326
G1 X156.514 Y136.585 E.00641
G1 X156.429 Y136.758 E.0084
G1 X155.866 Y180.611 E1.90375
G1 X155.809 Y181.253 E.02796
G1 X155.66 Y181.872 E.02763
G1 X155.44 Y182.424 E.0258
G1 X155.135 Y182.985 E.02774
G1 X154.751 Y183.492 E.02759
G1 X154.296 Y183.936 E.02759
G1 X153.782 Y184.306 E.0275
G1 X153.059 Y184.66 E.03495
G1 X152.349 Y184.878 E.03225
G1 X151.716 Y184.965 E.02772
G1 X151.394 Y184.973 E.01397
G1 X141.408 Y184.845 E.43354
G1 X140.766 Y184.789 E.02796
G1 X140.147 Y184.639 E.02763
G1 X139.595 Y184.42 E.0258
G1 X139.034 Y184.114 E.02774
G1 X138.527 Y183.731 E.02759
G1 X138.083 Y183.276 E.02759
G1 X137.713 Y182.762 E.0275
G1 X137.359 Y182.039 E.03495
G1 X137.141 Y181.328 E.03225
G1 X137.054 Y180.696 E.02772
G1 X137.046 Y180.374 E.01397
G1 X137.148 Y172.387 E.34672
G1 X137.204 Y171.746 E.02796
G1 X137.354 Y171.127 E.02763
G1 X137.574 Y170.575 E.0258
G1 X137.879 Y170.013 E.02774
G1 X138.263 Y169.507 E.02759
G1 X138.718 Y169.062 E.02759
G1 X139.232 Y168.692 E.0275
G1 X139.955 Y168.338 E.03495
G1 X140.665 Y168.121 E.03225
G1 X141.294 Y168.034 E.02755
G1 X144.981 Y168.068 E.16005
G1 X145.121 Y168.021 E.00641
G1 X145.207 Y167.847 E.00844
G1 X145.796 Y121.994 E1.99057
G1 X145.852 Y121.352 E.02796
G1 X146.002 Y120.734 E.02763
G1 X146.221 Y120.181 E.0258
G1 X146.527 Y119.62 E.02774
G1 X146.886 Y119.145 E.02586
G1 X147.242 Y119.419 F18000
G1 F1500
G1 X147.648 Y119.021 E.02468
G1 X148.121 Y118.68 E.02532
G1 X148.758 Y118.368 E.0308
G1 X149.4 Y118.17 E.02914
G1 X149.974 Y118.089 E.0252
G1 X150.273 Y118.081 E.01295
G1 X157.937 Y118.179 E.33272
G1 X158.237 Y118.183 E.01302
G1 X158.813 Y118.234 E.02512
G1 X159.387 Y118.372 E.02564
G1 X159.883 Y118.571 E.02318
G1 X160.375 Y118.838 E.02432
G1 X160.829 Y119.18 E.02468
G1 X161.24 Y119.601 E.02554
G1 X161.566 Y120.057 E.02432
G1 X161.916 Y120.793 E.03536
G1 X162.078 Y121.335 E.02458
G1 X162.159 Y121.913 E.02533
G1 X162.167 Y122.211 E.01295
G1 X162.04 Y132.165 E.43211
G1 X161.985 Y132.771 E.02642
G1 X161.856 Y133.307 E.02394
G1 X161.652 Y133.821 E.02401
G1 X161.384 Y134.313 E.02432
G1 X161.042 Y134.768 E.02468
G1 X160.621 Y135.179 E.02554
G1 X160.163 Y135.506 E.02445
G1 X159.525 Y135.818 E.0308
G1 X158.884 Y136.016 E.02914
G1 X158.302 Y136.097 E.0255
G1 X156.668 Y136.089 E.07096
G1 X156.498 Y136.116 E.00747
G1 X156.382 Y136.156 E.00531
G1 X156.211 Y136.258 E.00866
G1 X156.107 Y136.397 E.00754
G1 X156.033 Y136.546 E.00721
G1 X155.98 Y136.768 E.00989
G1 X155.417 Y180.584 E1.90215
G1 X155.366 Y181.17 E.02556
G1 X155.234 Y181.726 E.02481
G1 X155.03 Y182.24 E.02401
G1 X154.751 Y182.749 E.02519
G1 X154.42 Y183.186 E.02381
G1 X154.014 Y183.585 E.02468
G1 X153.54 Y183.925 E.02532
G1 X152.903 Y184.237 E.0308
G1 X152.241 Y184.44 E.03007
G1 X151.687 Y184.517 E.02427
G1 X151.389 Y184.525 E.01295
G1 X141.435 Y184.397 E.43211
G1 X140.849 Y184.346 E.02556
G1 X140.293 Y184.213 E.02481
G1 X139.779 Y184.009 E.02401
G1 X139.27 Y183.73 E.02519
G1 X138.833 Y183.399 E.02381
G1 X138.434 Y182.994 E.02468
G1 X138.094 Y182.52 E.02532
G1 X137.782 Y181.883 E.0308
G1 X137.579 Y181.221 E.03007
G1 X137.502 Y180.667 E.02427
G1 X137.494 Y180.369 E.01295
G1 X137.596 Y172.415 E.3453
G1 X137.647 Y171.828 E.02556
G1 X137.786 Y171.254 E.02564
G1 X137.984 Y170.758 E.02318
G1 X138.263 Y170.249 E.02519
G1 X138.594 Y169.812 E.02381
G1 X139 Y169.414 E.02468
G1 X139.473 Y169.073 E.02532
G1 X140.13 Y168.753 E.03172
G1 X140.752 Y168.563 E.02822
G1 X141.313 Y168.484 E.0246
G1 X144.965 Y168.517 E.15856
G1 X145.135 Y168.489 E.00747
G1 X145.251 Y168.45 E.00531
G1 X145.423 Y168.349 E.00866
G1 X145.528 Y168.209 E.00758
G1 X145.602 Y168.06 E.00724
G1 X145.656 Y167.838 E.00993
G1 X146.244 Y122.022 E1.98897
G1 X146.295 Y121.435 E.02556
G1 X146.428 Y120.879 E.02481
G1 X146.632 Y120.365 E.02401
G1 X146.911 Y119.856 E.02519
G1 X147.218 Y119.451 E.02207
G1 X147.576 Y119.723 F18000
G1 F1500
G1 X147.587 Y119.709 E.00079
G1 X147.93 Y119.372 E.02088
G1 X148.362 Y119.061 E.02311
G1 X148.915 Y118.791 E.0267
G1 X149.508 Y118.608 E.02697
G1 X150.005 Y118.537 E.02175
G1 X150.279 Y118.529 E.0119
G1 X157.93 Y118.627 E.33217
G1 X158.219 Y118.632 E.01252
G1 X158.73 Y118.677 E.0223
G1 X159.26 Y118.804 E.02363
G1 X159.699 Y118.981 E.02055
G1 X160.123 Y119.212 E.02096
G1 X160.524 Y119.512 E.02174
G1 X160.888 Y119.883 E.02256
G1 X161.183 Y120.297 E.02206
G1 X161.492 Y120.945 E.03117
G1 X161.636 Y121.421 E.02161
G1 X161.711 Y121.943 E.02287
G1 X161.719 Y122.217 E.0119
G1 X161.591 Y132.137 E.43063
G1 X161.539 Y132.708 E.02489
G1 X161.424 Y133.18 E.02111
G1 X161.241 Y133.638 E.02139
G1 X161.01 Y134.061 E.02093
G1 X160.71 Y134.462 E.02174
G1 X160.324 Y134.84 E.02345
G1 X159.922 Y135.125 E.02137
G1 X159.369 Y135.395 E.02673
G1 X158.776 Y135.579 E.02696
G1 X158.263 Y135.649 E.02246
G1 X156.679 Y135.64 E.06874
G1 X156.432 Y135.673 E.01083
G1 X156.245 Y135.729 E.00847
G1 X155.991 Y135.868 E.01259
G1 X155.844 Y136 E.00857
G1 X155.754 Y136.121 E.00653
G1 X155.636 Y136.339 E.01076
G1 X155.545 Y136.658 E.01442
G1 X154.969 Y180.556 E1.90572
G1 X154.923 Y181.089 E.02318
G1 X154.807 Y181.581 E.02198
G1 X154.619 Y182.056 E.02218
G1 X154.367 Y182.513 E.02262
G1 X154.075 Y182.896 E.02094
G1 X153.732 Y183.233 E.02088
G1 X153.299 Y183.544 E.02311
G1 X152.747 Y183.814 E.02667
G1 X152.133 Y184.002 E.02788
G1 X151.657 Y184.068 E.02085
G1 X151.383 Y184.076 E.01192
G1 X141.463 Y183.949 E.43067
G1 X140.931 Y183.903 E.02318
G1 X140.438 Y183.787 E.02198
G1 X139.963 Y183.599 E.02218
G1 X139.506 Y183.347 E.02262
G1 X139.123 Y183.055 E.02094
G1 X138.786 Y182.711 E.02088
G1 X138.475 Y182.279 E.02311
G1 X138.205 Y181.727 E.02667
G1 X138.017 Y181.113 E.02788
G1 X137.951 Y180.637 E.02085
G1 X137.943 Y180.363 E.01192
G1 X138.045 Y172.442 E.34385
G1 X138.094 Y171.891 E.02402
G1 X138.218 Y171.382 E.02275
G1 X138.394 Y170.943 E.02053
G1 X138.636 Y170.502 E.0218
G1 X138.939 Y170.102 E.02179
G1 X139.298 Y169.752 E.02177
G1 X139.695 Y169.467 E.02122
G1 X140.286 Y169.177 E.02858
G1 X140.839 Y169.005 E.02516
G1 X141.352 Y168.933 E.02249
G1 X144.952 Y168.965 E.15626
G1 X145.196 Y168.934 E.01067
G1 X145.491 Y168.83 E.01356
G1 X145.64 Y168.742 E.00751
G1 X145.789 Y168.608 E.00871
G1 X145.88 Y168.487 E.00657
G1 X146.001 Y168.264 E.01102
G1 X146.039 Y168.161 E.00478
G1 X146.104 Y167.831 E.01459
G1 X146.692 Y122.049 E1.98749
G1 X146.738 Y121.517 E.02318
G1 X146.854 Y121.024 E.02198
G1 X147.043 Y120.549 E.02218
G1 X147.294 Y120.093 E.02262
G1 X147.551 Y119.755 E.01842
G1 X147.909 Y120.026 F18000
G1 F1500
G1 X147.918 Y120.014 E.00064
G1 X148.212 Y119.724 E.01795
G1 X148.604 Y119.443 E.02091
G1 X149.071 Y119.214 E.0226
G1 X149.617 Y119.045 E.02481
G1 X150.035 Y118.986 E.01833
G1 X150.285 Y118.978 E.01086
G1 X157.923 Y119.076 E.33159
G1 X158.644 Y119.119 E.03134
G1 X159.113 Y119.23 E.02091
G1 X159.514 Y119.391 E.01875
G1 X159.888 Y119.596 E.0185
G1 X160.235 Y119.858 E.01888
G1 X160.536 Y120.164 E.01864
G1 X160.788 Y120.515 E.01877
G1 X161.068 Y121.098 E.02804
G1 X161.194 Y121.509 E.01867
G1 X161.262 Y121.974 E.02042
G1 X161.27 Y122.224 E.01084
G1 X161.143 Y132.119 E.42955
G1 X161.093 Y132.643 E.02288
G1 X160.992 Y133.052 E.01826
G1 X160.837 Y133.439 E.01811
G1 X160.637 Y133.81 E.0183
G1 X160.378 Y134.157 E.01879
G1 X160.027 Y134.5 E.02132
G1 X159.682 Y134.743 E.01828
G1 X159.213 Y134.973 E.02271
G1 X158.668 Y135.141 E.02476
G1 X158.225 Y135.2 E.0194
G1 X156.613 Y135.197 E.06996
G1 X156.296 Y135.246 E.01391
G1 X156.024 Y135.34 E.01253
G1 X155.681 Y135.544 E.01731
G1 X155.552 Y135.66 E.00754
G1 X155.4 Y135.846 E.01041
G1 X155.201 Y136.229 E.01877
G1 X155.097 Y136.661 E.01928
G1 X154.521 Y180.529 E1.90441
G1 X154.48 Y181.008 E.02084
G1 X154.38 Y181.437 E.01914
G1 X154.216 Y181.857 E.01957
G1 X153.995 Y182.258 E.01989
G1 X153.744 Y182.591 E.01811
G1 X153.449 Y182.882 E.01795
G1 X153.058 Y183.163 E.02091
G1 X152.592 Y183.391 E.02254
G1 X152.026 Y183.564 E.0257
G1 X151.607 Y183.621 E.01833
G1 X141.49 Y183.501 E.43921
G1 X141.011 Y183.46 E.02085
G1 X140.582 Y183.36 E.01914
G1 X140.162 Y183.195 E.01957
G1 X139.761 Y182.975 E.01989
G1 X139.428 Y182.723 E.01811
G1 X139.137 Y182.429 E.01795
G1 X138.856 Y182.038 E.02091
G1 X138.628 Y181.571 E.02254
G1 X138.455 Y181.005 E.0257
G1 X138.4 Y180.607 E.01746
G1 X138.391 Y180.356 E.0109
G1 X138.493 Y172.47 E.34234
G1 X138.537 Y171.974 E.0216
G1 X138.65 Y171.51 E.02074
G1 X138.804 Y171.128 E.0179
G1 X139.008 Y170.755 E.01843
G1 X139.283 Y170.393 E.01976
G1 X139.58 Y170.104 E.01797
G1 X139.917 Y169.859 E.01807
G1 X140.442 Y169.599 E.02545
G1 X140.927 Y169.448 E.02207
G1 X141.392 Y169.382 E.02037
G1 X144.938 Y169.413 E.15391
G1 X145.357 Y169.352 E.01841
G1 X145.63 Y169.256 E.01254
G1 X145.858 Y169.133 E.01128
G1 X146.154 Y168.869 E.01722
G1 X146.278 Y168.695 E.00925
G1 X146.425 Y168.411 E.01387
G1 X146.48 Y168.24 E.00781
G1 X146.542 Y167.93 E.0137
G1 X147.141 Y122.076 E1.99065
G1 X147.181 Y121.598 E.02084
G1 X147.281 Y121.168 E.01914
G1 X147.446 Y120.749 E.01957
G1 X147.666 Y120.347 E.01989
G1 X147.885 Y120.058 E.01574
G1 X148.244 Y120.327 F18000
G1 F1500
G1 X148.25 Y120.318 E.00047
G1 X148.495 Y120.075 E.01497
G1 X148.825 Y119.836 E.01772
G1 X149.227 Y119.637 E.01948
G1 X149.726 Y119.483 E.02265
G1 X150.067 Y119.435 E.01495
G1 X150.293 Y119.426 E.00981
G1 X157.904 Y119.524 E.33041
G1 X158.567 Y119.564 E.02884
G1 X158.968 Y119.657 E.01784
G1 X159.315 Y119.794 E.0162
G1 X159.651 Y119.98 E.01669
G1 X159.945 Y120.203 E.01603
G1 X160.185 Y120.447 E.01481
G1 X160.394 Y120.735 E.01549
G1 X160.644 Y121.252 E.02492
G1 X160.756 Y121.618 E.0166
G1 X160.813 Y122.007 E.01708
G1 X160.822 Y122.232 E.00976
G1 X160.694 Y132.1 E.42842
G1 X160.647 Y132.578 E.02083
G1 X160.561 Y132.923 E.01544
G1 X160.434 Y133.241 E.01489
G1 X160.262 Y133.56 E.01569
G1 X160.046 Y133.853 E.01581
G1 X159.731 Y134.16 E.01913
G1 X159.444 Y134.36 E.01517
G1 X159.056 Y134.55 E.01873
G1 X158.56 Y134.703 E.02254
G1 X158.187 Y134.751 E.01634
G1 X156.536 Y134.755 E.07168
G1 X156.142 Y134.825 E.01734
G1 X155.786 Y134.96 E.01654
G1 X155.373 Y135.217 E.02111
G1 X155.199 Y135.383 E.01045
G1 X155.06 Y135.552 E.0095
G1 X154.806 Y136.017 E.023
G1 X154.663 Y136.549 E.02391
G1 X154.648 Y136.663 E.00499
G1 X154.073 Y180.502 E1.90317
G1 X154.037 Y180.928 E.01854
G1 X153.953 Y181.294 E.01631
G1 X153.812 Y181.658 E.01695
G1 X153.623 Y182.005 E.01717
G1 X153.411 Y182.287 E.01529
G1 X153.151 Y182.544 E.01588
G1 X152.817 Y182.781 E.01777
G1 X152.436 Y182.968 E.01841
G1 X151.94 Y183.121 E.02254
G1 X151.589 Y183.17 E.01537
G1 X141.517 Y183.052 E.43727
G1 X141.091 Y183.016 E.01853
G1 X140.725 Y182.933 E.01631
G1 X140.361 Y182.791 E.01695
G1 X140.014 Y182.602 E.01717
G1 X139.732 Y182.391 E.01529
G1 X139.475 Y182.13 E.01588
G1 X139.238 Y181.797 E.01777
G1 X139.051 Y181.416 E.01841
G1 X138.897 Y180.919 E.02259
G1 X138.848 Y180.576 E.01504
G1 X138.941 Y172.498 E.35067
G1 X138.983 Y172.038 E.02006
G1 X139.075 Y171.658 E.01698
G1 X139.207 Y171.328 E.01543
G1 X139.392 Y170.992 E.01663
G1 X139.614 Y170.698 E.016
G1 X139.877 Y170.442 E.01594
G1 X140.16 Y170.24 E.01507
G1 X140.6 Y170.022 E.02134
G1 X141.016 Y169.89 E.01894
G1 X141.432 Y169.83 E.01823
G1 X144.924 Y169.862 E.1516
G1 X145.412 Y169.797 E.02134
G1 X145.772 Y169.681 E.01642
G1 X146.161 Y169.463 E.0194
G1 X146.526 Y169.119 E.02177
G1 X146.679 Y168.895 E.01175
G1 X146.854 Y168.542 E.01711
G1 X146.922 Y168.321 E.01004
G1 X146.979 Y168.03 E.01287
G1 X147.589 Y122.103 E1.9938
G1 X147.625 Y121.678 E.01853
G1 X147.708 Y121.311 E.01631
G1 X147.85 Y120.947 E.01695
G1 X148.039 Y120.6 E.01717
G1 X148.22 Y120.359 E.01308
G1 E-1.75 F6000
;WIPE_START
G1 F1500
G1 X148.25 Y120.318 E-.03811
G1 X148.495 Y120.075 E-.25864
G1 X148.825 Y119.836 E-.30613
G1 X149.001 Y119.749 E-.14713
;WIPE_END
G1 X146.859 Y169.487 F18000
G1 E2.5 F6000
G1 F1500
G1 X146.956 Y169.546 E.00492
G1 X146.978 Y169.622 E.00347
G1 X146.977 Y169.756 E.00581
G1 X146.928 Y169.858 E.00492
G1 X146.841 Y169.889 E.00399
G1 X146.702 Y169.888 E.00602
G1 X146.6 Y169.839 E.00492
