; HEADER_BLOCK_START
; generated by AnycubicSlicerNext 1.3.3.1 on 2025-04-19 at 20:51:16
; total layer number: 75
; filament_density: 1.24
; filament_diameter: 1.75
; max_z_height: 15.04
; exclude_object: 0
; model_instances: 1
; HEADER_BLOCK_END

; THUMBNAIL_BLOCK_START
; THUMBNAIL_BLOCK_END

; external perimeters extrusion width = 0.42mm
; perimeters extrusion width = 0.45mm
; infill extrusion width = 0.45mm
; solid infill extrusion width = 0.42mm
; top infill extrusion width = 0.42mm
; first layer extrusion width = 0.50mm

; EXECUTABLE_BLOCK_START
M201 X2000 Y2000 Z800 E2000
M203 X300 Y300 Z8 E100
M204 P2000 R2000 T2000
M205 X10.00 Y10.00 Z2.00 E5.00 ; sets the jerk limits, mm/sec
;TYPE:Custom
G90 ; use absolute coordinates
M83 ; extruder relative mode
M104 S220 ; set extruder temp
M140 S60 ; set bed temp
M190 S60 ; wait for bed temp
M109 S220 ; wait for extruder temp
G28                                        ; move X/Y/Z to min endstops
G1 Z0.28                                   ; lift nozzle a bit 
G92 E0 
G1 Y3 F1800                                    ; zero the extruded length 
G1 X60  E25 F500                       ; Extrude 25mm of filament in a 5cm line. 
G92 E0                                     ; zero the extruded length again 
G1 E-2 F500                                ; Retract a little 
G1 X70 F4000                              ; Quickly wipe away from the filament line
M117
G90
G21
M83 ; use relative distances for extrusion
; filament start gcode
M106 S0
;LAYER_CHANGE
;Z:0.24
;HEIGHT:0.24
; BEFORE_LAYER_CHANGE 0 @ 0.24mm
G92 E0
G1 E-2.5 F6000
; AFTER_LAYER_CHANGE 0 @ 0.24mm
M204 P500
; printing object "mount.stl" id:2261123266560 copy 0
M204 T500
G1 X99.167 Y95.864 F18000
G1 Z.24
G1 E2.5 F6000
;TYPE:Brim
;WIDTH:0.5
;MM3_PER_MM:0.107639
G1 F1500
G1 X99.616 Y95.414 E.02759
G1 X100.124 Y95.038 E.02745
G1 X100.943 Y94.635 E.03964
G1 X101.55 Y94.447 E.02755
G1 X102.183 Y94.351 E.02777
G1 X117.492 Y94.339 E.66454
G1 X118.134 Y94.387 E.02796
G1 X118.756 Y94.529 E.02768
G1 X119.202 Y94.694 E.02066
G1 X119.876 Y95.04 E.03288
G1 X120.386 Y95.417 E.02754
G1 X120.836 Y95.866 E.02759
G1 X121.213 Y96.375 E.0275
G1 X121.576 Y97.094 E.03495
G1 X121.803 Y97.801 E.03225
G1 X121.899 Y98.433 E.02772
G1 X121.903 Y114.151 E.68231
G1 X121.833 Y115.101 E.04135
G1 X121.77 Y115.569 E.02052
G1 X121.655 Y116.205 E.02803
G1 X121.378 Y117.27 E.04778
G1 X121.009 Y118.295 E.0473
G1 X120.757 Y118.864 E.02701
G1 X120.463 Y119.44 E.02808
G1 X120.136 Y120.004 E.02829
G1 X119.879 Y120.403 E.02061
G1 X119.606 Y120.791 E.02057
G1 X119.21 Y121.302 E.02809
G1 X118.475 Y122.118 E.04763
G1 X118.004 Y122.57 E.02837
G1 X117.537 Y122.972 E.02674
G1 X117.164 Y123.265 E.02058
G1 X116.631 Y123.644 E.02838
G1 X116.111 Y123.973 E.02671
G1 X115.549 Y124.289 E.028
G1 X114.552 Y124.756 E.04778
G1 X113.527 Y125.126 E.0473
G1 X112.927 Y125.295 E.02709
G1 X112.296 Y125.437 E.02804
G1 X111.655 Y125.545 E.02825
G1 X111.184 Y125.601 E.02058
G1 X110.532 Y125.648 E.02837
G1 X109.916 Y125.66 E.02674
G1 X109.442 Y125.647 E.02058
G1 X108.792 Y125.599 E.02828
G1 X107.709 Y125.438 E.04753
G1 X107.08 Y125.297 E.028
G1 X106.481 Y125.128 E.02699
G1 X106.032 Y124.98 E.02055
G1 X105.308 Y124.697 E.03375
G1 X104.742 Y124.437 E.02704
G1 X104.17 Y124.136 E.02804
G1 X103.613 Y123.802 E.02819
G1 X102.971 Y123.365 E.03372
G1 X102.479 Y122.985 E.027
G1 X101.86 Y122.444 E.03568
G1 X101.4 Y121.99 E.02803
G1 X100.89 Y121.422 E.03316
G1 X100.485 Y120.914 E.0282
G1 X100.039 Y120.278 E.03371
G1 X99.697 Y119.724 E.02825
G1 X99.388 Y119.157 E.02806
G1 X99.064 Y118.467 E.0331
G1 X98.822 Y117.862 E.02827
G1 X98.578 Y117.124 E.03374
G1 X98.453 Y116.667 E.02056
G1 X98.316 Y116.06 E.02702
G1 X98.205 Y115.404 E.02887
G1 X98.133 Y114.763 E.028
G1 X98.092 Y114.01 E.03271
G1 X98.089 Y98.758 E.66207
G1 X98.137 Y98.116 E.02796
G1 X98.279 Y97.494 E.02768
G1 X98.444 Y97.048 E.02066
G1 X98.79 Y96.374 E.03288
G1 X99.143 Y95.896 E.0258
G1 X99.502 Y96.165 F18000
G1 F1500
G1 X99.903 Y95.762 E.02468
G1 X100.349 Y95.43 E.02414
G1 X101.12 Y95.049 E.03732
G1 X101.66 Y94.884 E.02453
G1 X102.207 Y94.801 E.02399
G1 X117.48 Y94.788 E.663
G1 X118.077 Y94.834 E.02598
G1 X118.619 Y94.958 E.02413
G1 X119.013 Y95.103 E.01825
G1 X119.629 Y95.418 E.03002
G1 X120.1 Y95.765 E.02541
G1 X120.488 Y96.153 E.02381
G1 X120.823 Y96.602 E.02434
G1 X121.155 Y97.255 E.03178
G1 X121.362 Y97.893 E.02914
G1 X121.449 Y98.456 E.02472
G1 X121.454 Y114.139 E.68078
G1 X121.386 Y115.062 E.04016
G1 X121.215 Y116.113 E.0462
G1 X120.947 Y117.143 E.04622
G1 X120.59 Y118.133 E.04565
G1 X120.35 Y118.674 E.02573
G1 X120.07 Y119.223 E.02671
G1 X119.51 Y120.147 E.04694
G1 X118.87 Y121.009 E.04658
G1 X118.149 Y121.809 E.04674
G1 X117.705 Y122.236 E.02677
G1 X117.254 Y122.624 E.0258
G1 X116.378 Y123.273 E.04735
G1 X115.878 Y123.589 E.02567
G1 X115.348 Y123.887 E.02641
G1 X114.375 Y124.343 E.04664
G1 X113.385 Y124.7 E.04565
G1 X112.813 Y124.861 E.02581
G1 X112.214 Y124.995 E.02667
G1 X111.138 Y125.155 E.04721
G1 X110.515 Y125.2 E.02709
G1 X109.921 Y125.211 E.02579
G1 X108.85 Y125.153 E.04658
G1 X107.787 Y124.995 E.04665
G1 X107.193 Y124.863 E.0264
G1 X106.61 Y124.699 E.02631
G1 X106.181 Y124.556 E.01962
G1 X105.487 Y124.285 E.03235
G1 X104.937 Y124.033 E.02627
G1 X104.387 Y123.743 E.02698
G1 X103.851 Y123.422 E.0271
G1 X103.232 Y122.999 E.03256
G1 X102.76 Y122.635 E.02585
G1 X102.162 Y122.112 E.03449
G1 X101.722 Y121.678 E.02685
G1 X101.235 Y121.135 E.03165
G1 X100.842 Y120.641 E.02739
G1 X100.416 Y120.035 E.03219
G1 X100.087 Y119.502 E.02716
G1 X99.79 Y118.958 E.02693
G1 X99.477 Y118.292 E.03194
G1 X99.245 Y117.712 E.02711
G1 X99.008 Y116.997 E.03267
G1 X98.887 Y116.555 E.01989
G1 X98.755 Y115.97 E.02607
G1 X98.649 Y115.338 E.02781
G1 X98.58 Y114.722 E.02691
G1 X98.541 Y113.995 E.03159
G1 X98.538 Y98.78 E.66045
G1 X98.584 Y98.173 E.02642
G1 X98.708 Y97.631 E.02413
G1 X98.853 Y97.237 E.01825
G1 X99.168 Y96.621 E.03002
G1 X99.478 Y96.197 E.02281
G1 X99.838 Y96.465 F18000
G1 F1500
G1 X100.19 Y96.109 E.02176
G1 X100.574 Y95.821 E.02082
G1 X101.296 Y95.465 E.03496
G1 X101.75 Y95.326 E.02062
G1 X102.231 Y95.251 E.02109
G1 X117.468 Y95.237 E.66145
G1 X118.019 Y95.281 E.02398
G1 X118.483 Y95.387 E.02065
G1 X118.826 Y95.512 E.01584
G1 X119.383 Y95.796 E.02714
G1 X119.814 Y96.113 E.02327
G1 X120.154 Y96.455 E.0209
G1 X120.434 Y96.83 E.02034
G1 X120.735 Y97.417 E.02862
G1 X120.921 Y97.987 E.02603
G1 X120.998 Y98.481 E.02169
G1 X121.005 Y114.128 E.67922
G1 X120.939 Y115.015 E.03863
G1 X120.774 Y116.026 E.04446
G1 X120.516 Y117.016 E.04441
G1 X120.172 Y117.97 E.04401
G1 X119.943 Y118.485 E.02446
G1 X119.681 Y119 E.02509
G1 X119.141 Y119.891 E.04524
G1 X118.518 Y120.729 E.04529
G1 X117.824 Y121.5 E.04506
G1 X117.405 Y121.901 E.02516
G1 X116.978 Y122.27 E.0245
G1 X116.12 Y122.906 E.04635
G1 X115.645 Y123.206 E.02438
G1 X115.147 Y123.486 E.02481
G1 X114.197 Y123.93 E.04551
G1 X113.244 Y124.274 E.044
G1 X112.7 Y124.427 E.02453
G1 X112.136 Y124.553 E.02506
G1 X111.084 Y124.709 E.0462
G1 X110.498 Y124.752 E.02547
G1 X109.934 Y124.762 E.02451
G1 X108.889 Y124.706 E.04544
G1 X107.864 Y124.553 E.04497
G1 X107.299 Y124.427 E.02511
G1 X106.738 Y124.269 E.02531
G1 X106.33 Y124.133 E.01868
G1 X105.666 Y123.874 E.03095
G1 X105.132 Y123.628 E.0255
G1 X104.604 Y123.35 E.02592
G1 X104.09 Y123.042 E.02601
G1 X103.492 Y122.634 E.03141
G1 X103.042 Y122.286 E.02469
G1 X102.465 Y121.781 E.03329
G1 X102.044 Y121.365 E.02567
G1 X101.58 Y120.848 E.03015
G1 X101.199 Y120.369 E.02658
G1 X100.792 Y119.791 E.03068
G1 X100.477 Y119.28 E.02607
G1 X100.192 Y118.758 E.0258
G1 X99.89 Y118.116 E.03079
G1 X99.668 Y117.561 E.02595
G1 X99.439 Y116.871 E.03159
G1 X99.322 Y116.444 E.01922
G1 X99.195 Y115.879 E.02511
G1 X99.093 Y115.272 E.02675
G1 X99.027 Y114.681 E.02582
G1 X98.989 Y113.979 E.03049
G1 X98.986 Y98.802 E.6588
G1 X99.031 Y98.231 E.02489
G1 X99.137 Y97.767 E.02064
G1 X99.262 Y97.424 E.01584
G1 X99.546 Y96.867 E.02718
G1 X99.814 Y96.498 E.01981
G1 X100.175 Y96.764 F18000
G1 F1500
G1 X100.479 Y96.455 E.01883
G1 X100.8 Y96.212 E.01746
G1 X101.472 Y95.88 E.03259
G1 X101.86 Y95.762 E.01759
G1 X102.255 Y95.701 E.01733
G1 X117.456 Y95.686 E.65985
G1 X117.96 Y95.728 E.02197
G1 X118.347 Y95.816 E.01723
G1 X118.639 Y95.921 E.01343
G1 X119.136 Y96.174 E.02424
G1 X119.528 Y96.462 E.0211
G1 X119.807 Y96.741 E.01714
G1 X120.045 Y97.059 E.01725
G1 X120.314 Y97.581 E.02547
G1 X120.48 Y98.082 E.02293
G1 X120.548 Y98.506 E.01862
G1 X120.557 Y114.116 E.67763
G1 X120.492 Y114.968 E.03708
G1 X120.333 Y115.939 E.04272
G1 X120.085 Y116.889 E.0426
G1 X119.753 Y117.807 E.04237
G1 X119.536 Y118.295 E.02319
G1 X119.291 Y118.777 E.02349
G1 X118.771 Y119.635 E.04355
G1 X118.175 Y120.439 E.04346
G1 X117.498 Y121.191 E.04392
G1 X117.106 Y121.567 E.02356
G1 X116.701 Y121.916 E.02321
G1 X115.862 Y122.538 E.04534
G1 X115.412 Y122.822 E.02308
G1 X114.946 Y123.084 E.02322
G1 X114.02 Y123.517 E.04438
G1 X113.102 Y123.848 E.04235
G1 X112.586 Y123.993 E.02326
G1 X112.059 Y124.111 E.02344
G1 X111.029 Y124.263 E.04519
G1 X110.481 Y124.303 E.02385
G1 X109.947 Y124.313 E.02322
G1 X108.94 Y124.259 E.04375
G1 X107.941 Y124.111 E.04383
G1 X107.406 Y123.991 E.02383
G1 X106.867 Y123.839 E.02431
G1 X106.479 Y123.71 E.01775
G1 X105.845 Y123.462 E.02956
G1 X105.327 Y123.224 E.02473
G1 X104.821 Y122.957 E.02486
G1 X104.328 Y122.662 E.02492
G1 X103.753 Y122.268 E.03025
G1 X103.324 Y121.937 E.02353
G1 X102.768 Y121.449 E.03211
G1 X102.367 Y121.052 E.0245
G1 X101.926 Y120.561 E.02865
G1 X101.556 Y120.097 E.02577
G1 X101.169 Y119.547 E.02918
G1 X100.866 Y119.058 E.02498
G1 X100.594 Y118.559 E.02467
G1 X100.303 Y117.941 E.02964
G1 X100.091 Y117.411 E.02479
G1 X99.869 Y116.744 E.03051
G1 X99.756 Y116.332 E.01854
G1 X99.635 Y115.789 E.02415
G1 X99.537 Y115.206 E.02568
G1 X99.474 Y114.64 E.02474
G1 X99.438 Y113.964 E.02938
G1 X99.435 Y98.825 E.65714
G1 X99.478 Y98.289 E.02335
G1 X99.566 Y97.903 E.01721
G1 X99.671 Y97.611 E.01343
G1 X99.925 Y97.111 E.02435
G1 X100.152 Y96.797 E.01683
G1 X100.513 Y97.062 F18000
G1 F1500
G1 X100.768 Y96.8 E.01591
G1 X101.026 Y96.603 E.01406
G1 X101.649 Y96.295 E.03016
G1 X101.951 Y96.204 E.01371
G1 X102.28 Y96.151 E.01444
G1 X117.443 Y96.135 E.65823
G1 X117.901 Y96.174 E.01995
G1 X118.213 Y96.245 E.0139
G1 X118.452 Y96.331 E.01103
G1 X118.891 Y96.552 E.02131
G1 X119.242 Y96.81 E.01892
G1 X119.46 Y97.029 E.01341
G1 X119.657 Y97.289 E.01418
G1 X119.895 Y97.745 E.02232
G1 X120.039 Y98.179 E.01984
G1 X120.098 Y98.531 E.01551
G1 X120.108 Y114.105 E.67602
G1 X120.046 Y114.921 E.03553
G1 X119.893 Y115.852 E.04098
G1 X119.654 Y116.761 E.0408
G1 X119.335 Y117.644 E.04072
G1 X119.13 Y118.105 E.02192
G1 X118.901 Y118.554 E.02189
G1 X118.402 Y119.38 E.04186
G1 X117.823 Y120.16 E.04216
G1 X117.172 Y120.882 E.04222
G1 X116.807 Y121.233 E.02197
G1 X116.425 Y121.562 E.02191
G1 X115.604 Y122.17 E.04433
G1 X115.18 Y122.438 E.02179
G1 X114.745 Y122.682 E.02163
G1 X113.843 Y123.104 E.04324
G1 X112.961 Y123.422 E.04069
G1 X112.473 Y123.558 E.02199
G1 X111.982 Y123.669 E.02184
G1 X110.975 Y123.818 E.04418
G1 X110.464 Y123.855 E.02224
G1 X109.959 Y123.865 E.02193
G1 X108.979 Y123.812 E.04261
G1 X108.019 Y123.669 E.04214
G1 X107.512 Y123.555 E.02253
G1 X107.002 Y123.411 E.02304
G1 X106.016 Y123.047 E.04558
G1 X105.522 Y122.82 E.02362
G1 X105.038 Y122.564 E.02379
G1 X104.567 Y122.282 E.02382
G1 X104.014 Y121.903 E.0291
G1 X103.606 Y121.588 E.02237
G1 X103.071 Y121.118 E.03091
G1 X102.689 Y120.74 E.02332
G1 X102.271 Y120.274 E.02716
G1 X101.913 Y119.825 E.02496
G1 X101.546 Y119.303 E.02768
G1 X101.256 Y118.835 E.02389
G1 X100.996 Y118.359 E.02354
G1 X100.717 Y117.766 E.02848
G1 X100.514 Y117.261 E.02362
G1 X100.3 Y116.617 E.02942
G1 X100.191 Y116.221 E.01786
G1 X100.074 Y115.7 E.02318
G1 X99.981 Y115.14 E.02462
G1 X99.921 Y114.599 E.02365
G1 X99.886 Y113.948 E.02828
G1 X99.883 Y98.849 E.65546
G1 X99.925 Y98.348 E.02182
G1 X99.995 Y98.037 E.01384
G1 X100.081 Y97.798 E.01103
G1 X100.304 Y97.355 E.02153
G1 X100.49 Y97.095 E.01386
G1 X100.843 Y97.389 F18000
G1 F1500
G1 X100.965 Y97.248 E.00809
G1 X101.267 Y96.994 E.01712
G1 X101.667 Y96.771 E.01989
G1 X101.966 Y96.673 E.01367
G1 X102.447 Y96.59 E.02115
G1 X117.626 Y96.594 E.65892
G1 X117.918 Y96.639 E.01282
G1 X118.195 Y96.718 E.01251
G1 X118.774 Y97.028 E.02851
G1 X119.029 Y97.245 E.01453
G1 X119.164 Y97.393 E.00871
G1 X119.482 Y97.924 E.02686
G1 X119.576 Y98.215 E.01328
G1 X119.668 Y98.795 E.02547
G1 X119.668 Y113.736 E.64856
G1 X119.613 Y114.75 E.04409
G1 X119.473 Y115.663 E.04009
G1 X119.208 Y116.684 E.0458
G1 X118.868 Y117.591 E.04202
G1 X118.436 Y118.463 E.04225
G1 X117.822 Y119.424 E.04952
G1 X117.185 Y120.215 E.04409
G1 X116.725 Y120.694 E.02881
G1 X116.248 Y121.125 E.0279
G1 X115.383 Y121.776 E.04702
G1 X114.432 Y122.337 E.04792
G1 X113.542 Y122.742 E.04245
G1 X112.564 Y123.068 E.04472
G1 X111.556 Y123.288 E.04482
G1 X110.707 Y123.389 E.03711
G1 X109.76 Y123.411 E.04109
G1 X108.736 Y123.331 E.04458
G1 X107.863 Y123.176 E.03852
G1 X106.974 Y122.929 E.04003
G1 X106.098 Y122.592 E.04076
G1 X105.198 Y122.138 E.04376
G1 X104.43 Y121.647 E.03957
G1 X103.665 Y121.048 E.04218
G1 X102.949 Y120.359 E.04311
G1 X102.334 Y119.636 E.0412
G1 X101.797 Y118.859 E.04101
G1 X101.326 Y118.012 E.04207
G1 X100.942 Y117.117 E.04227
G1 X100.597 Y115.984 E.05143
G1 X100.424 Y115.071 E.04033
G1 X100.368 Y114.574 E.0217
G1 X100.338 Y114.072 E.02182
G1 X100.337 Y98.71 E.66686
G1 X100.41 Y98.247 E.02035
G1 X100.538 Y97.876 E.01702
G1 X100.658 Y97.656 E.01087
G1 X100.82 Y97.422 E.01237
G1 X101.189 Y97.677 F18000
G1 F1500
G1 X101.216 Y97.639 E.00204
G1 X101.303 Y97.542 E.00564
G1 X101.558 Y97.335 E.01426
G1 X101.807 Y97.197 E.01238
G1 X102.033 Y97.117 E.01043
G1 X102.534 Y97.03 E.02207
G1 X117.546 Y97.035 E.65166
G1 X117.857 Y97.084 E.01363
G1 X118.075 Y97.15 E.0099
G1 X118.478 Y97.365 E.01984
G1 X118.745 Y97.592 E.01523
G1 X118.827 Y97.689 E.00549
G1 X119.055 Y98.062 E.01899
G1 X119.133 Y98.283 E.01019
G1 X119.22 Y98.784 E.02207
G1 X119.22 Y113.74 E.64918
G1 X119.17 Y114.677 E.04077
G1 X119.04 Y115.545 E.0381
G1 X118.79 Y116.52 E.04368
G1 X118.446 Y117.439 E.04262
G1 X118.032 Y118.269 E.04024
G1 X117.441 Y119.188 E.04741
G1 X116.833 Y119.937 E.04188
G1 X116.4 Y120.385 E.02708
G1 X115.944 Y120.796 E.02665
G1 X115.108 Y121.421 E.04529
G1 X114.199 Y121.954 E.04573
G1 X113.352 Y122.335 E.04035
G1 X112.417 Y122.644 E.04271
G1 X111.455 Y122.851 E.04272
G1 X110.649 Y122.945 E.03523
G1 X109.745 Y122.963 E.03926
G1 X108.767 Y122.884 E.0426
G1 X107.937 Y122.733 E.0366
G1 X107.09 Y122.495 E.0382
G1 X106.254 Y122.171 E.0389
G1 X105.395 Y121.735 E.04182
G1 X104.711 Y121.298 E.03523
G1 X103.936 Y120.691 E.04276
G1 X103.256 Y120.033 E.04105
G1 X102.673 Y119.342 E.03924
G1 X102.192 Y118.647 E.03667
G1 X101.715 Y117.788 E.04266
G1 X101.352 Y116.935 E.04026
G1 X101.039 Y115.906 E.04668
G1 X100.87 Y115.025 E.03894
G1 X100.816 Y114.551 E.02072
G1 X100.786 Y114.041 E.02214
G1 X100.78 Y98.779 E.6625
G1 X100.834 Y98.394 E.01691
G1 X100.932 Y98.09 E.01384
G1 X101.022 Y97.918 E.00845
G1 X101.166 Y97.71 E.01096
G1 X101.534 Y97.966 F18000
G1 F1500
G1 X101.589 Y97.887 E.00415
G1 X101.777 Y97.727 E.01073
G1 X101.966 Y97.616 E.00951
G1 X102.11 Y97.559 E.00673
G1 X102.523 Y97.479 E.01825
G1 X117.48 Y97.479 E.64928
G1 X117.717 Y97.51 E.01038
G1 X117.957 Y97.583 E.01088
G1 X118.265 Y97.759 E.0154
G1 X118.447 Y97.926 E.0107
G1 X118.635 Y98.219 E.01511
G1 X118.691 Y98.36 E.00661
G1 X118.771 Y98.773 E.01825
G1 X118.771 Y113.743 E.64984
G1 X118.727 Y114.607 E.03753
G1 X118.607 Y115.429 E.0361
G1 X118.372 Y116.358 E.04157
G1 X118.048 Y117.233 E.04052
G1 X117.627 Y118.075 E.04086
G1 X117.061 Y118.95 E.04522
G1 X116.483 Y119.657 E.03965
G1 X116.075 Y120.075 E.02534
G1 X115.64 Y120.467 E.02543
G1 X114.835 Y121.066 E.04355
G1 X113.968 Y121.57 E.04352
G1 X113.163 Y121.928 E.03826
G1 X112.272 Y122.22 E.04071
G1 X111.356 Y122.414 E.04061
G1 X110.646 Y122.496 E.03103
G1 X109.729 Y122.515 E.03984
G1 X108.798 Y122.436 E.04054
G1 X108.013 Y122.291 E.03467
G1 X107.206 Y122.062 E.03639
G1 X106.412 Y121.751 E.03703
