; HEADER_BLOCK_START
; generated by AnycubicSlicerNext 1.3.2 on 2025-02-18 at 00:53:27
; total layer number: 50
; filament_density: 1.24
; filament_diameter: 1.75
; max_z_height: 10.04
; exclude_object: 0
; model_instances: 1
; HEADER_BLOCK_END

; THUMBNAIL_BLOCK_START

;
; THUMBNAIL_BLOCK_END

; external perimeters extrusion width = 0.42mm
; perimeters extrusion width = 0.45mm
; infill extrusion width = 0.45mm
; solid infill extrusion width = 0.42mm
; top infill extrusion width = 0.42mm
; first layer extrusion width = 0.50mm

; EXECUTABLE_BLOCK_START
M201 X2000 Y2000 Z800 E2000
M203 X300 Y300 Z8 E100
M204 P2000 R2000 T2000
M205 X10.00 Y10.00 Z2.00 E5.00 ; sets the jerk limits, mm/sec
;TYPE:Custom
G90 ; use absolute coordinates
M83 ; extruder relative mode
M104 S220 ; set extruder temp
M140 S60 ; set bed temp
M190 S60 ; wait for bed temp
M109 S220 ; wait for extruder temp
G28                                        ; move X/Y/Z to min endstops
G1 Z0.28                                   ; lift nozzle a bit 
G92 E0 
G1 Y3 F1800                                    ; zero the extruded length 
G1 X60  E25 F500                       ; Extrude 25mm of filament in a 5cm line. 
G92 E0                                     ; zero the extruded length again 
G1 E-2 F500                                ; Retract a little 
G1 X70 F4000                              ; Quickly wipe away from the filament line
M117
G90
G21
M82 ; use absolute distances for extrusion
G92 E0
; filament start gcode
M106 S0
;LAYER_CHANGE
;Z:0.24
;HEIGHT:0.24
; BEFORE_LAYER_CHANGE 0 @ 0.24mm
G1 E-2.5 F6000
G92 E0
; AFTER_LAYER_CHANGE 0 @ 0.24mm
;_SET_FAN_SPEED_CHANGING_LAYER
M204 P500
; printing object "Unbenannt.stl" id:0 copy 0
M204 T500
G1 X96.713 Y94.107 F18000
G1 Z.24
G1 E2.5 F6000
;TYPE:Brim
;WIDTH:0.5
G1 F3000
G1 X97.086 Y93.729 E2.52302
G1 X97.484 Y93.395 E2.5456
G1 X97.905 Y93.104 E2.5678
G1 X98.343 Y92.855 E2.58969
G1 X98.795 Y92.648 E2.61127
G1 X99.383 Y92.445 E2.63825
G1 X99.86 Y92.33 E2.65958
G1 X100.347 Y92.256 E2.68094
G1 X100.84 Y92.224 E2.70239
G1 X101.209 Y92.228 E2.71844
G1 X101.663 Y92.266 E2.73821
G1 X101.806 Y92.229 E2.74462
G1 X101.868 Y92.168 E2.7484
G1 X102.17 Y91.72 E2.77181
G1 X102.553 Y91.268 E2.79756
G1 X102.886 Y90.947 E2.81762
G1 X103.33 Y90.593 E2.84228
G1 X103.797 Y90.294 E2.86634
G1 X104.28 Y90.049 E2.88986
G1 X104.774 Y89.856 E2.91288
G1 X105.274 Y89.712 E2.93547
G1 X105.776 Y89.617 E2.95766
G1 X106.278 Y89.568 E2.97954
G1 X106.775 Y89.563 E3.00113
G1 X107.394 Y89.616 E3.02811
G1 X107.878 Y89.706 E3.04944
G1 X108.352 Y89.836 E3.0708
G1 X108.816 Y90.007 E3.09225
G1 X109.152 Y90.161 E3.1083
G1 X109.551 Y90.381 E3.12809
G1 X109.697 Y90.405 E3.1345
G1 X109.779 Y90.374 E3.13829
G1 X110.235 Y90.088 E3.16167
G1 X110.661 Y89.878 E3.1823
G1 X111.318 Y89.638 E3.21268
G1 X111.753 Y89.53 E3.2321
G1 X112.301 Y89.447 E3.25615
G1 X112.961 Y89.42 E3.28483
G1 X113.486 Y89.456 E3.30767
G1 X113.885 Y89.516 E3.32522
G1 X114.386 Y89.634 E3.34753
G1 X114.863 Y89.792 E3.36935
G1 X115.434 Y90.047 E3.39649
G1 X115.864 Y90.291 E3.41798
G1 X116.168 Y90.495 E3.43384
G1 X116.555 Y90.798 E3.4552
G1 X117.004 Y91.227 E3.48216
G1 X117.248 Y91.503 E3.49816
G1 X117.523 Y91.866 E3.51793
G1 X117.646 Y91.948 E3.52434
G1 X117.733 Y91.953 E3.52812
G1 X118.267 Y91.878 E3.55153
G1 X118.86 Y91.86 E3.57728
G1 X119.321 Y91.892 E3.59734
G1 X119.881 Y91.985 E3.62195
G1 X120.529 Y92.171 E3.65124
G1 X121.031 Y92.377 E3.67476
G1 X121.5 Y92.625 E3.69784
G1 X121.936 Y92.911 E3.72047
G1 X122.337 Y93.23 E3.74271
G1 X122.704 Y93.579 E3.76468
G1 X122.953 Y93.856 E3.78084
G1 X123.256 Y94.249 E3.80237
G1 X123.521 Y94.662 E3.82368
G1 X123.802 Y95.205 E3.85022
G1 X123.987 Y95.669 E3.87193
G1 X124.098 Y96.023 E3.88801
G1 X124.202 Y96.466 E3.90778
G1 X124.281 Y96.591 E3.91419
G1 X124.359 Y96.631 E3.91799
G1 X124.869 Y96.777 E3.94102
G1 X125.318 Y96.954 E3.96198
G1 X125.834 Y97.221 E3.9872
G1 X126.404 Y97.607 E4.01704
G1 X126.736 Y97.885 E4.03586
G1 X127.119 Y98.27 E4.05943
G1 X127.455 Y98.679 E4.0824
G1 X127.81 Y99.218 E4.11043
G1 X127.992 Y99.558 E4.12718
G1 X128.194 Y100.02 E4.14906
G1 X128.387 Y100.615 E4.17619
G1 X128.493 Y101.098 E4.19768
G1 X128.545 Y101.46 E4.21354
G1 X128.578 Y101.951 E4.2349
G1 X128.56 Y102.572 E4.26187
G1 X128.518 Y102.938 E4.27786
G1 X128.433 Y103.385 E4.29763
G1 X128.454 Y103.531 E4.30404
G1 X128.509 Y103.599 E4.30783
G1 X128.923 Y103.946 E4.33129
G1 X129.255 Y104.286 E4.3519
G1 X129.616 Y104.739 E4.37705
G1 X129.98 Y105.322 E4.40689
G1 X130.17 Y105.712 E4.42571
G1 X130.364 Y106.219 E4.44928
G1 X130.505 Y106.73 E4.4723
G1 X130.595 Y107.243 E4.49488
G1 X130.637 Y107.751 E4.51703
G1 X130.626 Y108.382 E4.54443
G1 X130.587 Y108.752 E4.56055
G1 X130.498 Y109.238 E4.582
G1 X130.331 Y109.828 E4.60862
G1 X130.2 Y110.174 E4.62471
G1 X129.99 Y110.624 E4.64622
G1 X129.743 Y111.054 E4.66777
G1 X129.483 Y111.427 E4.68748
G1 X129.444 Y111.569 E4.69389
G1 X129.466 Y111.653 E4.69768
G1 X129.702 Y112.138 E4.72109
G1 X129.902 Y112.696 E4.74684
G1 X130.014 Y113.145 E4.7669
G1 X130.099 Y113.706 E4.79156
G1 X130.124 Y114.26 E4.81561
G1 X130.095 Y114.801 E4.83914
G1 X130.016 Y115.324 E4.86211
G1 X129.853 Y115.948 E4.89008
G1 X129.674 Y116.426 E4.91226
G1 X129.455 Y116.882 E4.93418
G1 X129.201 Y117.311 E4.95585
G1 X128.913 Y117.714 E4.97734
G1 X128.593 Y118.088 E4.99872
G1 X128.243 Y118.434 E5.02007
G1 X127.863 Y118.75 E5.04153
G1 X127.562 Y118.964 E5.05757
G1 X127.172 Y119.2 E5.07737
G1 X127.078 Y119.314 E5.08378
G1 X127.064 Y119.4 E5.08757
G1 X127.083 Y119.937 E5.1109
G1 X127.039 Y120.53 E5.13671
G1 X126.959 Y120.986 E5.15677
G1 X126.807 Y121.533 E5.18143
G1 X126.605 Y122.049 E5.20549
G1 X126.359 Y122.532 E5.22901
G1 X126.073 Y122.977 E5.25198
G1 X125.671 Y123.481 E5.27995
G1 X125.313 Y123.845 E5.30213
G1 X124.928 Y124.172 E5.32406
G1 X124.521 Y124.461 E5.34572
G1 X124.094 Y124.712 E5.36721
G1 X123.65 Y124.924 E5.38859
G1 X123.189 Y125.097 E5.40994
G1 X122.714 Y125.231 E5.43139
G1 X122.351 Y125.305 E5.44744
G1 X121.899 Y125.361 E5.46721
G1 X121.767 Y125.427 E5.47362
G1 X121.719 Y125.5 E5.47741
G1 X121.518 Y126 E5.50082
G1 X121.236 Y126.522 E5.52657
G1 X120.978 Y126.906 E5.54663
G1 X120.617 Y127.344 E5.57129
G1 X120.223 Y127.734 E5.59534
G1 X119.801 Y128.074 E5.61886
G1 X119.359 Y128.365 E5.64184
G1 X118.787 Y128.661 E5.6698
G1 X118.311 Y128.849 E5.69199
G1 X117.827 Y128.991 E5.71391
G1 X117.338 Y129.089 E5.73558
G1 X116.846 Y129.145 E5.75706
G1 X116.353 Y129.158 E5.77845
G1 X115.862 Y129.129 E5.7998
G1 X115.373 Y129.058 E5.82125
G1 X115.012 Y128.977 E5.8373
G1 X114.576 Y128.846 E5.85707
G1 X114.429 Y128.852 E5.86348
G1 X114.355 Y128.899 E5.86726
G1 X113.968 Y129.274 E5.89068
G1 X113.499 Y129.636 E5.91637
G1 X113.004 Y129.938 E5.94157
G1 X112.49 Y130.181 E5.96623
G1 X111.966 Y130.366 E5.99034
G1 X111.439 Y130.494 E6.0139
G1 X110.911 Y130.569 E6.03704
G1 X110.515 Y130.593 E6.05427
G1 X110.003 Y130.581 E6.07652
G1 X109.501 Y130.525 E6.09841
G1 X109.013 Y130.427 E6.12005
G1 X108.538 Y130.288 E6.14152
G1 X108.079 Y130.109 E6.16289
G1 X107.637 Y129.892 E6.18425
G1 X107.215 Y129.638 E6.20566
G1 X106.813 Y129.347 E6.22721
G1 X106.469 Y129.05 E6.24693
G1 X106.332 Y128.995 E6.25334
G1 X106.246 Y129.009 E6.25712
G1 X105.739 Y129.194 E6.28054
G1 X105.162 Y129.334 E6.30629
G1 X104.705 Y129.398 E6.32635
G1 X104.137 Y129.424 E6.35101
G1 X103.584 Y129.391 E6.37506
G1 X103.049 Y129.306 E6.39858
G1 X102.537 Y129.172 E6.42155
G1 X101.934 Y128.945 E6.44952
G1 X101.477 Y128.717 E6.47171
G1 X101.047 Y128.452 E6.49363
G1 X100.646 Y128.154 E6.5153
G1 X100.276 Y127.826 E6.53678
G1 X99.937 Y127.468 E6.55816
G1 X99.63 Y127.084 E6.57952
G1 X99.355 Y126.673 E6.60097
G1 X99.173 Y126.351 E6.61702
G1 X98.98 Y125.939 E6.63679
G1 X98.876 Y125.833 E6.6432
G1 X98.792 Y125.811 E6.64698
G1 X98.254 Y125.773 E6.67039
G1 X97.671 Y125.667 E6.69614
G1 X97.226 Y125.54 E6.7162
G1 X96.698 Y125.332 E6.74086
G1 X96.205 Y125.077 E6.76492
G1 X95.752 Y124.782 E6.78844
G1 X95.338 Y124.451 E6.81141
G1 X94.88 Y123.998 E6.83938
G1 X94.554 Y123.604 E6.86157
G1 X94.269 Y123.187 E6.88349
G1 X94.025 Y122.752 E6.90515
G1 X93.82 Y122.302 E6.92664
G1 X93.655 Y121.837 E6.94802
G1 X93.531 Y121.361 E6.96937
G1 X93.448 Y120.874 E6.99083
G1 X93.412 Y120.506 E7.00688
G1 X93.403 Y120.051 E7.02665
G1 X93.352 Y119.912 E7.03305
G1 X93.284 Y119.857 E7.03684
G1 X92.808 Y119.604 E7.06025
G1 X92.318 Y119.27 E7.086
G1 X91.964 Y118.973 E7.10606
G1 X91.565 Y118.568 E7.13072
G1 X91.219 Y118.135 E7.15477
G1 X90.925 Y117.68 E7.1783
G1 X90.681 Y117.209 E7.20132
G1 X90.486 Y116.727 E7.2239
G1 X90.339 Y116.237 E7.2461
G1 X90.237 Y115.744 E7.26798
G1 X90.18 Y115.25 E7.28957
G1 X90.169 Y114.628 E7.31655
G1 X90.208 Y114.138 E7.33788
G1 X90.288 Y113.653 E7.35924
G1 X90.408 Y113.177 E7.38055
G1 X90.523 Y112.833 E7.39628
G1 X90.704 Y112.403 E7.41651
G1 X90.713 Y112.256 E7.42292
G1 X90.674 Y112.179 E7.4267
G1 X90.341 Y111.754 E7.45011
G1 X90.032 Y111.252 E7.47568
G1 X89.785 Y110.733 E7.50066
G1 X89.628 Y110.304 E7.52046
G1 X89.488 Y109.765 E7.54463
G1 X89.404 Y109.23 E7.56816
G1 X89.373 Y108.701 E7.59118
G1 X89.391 Y108.181 E7.61376
G1 X89.455 Y107.674 E7.63596
G1 X89.564 Y107.181 E7.65784
G1 X89.712 Y106.707 E7.67941
G1 X89.951 Y106.141 E7.70607
G1 X90.189 Y105.703 E7.72771
G1 X90.46 Y105.292 E7.74909
G1 X90.766 Y104.903 E7.77054
G1 X91.015 Y104.631 E7.78658
G1 X91.348 Y104.319 E7.80637
G1 X91.416 Y104.188 E7.81278
G1 X91.412 Y104.101 E7.81656
G1 X91.281 Y103.578 E7.83996
G1 X91.202 Y102.99 E7.86571
G1 X91.186 Y102.529 E7.88577
G1 X91.22 Y101.962 E7.91043
G1 X91.31 Y101.415 E7.93449
G1 X91.451 Y100.892 E7.95801
G1 X91.638 Y100.395 E7.98104
G1 X91.866 Y99.928 E8.00361
G1 X92.132 Y99.491 E8.02581
G1 X92.431 Y99.085 E8.04769
G1 X92.759 Y98.712 E8.06928
G1 X93.214 Y98.288 E8.09626
G1 X93.601 Y97.99 E8.11746
G1 X94.011 Y97.727 E8.13861
G1 X94.455 Y97.493 E8.16036
G1 X94.794 Y97.346 E8.17645
G1 X95.225 Y97.196 E8.19622
G1 X95.34 Y97.105 E8.20263
G1 X95.372 Y97.023 E8.20641
G1 X95.465 Y96.492 E8.22982
G1 X95.632 Y95.923 E8.25557
G1 X95.805 Y95.494 E8.27563
G1 X96.067 Y94.99 E8.30029
G1 X96.371 Y94.527 E8.32434
G1 X96.688 Y94.138 E8.34613
G1 X97.036 Y94.42 F18000
G1 F3000
G1 X97.043 Y94.412 E8.34661
G1 X97.386 Y94.064 E8.36778
G1 X97.752 Y93.756 E8.38857
G1 X98.139 Y93.487 E8.40901
G1 X98.553 Y93.252 E8.42968
G1 X98.968 Y93.062 E8.4495
G1 X99.515 Y92.874 E8.47458
G1 X99.952 Y92.77 E8.49411
G1 X100.401 Y92.702 E8.51381
G1 X100.857 Y92.673 E8.53367
G1 X101.193 Y92.676 E8.54826
G1 X101.614 Y92.712 E8.56659
G1 X101.9 Y92.668 E8.57916
G1 X102.176 Y92.494 E8.59329
G1 X102.525 Y91.996 E8.6197
G1 X102.877 Y91.58 E8.64334
G1 X103.187 Y91.28 E8.66208
G1 X103.586 Y90.963 E8.68422
G1 X104.014 Y90.688 E8.7063
G1 X104.458 Y90.462 E8.72791
G1 X104.912 Y90.283 E8.74909
G1 X105.372 Y90.151 E8.76987
G1 X105.834 Y90.063 E8.79031
G1 X106.308 Y90.016 E8.81098
G1 X106.765 Y90.012 E8.8308
G1 X107.34 Y90.063 E8.85589
G1 X107.783 Y90.145 E8.87541
G1 X108.22 Y90.266 E8.89511
G1 X108.649 Y90.424 E8.91497
G1 X108.955 Y90.564 E8.92956
G1 X109.325 Y90.768 E8.94791
G1 X109.604 Y90.845 E8.96048
G1 X109.927 Y90.798 E8.97463
G1 X110.45 Y90.483 E9.00115
G1 X110.831 Y90.294 E9.01959
G1 X111.457 Y90.066 E9.04849
G1 X111.847 Y89.97 E9.06594
G1 X112.336 Y89.895 E9.08742
G1 X112.962 Y89.87 E9.11461
G1 X113.443 Y89.903 E9.13554
G1 X113.806 Y89.958 E9.15147
G1 X114.257 Y90.064 E9.17161
G1 X114.706 Y90.214 E9.19216
G1 X115.237 Y90.451 E9.21738
G1 X115.624 Y90.67 E9.23669
G1 X115.9 Y90.855 E9.2511
G1 X116.265 Y91.142 E9.27129
G1 X116.685 Y91.543 E9.29646
G1 X116.904 Y91.792 E9.31086
G1 X117.159 Y92.128 E9.32919
G1 X117.383 Y92.312 E9.34175
G1 X117.696 Y92.4 E9.35589
G1 X118.3 Y92.326 E9.3823
G1 X118.845 Y92.309 E9.40594
G1 X119.275 Y92.339 E9.42468
G1 X119.774 Y92.422 E9.44662
G1 X120.389 Y92.598 E9.47438
G1 X120.846 Y92.787 E9.49584
G1 X121.277 Y93.015 E9.51705
G1 X121.678 Y93.279 E9.53786
G1 X122.047 Y93.573 E9.55833
G1 X122.378 Y93.889 E9.5782
G1 X122.605 Y94.14 E9.59288
G1 X122.892 Y94.512 E9.61331
G1 X123.136 Y94.892 E9.63288
G1 X123.396 Y95.398 E9.65756
G1 X123.566 Y95.825 E9.67754
G1 X123.667 Y96.146 E9.69215
G1 X123.763 Y96.558 E9.71049
G1 X123.893 Y96.816 E9.72305
G1 X124.09 Y96.996 E9.73462
G1 X124.245 Y97.065 E9.742
G1 X124.731 Y97.204 E9.76394
G1 X125.126 Y97.361 E9.78237
G1 X125.611 Y97.612 E9.80611
G1 X126.139 Y97.97 E9.83376
G1 X126.437 Y98.22 E9.85066
G1 X126.782 Y98.566 E9.87188
G1 X127.097 Y98.951 E9.89347
G1 X127.427 Y99.453 E9.91954
G1 X127.59 Y99.759 E9.9346
G1 X127.771 Y100.174 E9.95424
G1 X127.955 Y100.739 E9.98004
G1 X128.05 Y101.173 E9.99935
G1 X128.098 Y101.502 E10.01376
G1 X128.129 Y101.966 E10.03396
G1 X128.112 Y102.545 E10.05912
G1 X128.074 Y102.875 E10.07351
G1 X127.994 Y103.29 E10.09185
G1 X128.008 Y103.579 E10.10441
G1 X128.115 Y103.823 E10.11597
G1 X128.228 Y103.949 E10.12333
G1 X128.622 Y104.281 E10.1457
G1 X128.914 Y104.579 E10.1638
G1 X129.245 Y104.992 E10.18679
G1 X129.583 Y105.534 E10.21452
G1 X129.756 Y105.885 E10.2315
G1 X129.939 Y106.365 E10.25381
G1 X130.065 Y106.823 E10.27441
G1 X130.148 Y107.294 E10.29519
G1 X130.188 Y107.773 E10.31603
G1 X130.177 Y108.361 E10.34157
G1 X130.142 Y108.693 E10.35606
G1 X130.059 Y109.142 E10.3759
G1 X129.906 Y109.682 E10.40023
G1 X129.788 Y109.995 E10.41479
G1 X129.589 Y110.421 E10.4352
G1 X129.366 Y110.808 E10.45458
G1 X129.122 Y111.161 E10.47322
G1 X129.016 Y111.431 E10.48578
G1 X129.029 Y111.756 E10.49991
G1 X129.286 Y112.308 E10.52633
G1 X129.47 Y112.82 E10.54997
G1 X129.575 Y113.239 E10.5687
G1 X129.652 Y113.757 E10.59144
G1 X129.675 Y114.265 E10.61351
G1 X129.647 Y114.762 E10.63511
G1 X129.574 Y115.24 E10.65613
G1 X129.422 Y115.818 E10.68208
G1 X129.263 Y116.245 E10.70184
G1 X129.062 Y116.665 E10.72203
G1 X128.828 Y117.061 E10.74201
G1 X128.556 Y117.441 E10.76232
G1 X128.26 Y117.787 E10.78204
G1 X127.937 Y118.105 E10.80173
G1 X127.585 Y118.397 E10.82159
G1 X127.311 Y118.592 E10.83618
G1 X126.949 Y118.811 E10.85454
G1 X126.744 Y119.014 E10.8671
G1 X126.623 Y119.317 E10.88125
G1 X126.634 Y119.924 E10.90758
G1 X126.594 Y120.468 E10.93128
G1 X126.519 Y120.893 E10.95001
G1 X126.379 Y121.398 E10.97275
G1 X126.193 Y121.871 E10.99482
G1 X125.966 Y122.313 E11.01641
G1 X125.704 Y122.721 E11.03744
G1 X125.33 Y123.187 E11.06339
G1 X125.011 Y123.512 E11.08314
G1 X124.657 Y123.814 E11.10335
G1 X124.282 Y124.081 E11.12332
G1 X123.878 Y124.318 E11.14363
G1 X123.468 Y124.513 E11.16335
G1 X123.044 Y124.672 E11.18304
G1 X122.603 Y124.796 E11.2029
G1 X122.274 Y124.862 E11.21749
G1 X121.855 Y124.915 E11.23582
G1 X121.584 Y125.017 E11.24839
G1 X121.351 Y125.245 E11.26252
G1 X121.113 Y125.805 E11.28894
G1 X120.855 Y126.284 E11.31257
G1 X120.614 Y126.642 E11.33131
G1 X120.28 Y127.046 E11.35405
G1 X119.918 Y127.403 E11.37612
G1 X119.531 Y127.715 E11.39771
G1 X119.126 Y127.981 E11.41874
G1 X118.595 Y128.255 E11.44468
G1 X118.171 Y128.422 E11.46444
G1 X117.725 Y128.554 E11.48464
G1 X117.274 Y128.645 E11.50461
G1 X116.809 Y128.697 E11.52493
G1 X116.355 Y128.708 E11.54465
G1 X115.902 Y128.681 E11.56434
G1 X115.449 Y128.615 E11.5842
G1 X115.121 Y128.542 E11.59879
G1 X114.717 Y128.42 E11.61712
G1 X114.428 Y128.403 E11.62969
G1 X114.174 Y128.483 E11.64124
G1 X114.037 Y128.583 E11.6486
G1 X113.668 Y128.939 E11.67085
G1 X113.238 Y129.27 E11.6944
G1 X112.784 Y129.546 E11.71748
G1 X112.313 Y129.768 E11.74008
G1 X111.832 Y129.937 E11.7622
G1 X111.347 Y130.054 E11.78384
G1 X110.861 Y130.123 E11.80519
G1 X110.501 Y130.144 E11.82081
G1 X110.026 Y130.133 E11.84143
G1 X109.577 Y130.082 E11.86107
G1 X109.126 Y129.992 E11.88102
