; HEADER_BLOCK_START
; generated by AnycubicSlicerNext 1.3.2 on 2025-02-14 at 00:38:54
; total layer number: 60
; filament_density: 1.24
; filament_diameter: 1.75
; max_z_height: 12.04
; exclude_object: 0
; model_instances: 1
; HEADER_BLOCK_END

; THUMBNAIL_BLOCK_START

;
; THUMBNAIL_BLOCK_END

; external perimeters extrusion width = 0.42mm
; perimeters extrusion width = 0.45mm
; infill extrusion width = 0.45mm
; solid infill extrusion width = 0.42mm
; top infill extrusion width = 0.42mm
; first layer extrusion width = 0.50mm

; EXECUTABLE_BLOCK_START
M201 X2000 Y2000 Z800 E2000
M203 X300 Y300 Z8 E100
M204 P2000 R2000 T2000
M205 X10.00 Y10.00 Z2.00 E5.00 ; sets the jerk limits, mm/sec
;TYPE:Custom
G90 ; use absolute coordinates
M83 ; extruder relative mode
M104 S220 ; set extruder temp
M140 S60 ; set bed temp
M190 S60 ; wait for bed temp
M109 S220 ; wait for extruder temp
G28                                        ; move X/Y/Z to min endstops
G1 Z0.28                                   ; lift nozzle a bit 
G92 E0 
G1 Y3 F1800                                    ; zero the extruded length 
G1 X60  E25 F500                       ; Extrude 25mm of filament in a 5cm line. 
G92 E0                                     ; zero the extruded length again 
G1 E-2 F500                                ; Retract a little 
G1 X70 F4000                              ; Quickly wipe away from the filament line
M117
G90
G21
M82 ; use absolute distances for extrusion
G92 E0
; filament start gcode
M106 S0
;LAYER_CHANGE
;Z:0.24
;HEIGHT:0.24
; BEFORE_LAYER_CHANGE 0 @ 0.24mm
G1 E-2.5 F6000
G92 E0
; AFTER_LAYER_CHANGE 0 @ 0.24mm
;_SET_FAN_SPEED_CHANGING_LAYER
M204 P500
; printing object "Basisrad.stl" id:2464907223808 copy 0
M204 T500
G1 X69.952 Y70.285 F18000
G1 Z.24
G1 E2.5 F6000
;TYPE:Brim
;WIDTH:0.5
G1 F3000
G1 X70.952 Y69.29 E2.56125
G1 X72.61 Y67.762 E2.65908
G1 X74.194 Y66.411 E2.74949
G1 X75.037 Y65.732 E2.79645
G1 X76.834 Y64.37 E2.89432
G1 X78.541 Y63.177 E2.98473
G1 X79.517 Y62.535 E3.03546
G1 X80.434 Y61.959 E3.08247
G1 X82.228 Y60.9 E3.17288
G1 X84.212 Y59.83 E3.27075
G1 X85.179 Y59.344 E3.31771
G1 X87.066 Y58.463 E3.40812
G1 X89.143 Y57.588 E3.50595
G1 X91.092 Y56.853 E3.59636
G1 X92.114 Y56.5 E3.64331
G1 X94.267 Y55.828 E3.74119
G1 X96.368 Y55.262 E3.83569
G1 X98.389 Y54.798 E3.92569
G1 X99.535 Y54.569 E3.97639
G1 X101.589 Y54.22 E4.06684
G1 X102.66 Y54.069 E4.1138
G1 X104.902 Y53.82 E4.21172
G1 X105.98 Y53.733 E4.25868
G1 X108.061 Y53.623 E4.34913
G1 X109.239 Y53.595 E4.40027
G1 X110.435 Y53.592 E4.4522
G1 X112.396 Y53.64 E4.53732
G1 X113.562 Y53.702 E4.58802
G1 X115.639 Y53.872 E4.67848
G1 X116.714 Y53.99 E4.72543
G1 X118.947 Y54.303 E4.82331
G1 X120.997 Y54.672 E4.91372
G1 X123.206 Y55.157 E5.01189
G1 X124.363 Y55.449 E5.06371
G1 X126.254 Y55.981 E5.14896
G1 X127.286 Y56.303 E5.19592
G1 X129.419 Y57.037 E5.2938
G1 X131.36 Y57.79 E5.3842
G1 X132.358 Y58.209 E5.43116
G1 X134.41 Y59.144 E5.52908
G1 X135.381 Y59.621 E5.57604
G1 X137.224 Y60.593 E5.66649
G1 X138.25 Y61.172 E5.71762
G1 X139.277 Y61.782 E5.76944
G1 X140.938 Y62.829 E5.85468
G1 X141.908 Y63.48 E5.90538
G1 X143.604 Y64.69 E5.99583
G1 X144.467 Y65.343 E6.04279
G1 X146.225 Y66.756 E6.14071
G1 X147.054 Y67.465 E6.18807
G1 X148.592 Y68.855 E6.27808
G1 X150.205 Y70.43 E6.37591
G1 X151.557 Y71.853 E6.46112
G1 X152.418 Y72.812 E6.51705
G1 X153.124 Y73.633 E6.56406
G1 X154.437 Y75.249 E6.65446
G1 X155.79 Y77.053 E6.75234
G1 X156.414 Y77.937 E6.7993
G1 X157.565 Y79.672 E6.8897
G1 X158.739 Y81.597 E6.98758
G1 X159.275 Y82.537 E7.03454
G1 X160.255 Y84.375 E7.12495
G1 X161.239 Y86.402 E7.22278
G1 X162.075 Y88.31 E7.31319
G1 X162.481 Y89.312 E7.36015
G1 X163.266 Y91.426 E7.45802
G1 X163.913 Y93.396 E7.54802
G1 X164.224 Y94.442 E7.59539
G1 X164.803 Y96.622 E7.69331
G1 X165.049 Y97.676 E7.74026
G1 X165.458 Y99.674 E7.82881
G1 X165.833 Y101.941 E7.92855
G1 X165.977 Y103.013 E7.9755
G1 X166.197 Y105.085 E8.06596
G1 X166.287 Y106.249 E8.11665
G1 X166.387 Y108.32 E8.20665
G1 X166.409 Y110.584 E8.30494
G1 X166.387 Y111.666 E8.35189
G1 X166.289 Y113.705 E8.44049
G1 X166.197 Y114.912 E8.49303
G1 X165.978 Y116.983 E8.58345
G1 X165.654 Y119.214 E8.68132
G1 X165.467 Y120.28 E8.72828
G1 X165.05 Y122.32 E8.81869
G1 X164.514 Y124.51 E8.91656
G1 X164.225 Y125.553 E8.96352
G1 X163.614 Y127.544 E9.05393
G1 X162.871 Y129.672 E9.15176
G1 X162.108 Y131.61 E9.24217
G1 X161.684 Y132.605 E9.28913
G1 X160.74 Y134.652 E9.38701
G1 X159.795 Y136.508 E9.47741
G1 X159.235 Y137.535 E9.52815
G1 X158.698 Y138.474 E9.57515
G1 X157.676 Y140.152 E9.66041
G1 X157.028 Y141.154 E9.71221
G1 X156.367 Y142.13 E9.76339
G1 X155.742 Y143.014 E9.8104
G1 X154.492 Y144.68 E9.9008
G1 X153.07 Y146.431 E9.99868
G1 X152.364 Y147.25 E10.04564
G1 X150.96 Y148.788 E10.13605
G1 X149.377 Y150.394 E10.23391
G1 X148.595 Y151.142 E10.28088
G1 X147.05 Y152.538 E10.37129
G1 X145.321 Y153.984 E10.46912
G1 X143.674 Y155.258 E10.55953
G1 X142.8 Y155.896 E10.60649
G1 X140.939 Y157.17 E10.70436
G1 X139.177 Y158.28 E10.79477
G1 X138.246 Y158.83 E10.84173
G1 X136.264 Y159.924 E10.94001
G1 X134.411 Y160.856 E11.03001
G1 X132.353 Y161.793 E11.12818
G1 X131.252 Y162.254 E11.18
G1 X129.421 Y162.963 E11.26524
G1 X128.32 Y163.353 E11.31595
G1 X126.337 Y163.993 E11.4064
G1 X125.299 Y164.297 E11.45336
G1 X123.116 Y164.865 E11.55123
G1 X121.082 Y165.311 E11.64164
G1 X120.02 Y165.514 E11.6886
G1 X117.792 Y165.87 E11.78652
G1 X116.719 Y166.009 E11.83348
G1 X114.646 Y166.219 E11.92393
G1 X113.471 Y166.304 E11.97506
G1 X112.279 Y166.364 E12.02688
G1 X110.316 Y166.41 E12.11213
G1 X109.234 Y166.405 E12.15908
G1 X106.979 Y166.329 E12.257
G1 X105.9 Y166.261 E12.30396
G1 X103.825 Y166.071 E12.39442
G1 X102.655 Y165.93 E12.44555
G1 X101.474 Y165.761 E12.49737
G1 X99.538 Y165.432 E12.58261
G1 X98.477 Y165.221 E12.62957
G1 X96.279 Y164.716 E12.72745
G1 X94.268 Y164.172 E12.81786
G1 X93.233 Y163.861 E12.86482
G1 X91.094 Y163.147 E12.96269
G1 X89.145 Y162.413 E13.05309
G1 X88.063 Y161.97 E13.10384
G1 X87.07 Y161.539 E13.15084
G1 X85.183 Y160.658 E13.24125
G1 X83.178 Y159.625 E13.33913
G1 X82.231 Y159.102 E13.38608
G1 X80.437 Y158.043 E13.47653
G1 X79.449 Y157.42 E13.52723
G1 X77.719 Y156.26 E13.61763
G1 X75.897 Y154.934 E13.71547
G1 X74.261 Y153.644 E13.80588
G1 X73.431 Y152.951 E13.85283
G1 X71.744 Y151.455 E13.95071
G1 X70.24 Y150.015 E14.04112
G1 X69.48 Y149.245 E14.08807
G1 X67.944 Y147.594 E14.18595
G1 X66.585 Y146.016 E14.27636
G1 X65.902 Y145.177 E14.32332
G1 X64.531 Y143.386 E14.42119
G1 X63.33 Y141.685 E14.5116
G1 X62.731 Y140.784 E14.55856
G1 X61.539 Y138.871 E14.65644
G1 X60.564 Y137.167 E14.74164
G1 X59.956 Y136.031 E14.79757
G1 X59.465 Y135.065 E14.84458
G1 X58.575 Y133.183 E14.93499
G1 X57.69 Y131.11 E15.03282
G1 X56.946 Y129.165 E15.12323
G1 X56.588 Y128.144 E15.17019
G1 X55.905 Y125.994 E15.26811
G1 X55.609 Y124.953 E15.31506
G1 X55.094 Y122.934 E15.40551
G1 X54.838 Y121.795 E15.45622
G1 X54.461 Y119.867 E15.54147
G1 X54.264 Y118.69 E15.59327
G1 X54.095 Y117.523 E15.64445
G1 X53.961 Y116.449 E15.69146
G1 X53.761 Y114.376 E15.78186
G1 X53.631 Y112.126 E15.8797
G1 X53.591 Y110.053 E15.96969
G1 X53.6 Y108.962 E16.01706
G1 X53.687 Y106.708 E16.11498
G1 X53.76 Y105.628 E16.16194
G1 X53.96 Y103.555 E16.25235
G1 X54.262 Y101.322 E16.35019
G1 X54.599 Y99.388 E16.43539
G1 X54.855 Y98.125 E16.49132
G1 X55.093 Y97.069 E16.53833
G1 X55.608 Y95.051 E16.62873
G1 X56.248 Y92.89 E16.72657
G1 X56.916 Y90.917 E16.81697
G1 X57.292 Y89.903 E16.86393
G1 X58.138 Y87.812 E16.96184
G1 X58.573 Y86.821 E17.00881
G1 X59.463 Y84.939 E17.09922
G1 X60.505 Y82.939 E17.19708
G1 X61.033 Y81.995 E17.24405
G1 X62.101 Y80.206 E17.33446
G1 X63.329 Y78.317 E17.4323
G1 X64.53 Y76.615 E17.5227
G1 X65.179 Y75.75 E17.56966
G1 X66.583 Y73.986 E17.66754
G1 X67.863 Y72.497 E17.75274
G1 X68.73 Y71.544 E17.80867
G1 X69.476 Y70.759 E17.85568
G1 X69.924 Y70.313 E17.88311
G1 X70.24 Y70.631 F18000
G1 F3000
G1 X71.261 Y69.616 E17.9456
G1 X72.909 Y68.096 E18.04291
G1 X74.479 Y66.758 E18.13248
G1 X75.311 Y66.087 E18.17887
G1 X77.1 Y64.732 E18.27628
G1 X78.791 Y63.55 E18.36584
G1 X79.759 Y62.913 E18.41613
G1 X80.669 Y62.341 E18.4628
G1 X82.446 Y61.292 E18.55237
G1 X84.421 Y60.227 E18.64978
G1 X85.376 Y59.747 E18.69617
G1 X87.245 Y58.874 E18.78574
G1 X89.311 Y58.003 E18.88305
G1 X91.242 Y57.276 E18.97262
G1 X92.252 Y56.927 E19.019
G1 X94.394 Y56.258 E19.11641
G1 X96.479 Y55.696 E19.21015
G1 X98.481 Y55.237 E19.29932
G1 X99.614 Y55.01 E19.34946
G1 X101.656 Y54.664 E19.43936
G1 X102.714 Y54.515 E19.48575
G1 X104.947 Y54.267 E19.58327
G1 X106.012 Y54.18 E19.62966
G1 X108.076 Y54.071 E19.71939
G1 X109.246 Y54.043 E19.77018
G1 X110.432 Y54.041 E19.82165
G1 X112.376 Y54.089 E19.90608
G1 X113.53 Y54.149 E19.95623
G1 X115.598 Y54.319 E20.04629
G1 X116.66 Y54.436 E20.09269
G1 X118.874 Y54.746 E20.18971
G1 X120.912 Y55.112 E20.27959
G1 X123.105 Y55.594 E20.37706
G1 X124.249 Y55.883 E20.4283
G1 X126.128 Y56.412 E20.51302
G1 X127.149 Y56.73 E20.55943
G1 X129.262 Y57.457 E20.65645
G1 X131.191 Y58.205 E20.74624
G1 X132.176 Y58.619 E20.79263
G1 X134.22 Y59.55 E20.89015
G1 X135.179 Y60.022 E20.93654
G1 X137.011 Y60.988 E21.02644
G1 X138.027 Y61.561 E21.07706
G1 X139.044 Y62.165 E21.12842
G1 X140.691 Y63.204 E21.21297
G1 X141.651 Y63.848 E21.26311
G1 X143.337 Y65.05 E21.35301
G1 X144.189 Y65.695 E21.3994
G1 X145.94 Y67.103 E21.49692
G1 X146.759 Y67.803 E21.5437
G1 X148.283 Y69.181 E21.63287
G1 X149.887 Y70.747 E21.73019
G1 X151.226 Y72.156 E21.81457
G1 X152.082 Y73.109 E21.87016
G1 X152.781 Y73.922 E21.91671
G1 X154.082 Y75.523 E22.00627
G1 X155.429 Y77.318 E22.10368
G1 X156.044 Y78.192 E22.15008
G1 X157.186 Y79.911 E22.23964
G1 X158.354 Y81.827 E22.33705
G1 X158.883 Y82.755 E22.38345
G1 X159.854 Y84.576 E22.47301
G1 X160.833 Y86.593 E22.57032
G1 X161.661 Y88.482 E22.65989
G1 X162.062 Y89.473 E22.70628
G1 X162.844 Y91.577 E22.80369
G1 X163.484 Y93.528 E22.89285
G1 X163.791 Y94.562 E22.93965
G1 X164.368 Y96.733 E23.03717
G1 X164.611 Y97.773 E23.08356
G1 X165.017 Y99.758 E23.17149
G1 X165.39 Y102.01 E23.27055
G1 X165.532 Y103.068 E23.31693
G1 X165.751 Y105.128 E23.40683
G1 X165.839 Y106.279 E23.45696
G1 X165.938 Y108.331 E23.54611
G1 X165.96 Y110.584 E23.64393
G1 X165.939 Y111.653 E23.69032
G1 X165.841 Y113.679 E23.77837
G1 X165.751 Y114.873 E23.83037
G1 X165.533 Y116.924 E23.91991
G1 X165.211 Y119.145 E24.01733
G1 X165.026 Y120.198 E24.06372
G1 X164.613 Y122.219 E24.15328
G1 X164.079 Y124.399 E24.2507
G1 X163.794 Y125.429 E24.29709
G1 X163.189 Y127.402 E24.38665
G1 X162.449 Y129.518 E24.48396
G1 X161.694 Y131.438 E24.57353
G1 X161.275 Y132.421 E24.61992
G1 X160.335 Y134.459 E24.71734
G1 X159.399 Y136.298 E24.80688
G1 X158.844 Y137.315 E24.85718
G1 X158.31 Y138.248 E24.90386
G1 X157.297 Y139.912 E24.98843
G1 X156.655 Y140.905 E25.03977
G1 X155.999 Y141.874 E25.09055
G1 X155.378 Y142.752 E25.13723
G1 X154.14 Y144.402 E25.22679
G1 X152.725 Y146.144 E25.32421
G1 X152.027 Y146.954 E25.3706
G1 X150.636 Y148.478 E25.46016
G1 X149.061 Y150.076 E25.55756
G1 X148.288 Y150.814 E25.60397
G1 X146.758 Y152.198 E25.69353
G1 X145.038 Y153.636 E25.79085
G1 X143.406 Y154.898 E25.88041
G1 X142.542 Y155.528 E25.9268
G1 X140.691 Y156.796 E26.02422
G1 X138.945 Y157.896 E26.11378
G1 X138.025 Y158.44 E26.16017
G1 X136.052 Y159.528 E26.25799
G1 X134.215 Y160.452 E26.34725
G1 X132.176 Y161.381 E26.44453
G1 X131.083 Y161.838 E26.49596
G1 X129.266 Y162.541 E26.5805
G1 X128.178 Y162.928 E26.63065
G1 X126.207 Y163.564 E26.72055
G1 X125.181 Y163.864 E26.76694
G1 X123.009 Y164.429 E26.86435
G1 X120.994 Y164.872 E26.95391
G1 X119.944 Y165.072 E27.00031
G1 X117.726 Y165.426 E27.09783
G1 X116.666 Y165.564 E27.14422
G1 X114.605 Y165.772 E27.23412
G1 X113.442 Y165.856 E27.28474
G1 X112.261 Y165.915 E27.3361
G1 X110.313 Y165.961 E27.42066
G1 X109.244 Y165.957 E27.46705
G1 X106.999 Y165.881 E27.56457
G1 X105.933 Y165.814 E27.61097
G1 X103.87 Y165.625 E27.70086
G1 X102.713 Y165.485 E27.75148
G1 X101.541 Y165.318 E27.80284
G1 X99.621 Y164.991 E27.8874
G1 X98.572 Y164.782 E27.9338
G1 X96.385 Y164.28 E28.03122
G1 X94.393 Y163.741 E28.12078
G1 X93.37 Y163.434 E28.16717
G1 X91.241 Y162.724 E28.26459
G1 X89.311 Y161.997 E28.35414
G1 X88.236 Y161.556 E28.40455
G1 X87.252 Y161.129 E28.45111
G1 X85.383 Y160.256 E28.54067
G1 X83.388 Y159.229 E28.63809
G1 X82.452 Y158.711 E28.68448
G1 X80.669 Y157.659 E28.77438
G1 X79.692 Y157.043 E28.82451
G1 X77.978 Y155.894 E28.91407
G1 X76.166 Y154.575 E29.01138
G1 X74.546 Y153.297 E29.10094
G1 X73.725 Y152.612 E29.14733
G1 X72.046 Y151.123 E29.24475
G1 X70.556 Y149.696 E29.33431
G1 X69.805 Y148.936 E29.3807
G1 X68.276 Y147.293 E29.47812
G1 X66.93 Y145.729 E29.56768
G1 X66.255 Y144.9 E29.61408
G1 X64.891 Y143.118 E29.71149
G1 X63.701 Y141.433 E29.80105
G1 X63.109 Y140.543 E29.84744
G1 X61.922 Y138.638 E29.94487
G1 X60.958 Y136.951 E30.02924
G1 X60.353 Y135.822 E30.08484
G1 X59.867 Y134.866 E30.13138
G1 X58.985 Y133.001 E30.22094
G1 X58.104 Y130.939 E30.31825
G1 X57.368 Y129.012 E30.40782
G1 X57.014 Y128.003 E30.45421
G1 X56.334 Y125.862 E30.55173
G1 X56.041 Y124.835 E30.59812
G1 X55.529 Y122.828 E30.68802
G1 X55.276 Y121.701 E30.73817
G1 X54.903 Y119.789 E30.82272
G1 X54.708 Y118.622 E30.87406
G1 X54.539 Y117.462 E30.92496
G1 X54.406 Y116.398 E30.97152
G1 X54.208 Y114.344 E31.06108
G1 X54.079 Y112.106 E31.15839
G1 X54.039 Y110.052 E31.24755
G1 X54.049 Y108.974 E31.29435
G1 X54.135 Y106.73 E31.39187
G1 X54.208 Y105.663 E31.43826
G1 X54.406 Y103.604 E31.52805
G1 X54.706 Y101.388 E31.62515
G1 X55.039 Y99.473 E31.70952
G1 X55.294 Y98.218 E31.76511
G1 X55.529 Y97.172 E31.81166
G1 X56.039 Y95.172 E31.90122
G1 X56.677 Y93.023 E31.99853
G1 X57.339 Y91.069 E32.0881
G1 X57.71 Y90.067 E32.13449
G1 X58.552 Y87.984 E32.23199
G1 X58.982 Y87.006 E32.2784
G1 X59.864 Y85.14 E32.36796
G1 X60.901 Y83.151 E32.46536
G1 X61.423 Y82.217 E32.51177
G1 X62.48 Y80.446 E32.60133
G1 X63.702 Y78.566 E32.69865
G1 X64.892 Y76.881 E32.78821
G1 X65.533 Y76.025 E32.8346
G1 X66.931 Y74.27 E32.93203
G1 X68.198 Y72.796 E33.0164
G1 X69.06 Y71.848 E33.07199
G1 X69.798 Y71.071 E33.11853
G1 X70.212 Y70.659 E33.14387
G1 X70.528 Y70.977 F18000
G1 F3000
G1 X71.569 Y69.941 E33.20761
G1 X73.209 Y68.43 E33.3044
G1 X74.764 Y67.104 E33.39312
G1 X75.586 Y66.442 E33.43895
G1 X77.366 Y65.093 E33.5359
G1 X79.041 Y63.922 E33.6246
G1 X80 Y63.291 E33.67444
G1 X80.904 Y62.723 E33.72079
G1 X82.664 Y61.684 E33.80951
G1 X84.63 Y60.624 E33.90646
G1 X85.573 Y60.15 E33.95229
G1 X87.425 Y59.285 E34.04101
G1 X89.48 Y58.419 E34.1378
G1 X91.393 Y57.698 E34.22653
G1 X92.391 Y57.354 E34.27235
G1 X94.522 Y56.689 E34.36928
G1 X96.591 Y56.131 E34.46228
G1 X98.574 Y55.676 E34.5506
G1 X99.694 Y55.452 E34.60018
G1 X101.723 Y55.107 E34.68953
G1 X102.768 Y54.96 E34.73535
G1 X104.992 Y54.713 E34.83247
G1 X106.044 Y54.628 E34.87829
G1 X108.092 Y54.52 E34.9673
G1 X109.254 Y54.492 E35.01775
G1 X110.429 Y54.489 E35.06876
G1 X112.357 Y54.537 E35.15249
G1 X113.498 Y54.597 E35.20208
G1 X115.557 Y54.765 E35.29176
G1 X116.607 Y54.881 E35.3376
G1 X118.8 Y55.189 E35.43376
G1 X120.826 Y55.552 E35.52312
G1 X123.004 Y56.031 E35.61988
G1 X124.135 Y56.317 E35.67055
G1 X126.002 Y56.843 E35.75474
G1 X127.011 Y57.157 E35.8006
G1 X129.106 Y57.878 E35.89676
G1 X131.021 Y58.62 E35.98593
G1 X131.994 Y59.029 E36.03176
G1 X134.03 Y59.957 E36.12887
G1 X134.977 Y60.423 E36.1747
G1 X136.798 Y61.382 E36.26404
G1 X137.803 Y61.95 E36.31415
G1 X138.811 Y62.549 E36.36505
G1 X140.445 Y63.579 E36.44891
G1 X141.394 Y64.215 E36.49849
G1 X143.07 Y65.411 E36.58784
G1 X143.912 Y66.048 E36.63367
G1 X145.655 Y67.45 E36.73078
G1 X146.465 Y68.141 E36.777
G1 X147.974 Y69.506 E36.86533
G1 X149.57 Y71.064 E36.96213
G1 X150.895 Y72.459 E37.04567
G1 X151.746 Y73.406 E37.10093
G1 X152.438 Y74.211 E37.14701
G1 X153.726 Y75.797 E37.23573
G1 X155.067 Y77.584 E37.33268
G1 X155.675 Y78.447 E37.37851
G1 X156.806 Y80.149 E37.46723
G1 X157.969 Y82.056 E37.56418
G1 X158.491 Y82.973 E37.61001
G1 X159.453 Y84.777 E37.69873
G1 X160.426 Y86.783 E37.79552
G1 X161.247 Y88.655 E37.88424
G1 X161.644 Y89.633 E37.93007
G1 X162.421 Y91.727 E38.02701
