; HEADER_BLOCK_START
; generated by AnycubicSlicerNext 1.3.2 on 2025-02-22 at 05:23:40
; total layer number: 250
; filament_density: 1.24
; filament_diameter: 1.75
; max_z_height: 50.04
; exclude_object: 0
; model_instances: 1
; HEADER_BLOCK_END

; THUMBNAIL_BLOCK_START

;
; THUMBNAIL_BLOCK_END

; external perimeters extrusion width = 0.42mm
; perimeters extrusion width = 0.45mm
; infill extrusion width = 0.45mm
; solid infill extrusion width = 0.42mm
; top infill extrusion width = 0.42mm
; first layer extrusion width = 0.50mm

; EXECUTABLE_BLOCK_START
M201 X2000 Y2000 Z800 E2000
M203 X300 Y300 Z8 E100
M204 P2000 R2000 T2000
M205 X10.00 Y10.00 Z2.00 E5.00 ; sets the jerk limits, mm/sec
;TYPE:Custom
G90 ; use absolute coordinates
M83 ; extruder relative mode
M104 S220 ; set extruder temp
M140 S60 ; set bed temp
M190 S60 ; wait for bed temp
M109 S220 ; wait for extruder temp
G28                                        ; move X/Y/Z to min endstops
G1 Z0.28                                   ; lift nozzle a bit 
G92 E0 
G1 Y3 F1800                                    ; zero the extruded length 
G1 X60  E25 F500                       ; Extrude 25mm of filament in a 5cm line. 
G92 E0                                     ; zero the extruded length again 
G1 E-2 F500                                ; Retract a little 
G1 X70 F4000                              ; Quickly wipe away from the filament line
M117
G90
G21
M82 ; use absolute distances for extrusion
G92 E0
; filament start gcode
M106 S0
;LAYER_CHANGE
;Z:0.24
;HEIGHT:0.24
; BEFORE_LAYER_CHANGE 0 @ 0.24mm
G1 E-2.5 F6000
G92 E0
; AFTER_LAYER_CHANGE 0 @ 0.24mm
;_SET_FAN_SPEED_CHANGING_LAYER
M204 P500
; printing object "Axis5mm.stl" id:3014746409472 copy 0
M204 T500
G1 X103.484 Y103.213 F18000
G1 Z.24
G1 E2.5 F6000
;TYPE:Brim
;WIDTH:0.5
G1 F3000
G1 X103.515 Y103.182 E2.50191
G1 X103.992 Y102.758 E2.5296
G1 X104.746 Y102.194 E2.57045
G1 X105.356 Y101.815 E2.60164
G1 X105.811 Y101.574 E2.624
G1 X106.715 Y101.182 E2.66678
G1 X107.509 Y100.926 E2.70298
G1 X108.136 Y100.799 E2.73076
G1 X108.771 Y100.767 E2.75835
G1 X109.405 Y100.83 E2.786
G1 X109.943 Y100.961 E2.81004
G1 X110.055 Y100.959 E2.8149
G1 X110.253 Y100.905 E2.82379
G1 X110.885 Y100.79 E2.85169
G1 X111.52 Y100.77 E2.87928
G1 X112.155 Y100.846 E2.90704
G1 X112.494 Y100.926 E2.92217
G1 X112.976 Y101.073 E2.94401
G1 X113.46 Y101.25 E2.9664
G1 X114.189 Y101.574 E3.00103
G1 X114.87 Y101.949 E3.03477
G1 X115.651 Y102.476 E3.07566
G1 X116.34 Y103.047 E3.11452
G1 X116.851 Y103.55 E3.14564
G1 X117.372 Y104.151 E3.18017
G1 X117.917 Y104.914 E3.22086
G1 X118.384 Y105.728 E3.26159
G1 X118.751 Y106.542 E3.30038
G1 X119.064 Y107.472 E3.34297
G1 X119.196 Y108.098 E3.37072
G1 X119.233 Y108.732 E3.39832
G1 X119.176 Y109.366 E3.42595
G1 X119.038 Y109.944 E3.45171
G1 X119.04 Y110.055 E3.45653
G1 X119.096 Y110.259 E3.46573
G1 X119.211 Y110.891 E3.49362
G1 X119.229 Y111.527 E3.52122
G1 X119.153 Y112.162 E3.54897
G1 X119.07 Y112.507 E3.56439
G1 X118.913 Y113.018 E3.58761
G1 X118.632 Y113.745 E3.62143
G1 X118.252 Y114.522 E3.65897
G1 X117.849 Y115.19 E3.69282
G1 X117.293 Y115.946 E3.73358
G1 X116.665 Y116.643 E3.7743
G1 X115.97 Y117.274 E3.81505
G1 X115.334 Y117.752 E3.84958
G1 X114.535 Y118.244 E3.89033
G1 X113.691 Y118.655 E3.93106
G1 X112.815 Y118.979 E3.97159
G1 X112.56 Y119.054 E3.98314
G1 X111.931 Y119.192 E4.0111
G1 X111.296 Y119.233 E4.03869
G1 X110.663 Y119.18 E4.0663
G1 X110.056 Y119.037 E4.09336
G1 X109.946 Y119.039 E4.09813
G1 X109.71 Y119.103 E4.10874
G1 X109.078 Y119.213 E4.13661
G1 X108.442 Y119.228 E4.1642
G1 X107.81 Y119.147 E4.19185
G1 X107.154 Y118.969 E4.22135
G1 X106.409 Y118.698 E4.25578
G1 X105.703 Y118.371 E4.28953
G1 X104.888 Y117.9 E4.33041
G1 X104.127 Y117.351 E4.37113
G1 X103.424 Y116.73 E4.41184
G1 X102.787 Y116.042 E4.45258
G1 X102.263 Y115.355 E4.49006
G1 X102.033 Y115.008 E4.50814
G1 X101.733 Y114.494 E4.53395
G1 X101.355 Y113.716 E4.57152
G1 X101.199 Y113.33 E4.58961
G1 X101.01 Y112.781 E4.61479
G1 X100.942 Y112.548 E4.62534
G1 X100.806 Y111.918 E4.6533
G1 X100.767 Y111.284 E4.68089
G1 X100.822 Y110.65 E4.70851
G1 X100.962 Y110.057 E4.73493
G1 X100.96 Y109.947 E4.73974
G1 X100.906 Y109.753 E4.74846
G1 X100.79 Y109.121 E4.77637
G1 X100.77 Y108.485 E4.80396
G1 X100.844 Y107.851 E4.83167
G1 X100.956 Y107.399 E4.85189
G1 X101.129 Y106.863 E4.87633
G1 X101.331 Y106.34 E4.90068
G1 X101.545 Y105.869 E4.92313
G1 X101.927 Y105.166 E4.95787
G1 X102.203 Y104.731 E4.98021
G1 X102.541 Y104.264 E5.00525
G1 X103.151 Y103.547 E5.04611
G1 X103.456 Y103.241 E5.06486
G1 X103.774 Y103.558 F18000
G1 F3000
G1 X103.826 Y103.505 E5.06809
G1 X104.28 Y103.103 E5.09444
G1 X104.994 Y102.568 E5.13313
G1 X105.576 Y102.207 E5.16286
G1 X106.011 Y101.977 E5.18423
G1 X106.868 Y101.605 E5.22479
G1 X107.615 Y101.362 E5.2589
G1 X108.182 Y101.247 E5.284
G1 X108.77 Y101.218 E5.30955
G1 X109.32 Y101.273 E5.33355
G1 X109.953 Y101.409 E5.36166
G1 X110.19 Y101.388 E5.37196
G1 X110.92 Y101.239 E5.4043
G1 X111.491 Y101.22 E5.42909
G1 X112.069 Y101.287 E5.45436
G1 X112.373 Y101.358 E5.46793
G1 X112.83 Y101.497 E5.48865
G1 X113.288 Y101.664 E5.50981
G1 X113.984 Y101.973 E5.54289
G1 X114.641 Y102.335 E5.57543
G1 X115.376 Y102.832 E5.61395
G1 X116.035 Y103.376 E5.65105
G1 X116.527 Y103.861 E5.68103
G1 X117.023 Y104.434 E5.71393
G1 X117.542 Y105.162 E5.75276
G1 X117.981 Y105.926 E5.79099
G1 X118.33 Y106.7 E5.82786
G1 X118.628 Y107.583 E5.8683
G1 X118.748 Y108.148 E5.89336
G1 X118.783 Y108.735 E5.9189
G1 X118.733 Y109.284 E5.94284
G1 X118.591 Y109.955 E5.9726
G1 X118.611 Y110.189 E5.9828
G1 X118.764 Y110.948 E6.01641
G1 X118.779 Y111.517 E6.04109
G1 X118.712 Y112.074 E6.06547
G1 X118.491 Y112.864 E6.10105
G1 X118.223 Y113.56 E6.13344
G1 X117.86 Y114.302 E6.16929
G1 X117.479 Y114.935 E6.20138
G1 X116.949 Y115.657 E6.24025
G1 X116.351 Y116.321 E6.27902
G1 X115.688 Y116.924 E6.31792
G1 X115.075 Y117.384 E6.35118
G1 X114.312 Y117.854 E6.3901
G1 X113.509 Y118.244 E6.42888
G1 X112.677 Y118.551 E6.46734
G1 X111.881 Y118.743 E6.50292
G1 X111.291 Y118.782 E6.52858
G1 X110.743 Y118.736 E6.55245
G1 X110.044 Y118.589 E6.58343
G1 X109.817 Y118.609 E6.59334
G1 X109.607 Y118.666 E6.60279
G1 X109.024 Y118.766 E6.62847
G1 X108.455 Y118.777 E6.65314
G1 X107.907 Y118.707 E6.67713
G1 X107.285 Y118.539 E6.70512
G1 X106.575 Y118.28 E6.73792
G1 X105.905 Y117.97 E6.76997
G1 X105.127 Y117.519 E6.80902
G1 X104.413 Y117.004 E6.84721
G1 X103.743 Y116.413 E6.88598
G1 X103.135 Y115.757 E6.92482
G1 X102.626 Y115.091 E6.96119
G1 X102.412 Y114.767 E6.97805
G1 X102.132 Y114.288 E7.00217
G1 X101.767 Y113.537 E7.03837
G1 X101.44 Y112.65 E7.07942
G1 X101.255 Y111.869 E7.11428
G1 X101.217 Y111.279 E7.13993
G1 X101.265 Y110.731 E7.16383
G1 X101.409 Y110.046 E7.19422
G1 X101.389 Y109.812 E7.2044
G1 X101.237 Y109.062 E7.23759
G1 X101.22 Y108.494 E7.26227
G1 X101.288 Y107.923 E7.28723
G1 X101.389 Y107.517 E7.30539
G1 X101.55 Y107.017 E7.32822
G1 X101.747 Y106.511 E7.35178
G1 X101.949 Y106.065 E7.37303
G1 X102.312 Y105.397 E7.40601
G1 X102.577 Y104.98 E7.42748
G1 X102.897 Y104.536 E7.45122
G1 X103.477 Y103.855 E7.49006
G1 X103.746 Y103.586 E7.50655
G1 X104.064 Y103.903 F18000
G1 F3000
G1 X104.137 Y103.829 E7.51109
G1 X104.569 Y103.447 E7.53609
G1 X105.243 Y102.943 E7.57263
G1 X105.795 Y102.599 E7.6009
G1 X106.21 Y102.379 E7.62127
G1 X107.021 Y102.027 E7.65963
G1 X107.722 Y101.799 E7.69165
G1 X108.249 Y101.693 E7.71495
G1 X108.769 Y101.668 E7.73756
G1 X109.243 Y101.716 E7.75825
G1 X109.849 Y101.845 E7.78516
G1 X110.001 Y101.855 E7.79176
G1 X110.286 Y101.826 E7.80419
G1 X110.962 Y101.689 E7.83412
G1 X111.462 Y101.669 E7.85587
G1 X111.983 Y101.729 E7.87864
G1 X112.252 Y101.791 E7.89061
G1 X113.112 Y102.078 E7.92995
G1 X113.779 Y102.373 E7.96164
G1 X114.412 Y102.722 E7.99298
G1 X115.102 Y103.188 E8.02913
G1 X115.73 Y103.706 E8.06446
G1 X116.203 Y104.172 E8.0933
G1 X116.673 Y104.717 E8.12455
G1 X117.168 Y105.411 E8.16153
G1 X117.578 Y106.125 E8.19727
G1 X117.91 Y106.859 E8.23223
G1 X118.192 Y107.694 E8.27053
G1 X118.3 Y108.198 E8.29289
G1 X118.332 Y108.738 E8.31637
G1 X118.289 Y109.209 E8.33692
G1 X118.154 Y109.852 E8.36544
G1 X118.145 Y110.004 E8.37201
G1 X118.173 Y110.284 E8.38424
G1 X118.317 Y111.01 E8.41639
G1 X118.329 Y111.486 E8.43704
G1 X118.272 Y111.976 E8.45848
G1 X118.067 Y112.716 E8.4918
G1 X117.813 Y113.375 E8.52244
G1 X117.468 Y114.082 E8.5566
G1 X117.108 Y114.681 E8.58694
G1 X116.605 Y115.368 E8.62391
G1 X116.037 Y115.999 E8.66074
G1 X115.407 Y116.573 E8.69777
G1 X114.828 Y117.009 E8.72922
G1 X114.102 Y117.457 E8.76625
G1 X113.338 Y117.828 E8.8031
G1 X112.554 Y118.119 E8.8394
G1 X111.824 Y118.296 E8.87201
G1 X111.285 Y118.332 E8.89547
G1 X110.816 Y118.292 E8.91588
G1 X110.146 Y118.153 E8.94559
G1 X109.995 Y118.144 E8.95215
G1 X109.785 Y118.162 E8.96133
G1 X108.971 Y118.318 E8.9973
G1 X108.489 Y118.328 E9.01822
G1 X108.004 Y118.268 E9.03945
G1 X107.415 Y118.109 E9.06592
G1 X106.741 Y117.863 E9.09706
G1 X106.107 Y117.568 E9.12741
G1 X105.377 Y117.145 E9.16406
G1 X104.698 Y116.657 E9.20032
G1 X104.062 Y116.096 E9.23715
G1 X103.482 Y115.473 E9.2741
G1 X102.995 Y114.835 E9.30896
G1 X102.532 Y114.083 E9.34727
G1 X102.183 Y113.367 E9.38184
G1 X101.873 Y112.528 E9.42068
G1 X101.703 Y111.814 E9.45256
G1 X101.668 Y111.274 E9.47602
G1 X101.709 Y110.805 E9.49649
G1 X101.846 Y110.148 E9.52563
G1 X101.855 Y109.996 E9.5322
G1 X101.827 Y109.717 E9.54441
G1 X101.684 Y109 E9.57614
G1 X101.671 Y108.504 E9.59765
G1 X101.732 Y107.996 E9.61987
G1 X101.822 Y107.636 E9.63599
G1 X101.972 Y107.17 E9.65722
G1 X102.162 Y106.681 E9.68
G1 X102.353 Y106.261 E9.70004
G1 X102.696 Y105.629 E9.73126
G1 X102.951 Y105.228 E9.75185
G1 X103.254 Y104.81 E9.77429
G1 X103.804 Y104.164 E9.81113
G1 X104.035 Y103.931 E9.82536
G1 X104.353 Y104.248 F18000
G1 F3000
G1 X104.448 Y104.153 E9.83119
G1 X104.857 Y103.792 E9.85485
G1 X105.491 Y103.317 E9.88926
G1 X106.015 Y102.99 E9.91606
G1 X106.409 Y102.781 E9.93543
G1 X107.174 Y102.45 E9.9716
G1 X107.829 Y102.236 E10.00152
G1 X108.294 Y102.141 E10.0221
G1 X108.767 Y102.119 E10.04266
G1 X109.166 Y102.159 E10.06009
G1 X109.748 Y102.282 E10.08589
G1 X109.965 Y102.301 E10.09534
G1 X110.383 Y102.264 E10.11357
G1 X111.026 Y102.135 E10.14205
G1 X111.456 Y102.12 E10.16069
G1 X111.915 Y102.173 E10.18077
G1 X112.136 Y102.225 E10.19064
G1 X112.955 Y102.499 E10.22813
G1 X113.585 Y102.778 E10.25803
G1 X114.182 Y103.108 E10.28765
G1 X114.828 Y103.544 E10.32145
G1 X115.424 Y104.035 E10.35501
G1 X115.879 Y104.483 E10.38269
G1 X116.324 Y104.999 E10.41229
G1 X116.786 Y105.648 E10.44685
G1 X117.181 Y106.335 E10.48126
G1 X117.494 Y107.029 E10.51432
G1 X117.757 Y107.806 E10.54992
G1 X117.852 Y108.248 E10.56956
G1 X117.881 Y108.741 E10.59097
G1 X117.846 Y109.135 E10.60815
G1 X117.717 Y109.752 E10.63553
G1 X117.698 Y109.968 E10.64493
G1 X117.734 Y110.378 E10.66278
G1 X117.87 Y111.072 E10.69347
G1 X117.879 Y111.475 E10.711
G1 X117.832 Y111.879 E10.72866
G1 X117.642 Y112.569 E10.75971
G1 X117.404 Y113.19 E10.78858
G1 X117.076 Y113.863 E10.82106
G1 X116.738 Y114.427 E10.84963
G1 X116.26 Y115.079 E10.88471
G1 X115.723 Y115.677 E10.9196
G1 X115.125 Y116.223 E10.95476
G1 X114.58 Y116.634 E10.98441
G1 X113.891 Y117.06 E11.01954
G1 X113.168 Y117.413 E11.05447
G1 X112.43 Y117.686 E11.08862
G1 X111.767 Y117.848 E11.11826
G1 X111.299 Y117.881 E11.13863
G1 X110.889 Y117.848 E11.15646
G1 X110.246 Y117.715 E11.18499
G1 X110.03 Y117.697 E11.19441
G1 X109.693 Y117.723 E11.20907
G1 X108.912 Y117.871 E11.24355
G1 X108.503 Y117.878 E11.26134
G1 X108.099 Y117.828 E11.27898
G1 X107.545 Y117.679 E11.30389
G1 X106.908 Y117.446 E11.33335
G1 X106.309 Y117.167 E11.36201
G1 X105.626 Y116.771 E11.39628
G1 X104.984 Y116.31 E11.43061
G1 X104.38 Y115.779 E11.4655
G1 X103.83 Y115.188 E11.50055
G1 X103.369 Y114.586 E11.53348
G1 X102.929 Y113.873 E11.56986
G1 X102.599 Y113.197 E11.6025
G1 X102.306 Y112.405 E11.63914
G1 X102.15 Y111.758 E11.66803
G1 X102.118 Y111.29 E11.68841
G1 X102.153 Y110.878 E11.70635
G1 X102.284 Y110.247 E11.73432
G1 X102.302 Y110.031 E11.74372
G1 X102.265 Y109.622 E11.76156
G1 X102.131 Y108.938 E11.79182
G1 X102.121 Y108.516 E11.81015
G1 X102.176 Y108.07 E11.82966
G1 X102.255 Y107.755 E11.84376
G1 X102.394 Y107.324 E11.8634
G1 X102.577 Y106.852 E11.88539
G1 X102.757 Y106.457 E11.90423
G1 X103.081 Y105.86 E11.93369
G1 X103.324 Y105.477 E11.95341
G1 X103.61 Y105.083 E11.97453
G1 X104.131 Y104.472 E12.00939
G1 X104.325 Y104.276 E12.02135
G1 X104.643 Y104.593 F18000
G1 F3000
G1 X104.753 Y104.482 E12.0281
G1 X105.144 Y104.137 E12.05076
G1 X105.75 Y103.684 E12.08356
G1 X106.235 Y103.382 E12.1084
G1 X106.599 Y103.188 E12.1263
G1 X107.339 Y102.868 E12.16129
G1 X107.951 Y102.669 E12.18923
G1 X108.36 Y102.587 E12.20732
G1 X108.765 Y102.57 E12.22492
G1 X109.09 Y102.602 E12.23911
G1 X109.648 Y102.719 E12.26386
G1 X109.915 Y102.747 E12.27551
G1 X110.417 Y102.711 E12.29735
G1 X111.09 Y102.582 E12.32709
G1 X111.448 Y102.571 E12.34263
G1 X111.845 Y102.617 E12.36002
G1 X112.02 Y102.659 E12.36779
G1 X112.799 Y102.92 E12.40347
G1 X113.39 Y103.183 E12.43157
G1 X113.953 Y103.494 E12.45948
G1 X114.554 Y103.9 E12.49095
G1 X115.119 Y104.365 E12.52273
G1 X115.555 Y104.794 E12.54925
G1 X115.974 Y105.281 E12.57718
G1 X116.411 Y105.896 E12.60991
G1 X116.784 Y106.545 E12.64242
G1 X117.078 Y107.2 E12.67358
G1 X117.321 Y107.919 E12.70651
G1 X117.404 Y108.299 E12.72341
G1 X117.431 Y108.724 E12.74187
G1 X117.402 Y109.061 E12.75657
G1 X117.279 Y109.654 E12.78285
G1 X117.252 Y109.92 E12.79445
G1 X117.287 Y110.412 E12.81587
G1 X117.422 Y111.132 E12.84766
G1 X117.429 Y111.464 E12.86208
G1 X117.391 Y111.783 E12.87604
G1 X117.217 Y112.423 E12.90481
G1 X116.994 Y113.006 E12.93192
G1 X116.684 Y113.644 E12.9627
G1 X116.367 Y114.174 E12.98952
G1 X115.916 Y114.791 E13.02271
G1 X115.409 Y115.356 E13.05566
G1 X114.843 Y115.874 E13.08895
G1 X114.331 Y116.26 E13.11678
G1 X113.68 Y116.663 E13.15002
G1 X112.997 Y116.997 E13.18302
G1 X112.306 Y117.254 E13.21503
G1 X111.708 Y117.401 E13.24174
G1 X111.311 Y117.431 E13.25903
G1 X110.961 Y117.404 E13.27426
G1 X110.343 Y117.277 E13.30164
G1 X110.078 Y117.251 E13.31324
G1 X109.602 Y117.284 E13.33395
G1 X108.855 Y117.423 E13.36692
G1 X108.517 Y117.428 E13.38158
G1 X108.195 Y117.387 E13.39569
G1 X107.675 Y117.249 E13.41905
G1 X107.075 Y117.029 E13.4468
G1 X106.512 Y116.766 E13.47377
G1 X105.876 Y116.398 E13.50568
G1 X105.269 Y115.963 E13.53809
G1 X104.698 Y115.462 E13.57104
G1 X104.177 Y114.903 E13.60419
G1 X103.743 Y114.337 E13.63519
G1 X103.326 Y113.662 E13.66963
G1 X103.015 Y113.026 E13.70034
G1 X102.738 Y112.282 E13.73479
G1 X102.598 Y111.701 E13.76074
G1 X102.569 Y111.303 E13.77805
G1 X102.597 Y110.951 E13.79341
G1 X102.721 Y110.345 E13.82025
G1 X102.748 Y110.079 E13.83185
G1 X102.712 Y109.587 E13.85326
G1 X102.578 Y108.878 E13.8846
G1 X102.572 Y108.528 E13.89977
G1 X102.617 Y108.16 E13.91588
G1 X102.815 Y107.481 E13.94659
G1 X102.992 Y107.022 E13.96793
G1 X103.161 Y106.653 E13.98555
G1 X103.466 Y106.092 E14.01328
G1 X103.693 Y105.732 E14.03175
G1 X103.966 Y105.356 E14.05191
G1 X104.458 Y104.78 E14.0848
G1 X104.615 Y104.621 E14.09451
G1 X104.938 Y104.942 F18000
G1 F3000
G1 X105.182 Y104.697 E14.10953
G1 X105.728 Y104.248 E14.14022
G1 X106.278 Y103.878 E14.16901
G1 X106.899 Y103.54 E14.19969
G1 X107.35 Y103.343 E14.22104
G1 X108.002 Y103.12 E14.25098
G1 X108.316 Y103.049 E14.26493
G1 X108.963 Y103.045 E14.29304
G1 X109.471 Y103.172 E14.31576
G1 X109.948 Y103.411 E14.33894
G1 X110.078 Y103.407 E14.34457
G1 X110.31 Y103.268 E14.35631
G1 X110.713 Y103.112 E14.37506
G1 X111.198 Y103.026 E14.39645
G1 X111.483 Y103.03 E14.40881
G1 X111.786 Y103.07 E14.42207
G1 X112.403 Y103.25 E14.44999
G1 X113.04 Y103.512 E14.47985
G1 X113.658 Y103.839 E14.51021
G1 X114.157 Y104.164 E14.53609
G1 X114.672 Y104.568 E14.56446
G1 X115.188 Y105.059 E14.59541
G1 X115.637 Y105.577 E14.62516
G1 X116.042 Y106.15 E14.65562
G1 X116.387 Y106.754 E14.68582
G1 X116.654 Y107.344 E14.71393
G1 X116.925 Y108.204 E14.75308
G1 X116.973 Y108.648 E14.77246
G1 X116.97 Y108.779 E14.77815
G1 X116.906 Y109.212 E14.79714
G1 X116.872 Y109.336 E14.80272
