; HEADER_BLOCK_START
; generated by AnycubicSlicerNext 1.3.2 on 2025-01-23 at 00:29:53
; total layer number: 63
; filament_density: 1.24
; filament_diameter: 1.75
; max_z_height: 12.64
; exclude_object: 0
; model_instances: 1
; HEADER_BLOCK_END

; THUMBNAIL_BLOCK_START

;
; THUMBNAIL_BLOCK_END

; external perimeters extrusion width = 0.42mm
; perimeters extrusion width = 0.45mm
; infill extrusion width = 0.45mm
; solid infill extrusion width = 0.42mm
; top infill extrusion width = 0.42mm
; first layer extrusion width = 0.50mm

; EXECUTABLE_BLOCK_START
M201 X2000 Y2000 Z800 E2000
M203 X300 Y300 Z8 E100
M204 P2000 R2000 T2000
M205 X10.00 Y10.00 Z2.00 E5.00 ; sets the jerk limits, mm/sec
;TYPE:Custom
G90 ; use absolute coordinates
M83 ; extruder relative mode
M104 S220 ; set extruder temp
M140 S60 ; set bed temp
M190 S60 ; wait for bed temp
M109 S220 ; wait for extruder temp
G28                                        ; move X/Y/Z to min endstops
G1 Z0.28                                   ; lift nozzle a bit 
G92 E0 
G1 Y3 F1800                                    ; zero the extruded length 
G1 X60  E25 F500                       ; Extrude 25mm of filament in a 5cm line. 
G92 E0                                     ; zero the extruded length again 
G1 E-2 F500                                ; Retract a little 
G1 X70 F4000                              ; Quickly wipe away from the filament line
M117
G90
G21
M82 ; use absolute distances for extrusion
G92 E0
; filament start gcode
M106 S0
;LAYER_CHANGE
;Z:0.24
;HEIGHT:0.24
; BEFORE_LAYER_CHANGE 0 @ 0.24mm
G1 E-2.5 F6000
G92 E0
; AFTER_LAYER_CHANGE 0 @ 0.24mm
;_SET_FAN_SPEED_CHANGING_LAYER
M204 P500
; printing object "Clip.stl" id:0 copy 0
M204 T500
G1 X100.978 Y100.802 F18000
G1 Z.24
G1 E2.5 F6000
;TYPE:Brim
;WIDTH:0.5
G1 F3000
G1 X101.116 Y100.664 E2.5085
G1 X101.625 Y100.287 E2.536
G1 X102.344 Y99.924 E2.57095
G1 X103.051 Y99.697 E2.6032
G1 X103.678 Y99.602 E2.63074
G1 X115.992 Y99.589 E3.16524
G1 X116.634 Y99.637 E3.1932
G1 X117.256 Y99.779 E3.22088
G1 X117.702 Y99.944 E3.24154
G1 X118.376 Y100.29 E3.27441
G1 X118.886 Y100.667 E3.30195
G1 X119.336 Y101.116 E3.32954
G1 X119.713 Y101.625 E3.35704
G1 X120.076 Y102.344 E3.39199
G1 X120.303 Y103.051 E3.42424
G1 X120.398 Y103.678 E3.45178
G1 X120.411 Y115.992 E3.98628
G1 X120.363 Y116.634 E4.01424
G1 X120.221 Y117.256 E4.04192
G1 X120.056 Y117.702 E4.06258
G1 X119.71 Y118.376 E4.09545
G1 X119.333 Y118.886 E4.12299
G1 X118.884 Y119.336 E4.15058
G1 X118.375 Y119.713 E4.17808
G1 X117.656 Y120.076 E4.21303
G1 X116.949 Y120.303 E4.24528
G1 X116.317 Y120.399 E4.273
G1 X115.996 Y120.411 E4.28698
G1 X104.008 Y120.411 E4.80733
G1 X103.366 Y120.363 E4.83529
G1 X102.745 Y120.221 E4.86292
G1 X102.19 Y120.009 E4.88872
G1 X101.625 Y119.71 E4.91646
G1 X101.114 Y119.333 E4.94405
G1 X100.664 Y118.884 E4.97164
G1 X100.287 Y118.375 E4.99914
G1 X99.924 Y117.656 E5.03409
G1 X99.697 Y116.949 E5.06634
G1 X99.601 Y116.317 E5.09406
G1 X99.589 Y115.996 E5.10803
G1 X99.589 Y104.008 E5.62839
G1 X99.637 Y103.366 E5.65635
G1 X99.779 Y102.745 E5.68398
G1 X99.991 Y102.19 E5.70978
G1 X100.29 Y101.625 E5.73751
G1 X100.667 Y101.114 E5.76511
G1 X100.949 Y100.831 E5.78246
G1 X101.268 Y101.147 F18000
G1 F3000
G1 X101.403 Y101.012 E5.79076
G1 X101.852 Y100.677 E5.81509
G1 X102.505 Y100.345 E5.84687
G1 X103.143 Y100.138 E5.87601
G1 X103.703 Y100.052 E5.90056
G1 X115.98 Y100.038 E6.43352
G1 X116.577 Y100.084 E6.4595
G1 X117.136 Y100.213 E6.48439
G1 X117.528 Y100.359 E6.50257
G1 X118.129 Y100.668 E6.53189
G1 X118.585 Y101.002 E6.55643
G1 X119.002 Y101.418 E6.58198
G1 X119.335 Y101.872 E6.60643
G1 X119.655 Y102.505 E6.63723
G1 X119.867 Y103.164 E6.66729
G1 X119.949 Y103.723 E6.69178
G1 X119.962 Y115.98 E7.22388
G1 X119.916 Y116.577 E7.24985
G1 X119.787 Y117.136 E7.27474
G1 X119.641 Y117.528 E7.29292
G1 X119.332 Y118.129 E7.32225
G1 X118.998 Y118.585 E7.34679
G1 X118.597 Y118.988 E7.37146
G1 X118.148 Y119.323 E7.3958
G1 X117.495 Y119.655 E7.42758
G1 X116.836 Y119.867 E7.45765
G1 X116.283 Y119.95 E7.48192
G1 X115.99 Y119.962 E7.49465
G1 X104.02 Y119.962 E8.01423
G1 X103.423 Y119.916 E8.04022
G1 X102.867 Y119.788 E8.06499
G1 X102.369 Y119.596 E8.08817
G1 X101.873 Y119.334 E8.11249
G1 X101.415 Y118.998 E8.13716
G1 X101.012 Y118.597 E8.16184
G1 X100.677 Y118.148 E8.18618
G1 X100.345 Y117.495 E8.21796
G1 X100.133 Y116.836 E8.24802
G1 X100.05 Y116.283 E8.27229
G1 X100.038 Y115.99 E8.28502
G1 X100.038 Y104.02 E8.80461
G1 X100.084 Y103.423 E8.8306
G1 X100.212 Y102.867 E8.85536
G1 X100.404 Y102.369 E8.87854
G1 X100.666 Y101.873 E8.90287
G1 X101.002 Y101.415 E8.92754
G1 X101.24 Y101.176 E8.94219
G1 X101.559 Y101.491 F18000
G1 F3000
G1 X101.69 Y101.359 E8.95027
G1 X102.08 Y101.066 E8.97144
G1 X102.667 Y100.765 E9.00005
G1 X103.237 Y100.579 E9.02608
G1 X103.727 Y100.502 E9.04761
G1 X115.968 Y100.487 E9.57899
G1 X116.499 Y100.528 E9.60209
G1 X117.015 Y100.646 E9.62506
G1 X117.354 Y100.774 E9.64078
G1 X117.883 Y101.046 E9.66662
G1 X118.284 Y101.338 E9.68814
G1 X118.653 Y101.704 E9.71071
G1 X118.957 Y102.117 E9.73297
G1 X119.242 Y102.686 E9.76059
G1 X119.43 Y103.277 E9.78753
G1 X119.501 Y103.766 E9.80896
G1 X119.513 Y115.968 E10.33866
G1 X119.472 Y116.499 E10.36175
G1 X119.354 Y117.015 E10.38473
G1 X119.226 Y117.354 E10.40044
G1 X118.954 Y117.883 E10.42628
G1 X118.662 Y118.285 E10.44784
G1 X118.31 Y118.641 E10.4696
G1 X117.92 Y118.934 E10.49077
G1 X117.334 Y119.234 E10.51935
G1 X116.722 Y119.43 E10.54722
G1 X116.247 Y119.502 E10.56807
G1 X115.983 Y119.514 E10.57954
G1 X104.032 Y119.513 E11.09832
G1 X103.501 Y119.472 E11.12144
G1 X102.99 Y119.354 E11.14421
G1 X102.548 Y119.183 E11.1648
G1 X102.121 Y118.957 E11.18576
G1 X101.715 Y118.662 E11.20754
G1 X101.359 Y118.31 E11.22929
G1 X101.066 Y117.92 E11.25047
G1 X100.766 Y117.334 E11.27905
G1 X100.57 Y116.722 E11.30691
G1 X100.498 Y116.247 E11.32777
G1 X100.486 Y115.983 E11.33923
G1 X100.487 Y104.032 E11.85801
G1 X100.528 Y103.501 E11.88113
G1 X100.646 Y102.99 E11.90391
G1 X100.817 Y102.548 E11.92449
G1 X101.043 Y102.121 E11.94546
G1 X101.338 Y101.715 E11.96723
G1 X101.531 Y101.519 E11.97917
G1 X101.852 Y101.834 F18000
G1 F3000
G1 X101.979 Y101.705 E11.98703
G1 X102.31 Y101.455 E12.00504
G1 X102.831 Y101.186 E12.03048
G1 X103.332 Y101.02 E12.05341
G1 X103.773 Y100.951 E12.07279
G1 X115.957 Y100.936 E12.60166
G1 X116.441 Y100.975 E12.62275
G1 X116.894 Y101.08 E12.64292
G1 X117.178 Y101.188 E12.65615
G1 X117.638 Y101.424 E12.67858
G1 X118 Y101.687 E12.698
G1 X118.305 Y101.99 E12.71664
G1 X118.566 Y102.343 E12.73571
G1 X118.821 Y102.846 E12.76017
G1 X118.988 Y103.368 E12.78397
G1 X119.051 Y103.789 E12.80246
G1 X119.064 Y115.957 E13.33064
G1 X119.025 Y116.441 E13.35173
G1 X118.92 Y116.894 E13.3719
G1 X118.812 Y117.178 E13.38513
G1 X118.576 Y117.638 E13.40756
G1 X118.325 Y117.986 E13.42616
G1 X118.021 Y118.295 E13.44499
G1 X117.69 Y118.545 E13.46299
G1 X117.172 Y118.813 E13.48834
G1 X116.609 Y118.994 E13.51398
G1 X116.211 Y119.054 E13.53146
G1 X115.971 Y119.065 E13.5419
G1 X104.044 Y119.064 E14.0596
G1 X103.559 Y119.025 E14.08072
G1 X103.113 Y118.921 E14.10063
G1 X102.727 Y118.771 E14.1186
G1 X102.367 Y118.581 E14.13626
G1 X102.015 Y118.325 E14.15516
G1 X101.705 Y118.021 E14.174
G1 X101.455 Y117.69 E14.19201
G1 X101.187 Y117.172 E14.21736
G1 X101.006 Y116.609 E14.243
G1 X100.946 Y116.211 E14.26048
G1 X100.935 Y115.971 E14.27092
G1 X100.936 Y104.044 E14.78862
G1 X100.975 Y103.559 E14.80974
G1 X101.079 Y103.113 E14.82964
G1 X101.229 Y102.727 E14.84761
G1 X101.419 Y102.367 E14.86528
G1 X101.675 Y102.015 E14.88418
G1 X101.824 Y101.862 E14.89343
G1 X102.146 Y102.176 F18000
G1 F3000
G1 X102.268 Y102.05 E14.90105
G1 X102.54 Y101.843 E14.91589
G1 X102.995 Y101.605 E14.93816
G1 X103.428 Y101.461 E14.95795
G1 X103.819 Y101.399 E14.97515
G1 X115.944 Y101.385 E15.50149
G1 X116.362 Y101.419 E15.51967
G1 X116.771 Y101.513 E15.53791
G1 X117.003 Y101.602 E15.54867
G1 X117.393 Y101.803 E15.56773
G1 X117.716 Y102.037 E15.58504
G1 X117.971 Y102.292 E15.6007
G1 X118.176 Y102.57 E15.61571
G1 X118.4 Y103.007 E15.637
G1 X118.547 Y103.46 E15.65766
G1 X118.601 Y103.813 E15.67317
G1 X118.615 Y115.944 E16.19978
G1 X118.581 Y116.362 E16.21797
G1 X118.487 Y116.771 E16.2362
G1 X118.398 Y117.003 E16.24696
G1 X118.197 Y117.394 E16.26607
G1 X117.987 Y117.688 E16.28172
G1 X117.732 Y117.95 E16.29764
G1 X117.46 Y118.157 E16.31247
G1 X117.009 Y118.392 E16.33454
G1 X116.496 Y118.557 E16.35794
G1 X116.174 Y118.606 E16.37207
G1 X115.957 Y118.617 E16.38149
G1 X104.057 Y118.615 E16.89805
G1 X103.639 Y118.581 E16.91627
G1 X103.237 Y118.488 E16.93418
G1 X102.921 Y118.365 E16.94889
G1 X102.613 Y118.203 E16.964
G1 X102.313 Y117.987 E16.98004
G1 X102.05 Y117.732 E16.99597
G1 X101.843 Y117.46 E17.01081
G1 X101.608 Y117.009 E17.03287
G1 X101.443 Y116.496 E17.05627
G1 X101.394 Y116.174 E17.07041
G1 X101.383 Y115.957 E17.07982
G1 X101.385 Y104.057 E17.59638
G1 X101.419 Y103.639 E17.61461
G1 X101.512 Y103.237 E17.63251
G1 X101.635 Y102.921 E17.64723
G1 X101.797 Y102.613 E17.66233
G1 X102.013 Y102.313 E17.67837
G1 X102.118 Y102.204 E17.68495
G1 X102.467 Y102.508 F18000
G1 F3000
G1 X102.526 Y102.439 E17.68889
G1 X102.847 Y102.189 E17.70655
G1 X103.166 Y102.021 E17.72218
G1 X103.466 Y101.924 E17.73588
G1 X104.045 Y101.832 E17.76134
G1 X115.961 Y101.832 E18.2786
G1 X116.512 Y101.914 E18.30279
G1 X116.921 Y102.066 E18.32173
G1 X117.276 Y102.279 E18.33968
G1 X117.529 Y102.495 E18.35414
G1 X117.664 Y102.643 E18.36286
G1 X117.982 Y103.174 E18.38972
G1 X118.076 Y103.465 E18.403
G1 X118.168 Y104.045 E18.42847
G1 X118.168 Y115.961 E18.94572
G1 X118.086 Y116.512 E18.96992
G1 X117.934 Y116.921 E18.98886
G1 X117.721 Y117.276 E19.00681
G1 X117.505 Y117.529 E19.02127
G1 X117.357 Y117.664 E19.02998
G1 X116.826 Y117.982 E19.05685
G1 X116.535 Y118.076 E19.07013
G1 X115.955 Y118.168 E19.09559
G1 X104.039 Y118.168 E19.61285
G1 X103.488 Y118.086 E19.63704
G1 X103.079 Y117.934 E19.65598
G1 X102.724 Y117.721 E19.67394
G1 X102.471 Y117.505 E19.6884
G1 X102.336 Y117.357 E19.69711
G1 X102.018 Y116.826 E19.72397
G1 X101.924 Y116.535 E19.73726
G1 X101.832 Y115.955 E19.76273
G1 X101.844 Y103.876 E20.28708
G1 X101.913 Y103.491 E20.30405
G1 X102.066 Y103.078 E20.32313
G1 X102.275 Y102.728 E20.34086
G1 X102.44 Y102.538 E20.35178
G1 X102.781 Y102.818 F18000
G1 F3000
G1 X102.801 Y102.794 E20.35316
G1 X103.058 Y102.585 E20.3675
G1 X103.307 Y102.447 E20.37988
G1 X103.533 Y102.367 E20.39031
G1 X104.034 Y102.28 E20.41238
G1 X115.971 Y102.28 E20.93053
G1 X116.355 Y102.334 E20.94737
G1 X116.691 Y102.45 E20.96278
G1 X116.977 Y102.614 E20.97709
G1 X117.245 Y102.842 E20.9924
G1 X117.327 Y102.939 E20.99789
G1 X117.555 Y103.312 E21.01688
G1 X117.633 Y103.533 E21.02707
G1 X117.72 Y104.034 E21.04914
G1 X117.72 Y115.971 E21.56729
G1 X117.666 Y116.355 E21.58413
G1 X117.55 Y116.691 E21.59953
G1 X117.386 Y116.977 E21.61384
G1 X117.158 Y117.245 E21.62916
G1 X117.061 Y117.327 E21.63464
G1 X116.688 Y117.555 E21.65364
G1 X116.467 Y117.633 E21.66382
G1 X115.966 Y117.72 E21.68589
G1 X104.029 Y117.72 E22.20404
G1 X103.645 Y117.666 E22.22088
G1 X103.309 Y117.55 E22.23629
G1 X103.023 Y117.386 E22.2506
G1 X102.755 Y117.158 E22.26591
G1 X102.673 Y117.061 E22.2714
G1 X102.445 Y116.688 E22.29039
G1 X102.367 Y116.467 E22.30058
G1 X102.28 Y115.966 E22.32265
G1 X102.285 Y103.954 E22.84408
G1 X102.333 Y103.646 E22.85759
G1 X102.45 Y103.309 E22.87305
G1 X102.616 Y103.019 E22.88759
G1 X102.756 Y102.849 E22.89712
G1 X103.085 Y103.141 F18000
G1 F3000
G1 X103.277 Y102.977 E22.90808
G1 X103.466 Y102.866 E22.91759
G1 X103.61 Y102.809 E22.92433
G1 X104.023 Y102.729 E22.94257
G1 X115.98 Y102.729 E23.46163
G1 X116.217 Y102.76 E23.47201
G1 X116.457 Y102.833 E23.48289
G1 X116.765 Y103.009 E23.49829
G1 X116.947 Y103.176 E23.50899
G1 X117.135 Y103.469 E23.5241
G1 X117.191 Y103.61 E23.53071
G1 X117.271 Y104.023 E23.54896
G1 X117.271 Y115.98 E24.06802
G1 X117.24 Y116.217 E24.07839
G1 X117.167 Y116.457 E24.08928
G1 X116.991 Y116.765 E24.10467
G1 X116.824 Y116.947 E24.11538
G1 X116.531 Y117.135 E24.13049
G1 X116.39 Y117.191 E24.1371
G1 X115.977 Y117.271 E24.15535
G1 X104.02 Y117.271 E24.6744
G1 X103.783 Y117.24 E24.68478
G1 X103.543 Y117.167 E24.69566
G1 X103.235 Y116.991 E24.71106
G1 X103.053 Y116.824 E24.72176
G1 X102.865 Y116.531 E24.73687
G1 X102.809 Y116.39 E24.74348
G1 X102.729 Y115.977 E24.76173
G1 X102.729 Y104.02 E25.28079
G1 X102.76 Y103.783 E25.29116
G1 X102.833 Y103.543 E25.30205
G1 X103.011 Y103.231 E25.31762
G1 X103.06 Y103.172 E25.32096
G1 X103.393 Y103.466 F18000
G1 F3000
G1 X103.493 Y103.37 E25.32701
G1 X103.702 Y103.247 E25.33749
G1 X104.01 Y103.177 E25.35122
G1 X115.989 Y103.177 E25.87122
G1 X116.152 Y103.204 E25.87839
G1 X116.326 Y103.262 E25.88635
G1 X116.534 Y103.393 E25.89701
G1 X116.63 Y103.493 E25.90306
G1 X116.753 Y103.702 E25.91354
G1 X116.823 Y104.01 E25.92727
G1 X116.823 Y115.989 E26.44727
G1 X116.796 Y116.152 E26.45444
G1 X116.738 Y116.326 E26.4624
G1 X116.607 Y116.534 E26.47306
G1 X116.507 Y116.63 E26.47911
G1 X116.298 Y116.753 E26.48959
G1 X115.99 Y116.823 E26.50332
G1 X104.011 Y116.823 E27.02332
G1 X103.848 Y116.796 E27.03049
G1 X103.674 Y116.738 E27.03845
G1 X103.466 Y116.607 E27.04911
G1 X103.37 Y116.507 E27.05516
G1 X103.247 Y116.298 E27.06564
G1 X103.177 Y115.99 E27.07937
G1 X103.177 Y104.011 E27.59937
G1 X103.204 Y103.848 E27.60654
G1 X103.262 Y103.674 E27.6145
G1 X103.371 Y103.5 E27.62342
G1 X103.692 Y103.8 F18000
G1 F3000
G1 X103.816 Y103.681 E27.63087
G1 X104 Y103.626 E27.63922
G1 X116 Y103.626 E28.16012
G1 X116.2 Y103.692 E28.16925
G1 X116.319 Y103.816 E28.1767
G1 X116.374 Y104 E28.18505
G1 X116.374 Y116 E28.70595
G1 X116.308 Y116.2 E28.71508
G1 X116.184 Y116.319 E28.72253
G1 X116 Y116.374 E28.73088
G1 X104 Y116.374 E29.25178
G1 X103.8 Y116.308 E29.26091
G1 X103.681 Y116.184 E29.26836
G1 X103.626 Y116 E29.27671
G1 X103.626 Y104 E29.79761
G1 X103.68 Y103.838 E29.805
G1 E28.055 F6000
;WIPE_START
G1 F3000
G1 X103.816 Y103.681 E27.89908
G1 X104 Y103.626 E27.75486
G1 X104.6 Y103.626 E27.305
;WIPE_END
G92 E0
G1 X115.675 Y115.675 F18000
G1 E2.5 F6000
;TYPE:Outer wall
G1 F3000
G1 X104.325 Y115.675 E2.99269
G1 X104.325 Y104.325 E3.48537
G1 X115.675 Y104.325 E3.97806
G1 X115.675 Y115.615 E4.46814
G1 X115.227 Y115.227 F18000
;TYPE:Inner wall
G1 F3000
G1 X104.773 Y115.227 E4.92189
G1 X104.773 Y104.773 E5.37564
G1 X115.227 Y104.773 E5.82939
G1 X115.227 Y115.167 E6.28054
G1 E4.53054 F6000
;WIPE_START
G1 F3000
G1 X114.227 Y115.172 E3.78054
;WIPE_END
G92 E0
G1 X114.178 Y104.908 F18000
G1 E2.5 F6000
;TYPE:Bottom surface
;WIDTH:0.503555
G1 F3000
G1 X114.89 Y105.62 E2.54408
G1 X114.89 Y106.26 E2.57205
G1 X113.74 Y105.11 E2.64319
G1 X113.101 Y105.11 E2.67116
G1 X114.89 Y106.899 E2.78187
G1 X114.89 Y107.538 E2.80984
G1 X112.462 Y105.11 E2.9601
G1 X111.822 Y105.11 E2.98807
G1 X114.89 Y108.178 E3.17788
G1 X114.89 Y108.817 E3.20586
G1 X111.183 Y105.11 E3.43523
G1 X110.544 Y105.11 E3.4632
G1 X114.89 Y109.456 E3.73213
G1 X114.89 Y110.095 E3.7601
G1 X109.905 Y105.11 E4.06859
G1 X109.265 Y105.11 E4.09656
G1 X114.89 Y110.735 E4.4446
G1 X114.89 Y111.374 E4.47257
G1 X108.626 Y105.11 E4.86017
G1 X107.987 Y105.11 E4.88815
G1 X114.89 Y112.013 E5.3153
G1 X114.89 Y112.653 E5.34327
G1 X107.347 Y105.11 E5.80999
G1 X106.708 Y105.11 E5.83796
G1 X114.89 Y113.292 E6.34423
G1 X114.89 Y113.931 E6.3722
G1 X106.069 Y105.11 E6.91803
G1 X105.429 Y105.11 E6.946
G1 X114.89 Y114.571 E7.53139
G1 X114.89 Y114.89 E7.54537
G1 X114.57 Y114.89 E7.55936
G1 X105.11 Y105.43 E8.14473
G1 X105.11 Y106.069 E8.17271
G1 X113.931 Y114.89 E8.71853
