; HEADER_BLOCK_START
; generated by AnycubicSlicerNext 1.3.3.1 on 2025-03-04 at 23:51:33
; total layer number: 100
; filament_density: 1.24
; filament_diameter: 1.75
; max_z_height: 20.04
; exclude_object: 0
; model_instances: 1
; HEADER_BLOCK_END

; THUMBNAIL_BLOCK_START
; THUMBNAIL_BLOCK_END

; external perimeters extrusion width = 0.42mm
; perimeters extrusion width = 0.45mm
; infill extrusion width = 0.45mm
; solid infill extrusion width = 0.42mm
; top infill extrusion width = 0.42mm
; support material extrusion width = 0.40mm
; first layer extrusion width = 0.50mm

; EXECUTABLE_BLOCK_START
M201 X2000 Y2000 Z800 E2000
M203 X300 Y300 Z8 E100
M204 P2000 R2000 T2000
M205 X10.00 Y10.00 Z2.00 E5.00 ; sets the jerk limits, mm/sec
;TYPE:Custom
G90 ; use absolute coordinates
M83 ; extruder relative mode
M104 S220 ; set extruder temp
M140 S60 ; set bed temp
M190 S60 ; wait for bed temp
M109 S220 ; wait for extruder temp
G28                                        ; move X/Y/Z to min endstops
G1 Z0.28                                   ; lift nozzle a bit 
G92 E0 
G1 Y3 F1800                                    ; zero the extruded length 
G1 X60  E25 F500                       ; Extrude 25mm of filament in a 5cm line. 
G92 E0                                     ; zero the extruded length again 
G1 E-2 F500                                ; Retract a little 
G1 X70 F4000                              ; Quickly wipe away from the filament line
M117
G90
G21
M83 ; use relative distances for extrusion
; filament start gcode
M106 S0
;LAYER_CHANGE
;Z:0.24
;HEIGHT:0.24
; BEFORE_LAYER_CHANGE 0 @ 0.24mm
G92 E0
G1 E-2.5 F6000
; AFTER_LAYER_CHANGE 0 @ 0.24mm
M204 P500
; printing object "Cyclo2Axis.stl" id:0 copy 0
M204 T500
G1 X110.806 Y107.296 F18000
G1 Z.24
G1 E2.5 F6000
;TYPE:Support
;WIDTH:0.5
;MM3_PER_MM:0.107639
G1 F3000
G3 X110.739 Y107.295 I-.054 J1.999 E.54239
G1 X111.993 Y110.548 F18000
G1 F3000
G1 X111.993 Y108.35 E.09541
G2 X111.495 Y107.906 I-1.305 J.964 E.02917
G1 X111.495 Y110.679 E.12038
G3 X110.997 Y110.861 I-.789 J-1.39 E.02313
G1 X110.997 Y107.725 E.13613
G2 X110.498 Y107.712 I-.29 J1.585 E.02173
G1 X110.498 Y110.874 E.13724
G3 X110 Y110.722 I.21 J-1.585 E.02271
G1 X110 Y107.864 E.12407
G2 X109.502 Y108.249 I.843 J1.604 E.02749
G1 X109.502 Y110.626 E.10315
G1 E-1.75 F6000
;WIPE_START
G1 F3000
G1 X109.502 Y109.626 E-.75
;WIPE_END
G1 X102.302 Y119.729 F18000
G1 E2.5 F6000
;TYPE:Brim
G1 F3000
G1 X102.062 Y119.539 E.01331
G1 X101.596 Y119.131 E.02686
G1 X101.152 Y118.701 E.02686
G1 X100.729 Y118.249 E.02686
G1 X100.329 Y117.777 E.02686
G1 X99.954 Y117.285 E.02686
G1 X99.603 Y116.775 E.02686
G1 X99.278 Y116.249 E.02686
G1 X98.98 Y115.706 E.02686
G1 X98.709 Y115.15 E.02686
G1 X98.467 Y114.582 E.02678
G1 X98.13 Y113.619 E.04433
G1 X97.964 Y113.024 E.02679
G1 X97.829 Y112.421 E.02685
G1 X97.723 Y111.811 E.02686
G1 X97.648 Y111.197 E.02686
G1 X97.604 Y110.579 E.02686
G1 X97.59 Y109.961 E.02686
G1 X97.608 Y109.342 E.02686
G1 X97.656 Y108.725 E.02686
G1 X97.735 Y108.112 E.02686
G1 X97.844 Y107.503 E.02686
G1 X97.984 Y106.9 E.02686
G1 X98.153 Y106.305 E.02686
G1 X98.352 Y105.719 E.02686
G1 X98.58 Y105.144 E.02686
G1 X98.836 Y104.58 E.02686
G1 X99.12 Y104.031 E.02686
G1 X99.431 Y103.496 E.02686
G1 X99.769 Y102.977 E.02686
G1 X100.132 Y102.476 E.02686
G1 X100.519 Y101.993 E.02686
G1 X100.93 Y101.531 E.02686
G1 X101.363 Y101.089 E.02686
G1 X101.818 Y100.67 E.02686
G1 X102.293 Y100.273 E.02686
G1 X102.788 Y99.901 E.02686
G1 X103.3 Y99.554 E.02686
G1 X103.829 Y99.233 E.02686
G1 X104.373 Y98.939 E.02686
G1 X104.932 Y98.672 E.02686
G1 X105.503 Y98.434 E.02686
G1 X106.085 Y98.224 E.02686
G1 X106.677 Y98.044 E.02686
G1 X107.277 Y97.893 E.02686
G1 X107.884 Y97.772 E.02686
G1 X108.496 Y97.682 E.02686
G1 X109.11 Y97.622 E.02679
G1 X110.11 Y97.59 E.04342
G1 X110.659 Y97.608 E.02387
G1 X111.275 Y97.656 E.02679
G1 X111.888 Y97.735 E.02686
G1 X112.497 Y97.844 E.02686
G1 X113.1 Y97.984 E.02686
G1 X113.695 Y98.153 E.02686
G1 X114.281 Y98.352 E.02686
G1 X114.856 Y98.58 E.02686
G1 X115.42 Y98.836 E.02686
G1 X115.969 Y99.12 E.02686
G1 X116.504 Y99.431 E.02686
G1 X117.023 Y99.769 E.02686
G1 X117.524 Y100.132 E.02686
G1 X118.007 Y100.519 E.02686
G1 X118.469 Y100.93 E.02686
G1 X118.911 Y101.363 E.02686
G1 X119.33 Y101.818 E.02686
G1 X119.727 Y102.293 E.02686
G1 X120.099 Y102.788 E.02686
G1 X120.446 Y103.3 E.02686
G1 X120.767 Y103.829 E.02686
G1 X121.061 Y104.373 E.02686
G1 X121.328 Y104.932 E.02686
G1 X121.566 Y105.503 E.02687
G1 X121.748 Y106.002 E.02305
G1 X121.932 Y106.59 E.02676
G1 X122.087 Y107.189 E.02686
G1 X122.212 Y107.795 E.02686
G1 X122.307 Y108.407 E.02686
G1 X122.371 Y109.02 E.02678
G1 X122.41 Y110.041 E.04433
G1 X122.392 Y110.658 E.0268
G1 X122.353 Y111.188 E.02305
G1 X122.279 Y111.8 E.02676
G1 X122.174 Y112.409 E.02686
G1 X122.038 Y113.013 E.02686
G1 X121.873 Y113.609 E.02686
G1 X121.678 Y114.197 E.02686
G1 X121.455 Y114.774 E.02686
G1 X121.203 Y115.339 E.02686
G1 X120.923 Y115.891 E.02686
G1 X120.615 Y116.428 E.02686
G1 X120.282 Y116.949 E.02686
G1 X119.923 Y117.453 E.02686
G1 X119.539 Y117.938 E.02686
G1 X119.131 Y118.404 E.02686
G1 X118.701 Y118.848 E.02686
G1 X118.249 Y119.271 E.02686
G1 X117.777 Y119.671 E.02686
G1 X117.285 Y120.046 E.02686
G1 X116.775 Y120.397 E.02686
G1 X116.249 Y120.722 E.02686
G1 X115.706 Y121.02 E.02686
G1 X115.15 Y121.291 E.02686
G1 X114.582 Y121.533 E.02678
G1 X113.619 Y121.87 E.04433
G1 X113.024 Y122.036 E.02678
G1 X112.421 Y122.171 E.02686
G1 X111.811 Y122.277 E.02686
G1 X111.197 Y122.352 E.02686
G1 X110.579 Y122.396 E.02686
G1 X109.961 Y122.41 E.02686
G1 X109.342 Y122.392 E.02686
G1 X108.725 Y122.344 E.02686
G1 X108.112 Y122.265 E.02686
G1 X107.503 Y122.156 E.02686
G1 X106.9 Y122.016 E.02686
G1 X106.305 Y121.847 E.02686
G1 X105.719 Y121.648 E.02686
G1 X105.144 Y121.42 E.02686
G1 X104.58 Y121.164 E.02686
G1 X104.031 Y120.88 E.02686
G1 X103.495 Y120.568 E.02688
G1 X103.042 Y120.275 E.02345
G1 X102.547 Y119.923 E.02636
G1 X102.334 Y119.754 E.01182
G1 X102.612 Y119.402 F18000
G1 F3000
G1 X102.346 Y119.192 E.01471
G1 X101.898 Y118.799 E.02589
G1 X101.474 Y118.389 E.0256
G1 X101.066 Y117.953 E.02589
G1 X100.677 Y117.493 E.02618
G1 X100.315 Y117.019 E.02589
G1 X99.977 Y116.527 E.02589
G1 X99.664 Y116.02 E.02589
G1 X99.377 Y115.497 E.02589
G1 X99.116 Y114.961 E.02589
G1 X98.884 Y114.416 E.0257
G1 X98.559 Y113.488 E.04266
G1 X98.4 Y112.918 E.0257
G1 X98.269 Y112.336 E.02588
G1 X98.168 Y111.749 E.02589
G1 X98.095 Y111.157 E.02589
G1 X98.052 Y110.562 E.02589
G1 X98.039 Y109.966 E.02589
G1 X98.056 Y109.369 E.02589
G1 X98.102 Y108.775 E.02589
G1 X98.178 Y108.183 E.02589
G1 X98.283 Y107.596 E.02589
G1 X98.417 Y107.015 E.02589
G1 X98.581 Y106.442 E.02589
G1 X98.772 Y105.877 E.02589
G1 X98.992 Y105.322 E.02589
G1 X99.239 Y104.779 E.02589
G1 X99.512 Y104.249 E.02589
G1 X99.812 Y103.734 E.02589
G1 X100.137 Y103.234 E.02589
G1 X100.486 Y102.75 E.02589
G1 X100.86 Y102.285 E.02589
G1 X101.255 Y101.839 E.02589
G1 X101.673 Y101.414 E.02589
G1 X102.111 Y101.009 E.02589
G1 X102.569 Y100.627 E.02589
G1 X103.046 Y100.268 E.02589
G1 X103.54 Y99.934 E.02589
G1 X104.049 Y99.624 E.02589
G1 X104.574 Y99.341 E.02589
G1 X105.112 Y99.083 E.02589
G1 X105.662 Y98.853 E.02589
G1 X106.223 Y98.651 E.02589
G1 X106.794 Y98.477 E.02589
G1 X107.372 Y98.331 E.02589
G1 X107.957 Y98.215 E.02589
G1 X108.547 Y98.128 E.02589
G1 X109.143 Y98.07 E.02601
G1 X110.106 Y98.039 E.04179
G1 X110.632 Y98.056 E.02284
G1 X111.225 Y98.102 E.02584
G1 X111.817 Y98.178 E.02589
G1 X112.404 Y98.283 E.02589
G1 X112.985 Y98.417 E.02589
G1 X113.558 Y98.581 E.02589
G1 X114.123 Y98.772 E.02589
G1 X114.678 Y98.992 E.02589
G1 X115.221 Y99.239 E.02589
G1 X115.751 Y99.512 E.02589
G1 X116.266 Y99.812 E.02589
G1 X116.766 Y100.137 E.02589
G1 X117.249 Y100.486 E.02589
G1 X117.715 Y100.86 E.02589
G1 X118.161 Y101.255 E.02589
G1 X118.586 Y101.673 E.02589
G1 X118.991 Y102.111 E.02588
G1 X119.373 Y102.569 E.02589
G1 X119.732 Y103.046 E.02588
G1 X120.066 Y103.54 E.02589
G1 X120.376 Y104.049 E.02589
G1 X120.659 Y104.574 E.02589
G1 X120.917 Y105.112 E.02589
G1 X121.147 Y105.664 E.02595
G1 X121.322 Y106.143 E.02215
G1 X121.5 Y106.71 E.02581
G1 X121.649 Y107.288 E.02589
G1 X121.77 Y107.872 E.02589
G1 X121.862 Y108.461 E.02589
G1 X121.923 Y109.057 E.02599
G1 X121.961 Y110.039 E.04266
G1 X121.944 Y110.638 E.02603
G1 X121.906 Y111.147 E.02215
G1 X121.834 Y111.738 E.02583
G1 X121.733 Y112.326 E.02589
G1 X121.602 Y112.907 E.02589
G1 X121.443 Y113.482 E.02589
G1 X121.255 Y114.048 E.02589
G1 X121.039 Y114.604 E.02589
G1 X120.796 Y115.149 E.02589
G1 X120.526 Y115.68 E.02589
G1 X120.23 Y116.198 E.02589
G1 X119.908 Y116.7 E.02589
G1 X119.562 Y117.186 E.02589
G1 X119.196 Y117.648 E.0256
G1 X118.803 Y118.097 E.02589
G1 X118.389 Y118.526 E.02589
G1 X117.953 Y118.934 E.02589
G1 X117.493 Y119.323 E.02618
G1 X117.019 Y119.685 E.02589
G1 X116.527 Y120.023 E.02589
G1 X116.02 Y120.336 E.02589
G1 X115.497 Y120.623 E.02589
G1 X114.961 Y120.884 E.02589
G1 X114.416 Y121.116 E.0257
G1 X113.488 Y121.441 E.04266
G1 X112.918 Y121.6 E.0257
G1 X112.336 Y121.731 E.02589
G1 X111.749 Y121.832 E.02589
G1 X111.157 Y121.905 E.02589
G1 X110.562 Y121.948 E.02589
G1 X109.966 Y121.961 E.02589
G1 X109.369 Y121.944 E.02589
G1 X108.775 Y121.898 E.02589
G1 X108.183 Y121.822 E.02589
G1 X107.596 Y121.717 E.02589
G1 X107.015 Y121.583 E.02589
G1 X106.442 Y121.419 E.02589
G1 X105.877 Y121.228 E.02589
G1 X105.322 Y121.008 E.02589
G1 X104.779 Y120.761 E.02589
G1 X104.249 Y120.488 E.02589
G1 X103.733 Y120.188 E.02594
G1 X103.291 Y119.902 E.02282
G1 X102.814 Y119.562 E.02544
G1 X102.644 Y119.427 E.00945
G1 X102.922 Y119.075 F18000
G1 F3000
G1 X102.636 Y118.849 E.01581
G1 X102.204 Y118.471 E.02492
G1 X101.796 Y118.077 E.02463
G1 X101.404 Y117.658 E.02491
G1 X101.025 Y117.209 E.0255
G1 X100.676 Y116.753 E.02492
G1 X100.351 Y116.28 E.02491
G1 X100.05 Y115.791 E.02492
G1 X99.774 Y115.288 E.02492
G1 X99.523 Y114.772 E.02492
G1 X99.301 Y114.25 E.02462
G1 X98.989 Y113.358 E.04101
G1 X98.836 Y112.812 E.02462
G1 X98.71 Y112.252 E.02491
G1 X98.612 Y111.686 E.02492
G1 X98.542 Y111.117 E.02492
G1 X98.501 Y110.544 E.02492
G1 X98.488 Y109.97 E.02492
G1 X98.504 Y109.396 E.02492
G1 X98.548 Y108.824 E.02492
G1 X98.621 Y108.255 E.02492
G1 X98.722 Y107.69 E.02492
G1 X98.851 Y107.13 E.02492
G1 X99.008 Y106.578 E.02492
G1 X99.192 Y106.035 E.02492
G1 X99.403 Y105.501 E.02492
G1 X99.641 Y104.978 E.02492
G1 X99.904 Y104.468 E.02492
G1 X100.192 Y103.972 E.02492
G1 X100.505 Y103.49 E.02492
G1 X100.841 Y103.025 E.02492
G1 X101.2 Y102.577 E.02492
G1 X101.581 Y102.148 E.02492
G1 X101.983 Y101.738 E.02492
G1 X102.405 Y101.349 E.02492
G1 X102.846 Y100.981 E.02492
G1 X103.304 Y100.635 E.02492
G1 X103.779 Y100.313 E.02491
G1 X104.27 Y100.015 E.02492
G1 X104.774 Y99.742 E.02492
G1 X105.292 Y99.494 E.02492
G1 X105.822 Y99.273 E.02492
G1 X106.362 Y99.078 E.02492
G1 X106.911 Y98.91 E.02492
G1 X107.467 Y98.77 E.02492
G1 X108.03 Y98.658 E.02492
G1 X108.598 Y98.573 E.02491
G1 X109.176 Y98.518 E.02523
G1 X110.101 Y98.488 E.04018
G1 X110.604 Y98.503 E.02182
G1 X111.176 Y98.548 E.0249
G1 X111.745 Y98.621 E.02492
G1 X112.31 Y98.722 E.02492
G1 X112.87 Y98.851 E.02492
G1 X113.422 Y99.008 E.02492
G1 X113.965 Y99.192 E.02492
G1 X114.499 Y99.403 E.02492
G1 X115.022 Y99.641 E.02492
G1 X115.532 Y99.904 E.02492
G1 X116.028 Y100.192 E.02492
G1 X116.51 Y100.505 E.02492
G1 X116.975 Y100.841 E.02492
G1 X117.423 Y101.2 E.02492
G1 X117.852 Y101.581 E.02492
G1 X118.262 Y101.983 E.02492
G1 X118.651 Y102.405 E.02491
G1 X119.019 Y102.846 E.02492
G1 X119.365 Y103.304 E.02491
G1 X119.687 Y103.779 E.02492
G1 X119.985 Y104.27 E.02492
G1 X120.258 Y104.775 E.02492
G1 X120.506 Y105.292 E.02492
G1 X120.898 Y106.29 E.04652
G1 X121.069 Y106.837 E.02489
G1 X121.213 Y107.393 E.02492
G1 X121.329 Y107.955 E.02491
G1 X121.416 Y108.515 E.02462
G1 X121.476 Y109.093 E.0252
G1 X121.512 Y110.037 E.041
G1 X121.496 Y110.612 E.02499
G1 X121.39 Y111.676 E.0464
G1 X121.292 Y112.242 E.02492
G1 X121.166 Y112.802 E.02492
G1 X121.013 Y113.355 E.02492
G1 X120.832 Y113.899 E.02492
G1 X120.624 Y114.435 E.02492
G1 X120.39 Y114.959 E.02492
G1 X120.13 Y115.47 E.02492
G1 X119.848 Y115.963 E.02463
G1 X119.538 Y116.446 E.02492
G1 X119.205 Y116.914 E.02492
G1 X118.853 Y117.359 E.02463
G1 X118.475 Y117.791 E.02492
G1 X118.076 Y118.204 E.02492
G1 X117.658 Y118.596 E.02491
G1 X117.209 Y118.975 E.0255
G1 X116.753 Y119.324 E.02491
G1 X116.28 Y119.649 E.02492
G1 X115.791 Y119.95 E.02492
G1 X115.288 Y120.226 E.02492
G1 X114.772 Y120.477 E.02492
G1 X114.25 Y120.699 E.02462
G1 X113.358 Y121.011 E.04101
G1 X112.812 Y121.164 E.02462
G1 X112.252 Y121.29 E.02491
G1 X111.686 Y121.388 E.02492
G1 X111.117 Y121.458 E.02492
G1 X110.544 Y121.499 E.02492
G1 X109.97 Y121.512 E.02492
G1 X109.396 Y121.496 E.02492
G1 X108.824 Y121.452 E.02492
G1 X108.255 Y121.379 E.02492
G1 X107.69 Y121.278 E.02491
G1 X107.13 Y121.149 E.02492
G1 X106.578 Y120.992 E.02492
G1 X106.035 Y120.808 E.02492
G1 X105.501 Y120.597 E.02492
G1 X104.978 Y120.359 E.02492
G1 X104.468 Y120.096 E.02492
G1 X103.97 Y119.807 E.02501
G1 X103.081 Y119.201 E.04668
G1 X102.953 Y119.1 E.00709
G1 X103.232 Y118.748 F18000
G1 F3000
G1 X102.921 Y118.502 E.01722
G1 X102.506 Y118.138 E.02395
G1 X102.114 Y117.759 E.02367
G1 X101.741 Y117.362 E.02365
G1 X101.372 Y116.925 E.02481
G1 X101.038 Y116.487 E.02394
G1 X100.726 Y116.032 E.02394
G1 X100.436 Y115.562 E.02395
G1 X100.171 Y115.079 E.02395
G1 X99.93 Y114.583 E.02394
G1 X99.718 Y114.083 E.02354
G1 X99.418 Y113.228 E.03936
G1 X99.272 Y112.705 E.02354
G1 X99.151 Y112.168 E.02394
G1 X99.056 Y111.624 E.02395
G1 X98.989 Y111.076 E.02394
G1 X98.949 Y110.526 E.02395
G1 X98.936 Y109.975 E.02395
G1 X98.952 Y109.423 E.02395
G1 X98.994 Y108.873 E.02395
G1 X99.064 Y108.326 E.02394
G1 X99.161 Y107.783 E.02395
G1 X99.285 Y107.246 E.02395
G1 X99.435 Y106.715 E.02395
G1 X99.612 Y106.192 E.02394
G1 X99.815 Y105.679 E.02395
G1 X100.043 Y105.177 E.02395
G1 X100.296 Y104.687 E.02395
G1 X100.573 Y104.21 E.02395
G1 X100.873 Y103.747 E.02395
G1 X101.196 Y103.3 E.02395
G1 X101.541 Y102.869 E.02394
G1 X101.907 Y102.456 E.02394
G1 X102.293 Y102.062 E.02395
G1 X102.698 Y101.688 E.02395
G1 X103.122 Y101.334 E.02395
G1 X103.562 Y101.002 E.02395
G1 X104.019 Y100.693 E.02394
G1 X104.49 Y100.406 E.02395
G1 X104.975 Y100.143 E.02395
G1 X105.473 Y99.905 E.02395
G1 X105.982 Y99.692 E.02394
G1 X106.5 Y99.505 E.02395
G1 X107.028 Y99.343 E.02395
G1 X107.563 Y99.208 E.02395
G1 X108.104 Y99.1 E.02395
G1 X108.649 Y99.019 E.02393
G1 X109.209 Y98.965 E.02444
G1 X110.097 Y98.937 E.03857
G1 X110.576 Y98.951 E.0208
G1 X111.127 Y98.994 E.02395
G1 X111.674 Y99.064 E.02395
G1 X112.217 Y99.161 E.02394
G1 X112.754 Y99.285 E.02395
G1 X113.285 Y99.435 E.02394
G1 X113.808 Y99.612 E.02395
G1 X114.321 Y99.815 E.02395
G1 X114.823 Y100.043 E.02394
G1 X115.313 Y100.296 E.02394
G1 X115.79 Y100.573 E.02395
G1 X116.253 Y100.873 E.02395
G1 X116.7 Y101.196 E.02394
G1 X117.131 Y101.541 E.02395
G1 X117.544 Y101.907 E.02394
G1 X117.938 Y102.293 E.02395
G1 X118.312 Y102.698 E.02394
G1 X118.666 Y103.122 E.02395
G1 X118.998 Y103.562 E.02394
G1 X119.307 Y104.019 E.02395
G1 X119.594 Y104.49 E.02395
G1 X119.857 Y104.975 E.02395
G1 X120.092 Y105.467 E.02367
G1 X120.476 Y106.444 E.04555
G1 X120.639 Y106.963 E.02364
G1 X120.775 Y107.491 E.02366
G1 X120.887 Y108.031 E.02395
G1 X120.971 Y108.569 E.02364
G1 X121.029 Y109.129 E.02441
G1 X121.063 Y110.035 E.03935
G1 X121.048 Y110.579 E.02363
G1 X120.944 Y111.62 E.04542
G1 X120.851 Y112.157 E.02368
G1 X120.73 Y112.696 E.02395
G1 X120.582 Y113.227 E.02395
G1 X120.408 Y113.751 E.02395
G1 X120.208 Y114.265 E.02395
G1 X119.983 Y114.768 E.02395
G1 X119.733 Y115.26 E.02395
G1 X119.462 Y115.733 E.02366
G1 X119.165 Y116.198 E.02395
G1 X118.844 Y116.647 E.02395
G1 X118.506 Y117.075 E.02366
G1 X118.143 Y117.49 E.02395
G1 X117.759 Y117.886 E.02395
G1 X117.362 Y118.259 E.02364
G1 X116.925 Y118.628 E.02481
G1 X116.487 Y118.962 E.02394
G1 X116.032 Y119.274 E.02395
G1 X115.562 Y119.564 E.02395
G1 X115.079 Y119.829 E.02394
G1 X114.583 Y120.07 E.02394
G1 X114.083 Y120.282 E.02354
