; HEADER_BLOCK_START
; generated by AnycubicSlicerNext 1.3.3.1 on 2025-03-02 at 21:19:20
; total layer number: 75
; filament_density: 1.24
; filament_diameter: 1.75
; max_z_height: 15.04
; exclude_object: 0
; model_instances: 1
; HEADER_BLOCK_END

; THUMBNAIL_BLOCK_START
; THUMBNAIL_BLOCK_END

; external perimeters extrusion width = 0.42mm
; perimeters extrusion width = 0.45mm
; infill extrusion width = 0.45mm
; solid infill extrusion width = 0.42mm
; top infill extrusion width = 0.42mm
; support material extrusion width = 0.40mm
; first layer extrusion width = 0.50mm

; EXECUTABLE_BLOCK_START
M201 X2000 Y2000 Z800 E2000
M203 X300 Y300 Z8 E100
M204 P2000 R2000 T2000
M205 X10.00 Y10.00 Z2.00 E5.00 ; sets the jerk limits, mm/sec
;TYPE:Custom
G90 ; use absolute coordinates
M83 ; extruder relative mode
M104 S220 ; set extruder temp
M140 S60 ; set bed temp
M190 S60 ; wait for bed temp
M109 S220 ; wait for extruder temp
G28                                        ; move X/Y/Z to min endstops
G1 Z0.28                                   ; lift nozzle a bit 
G92 E0 
G1 Y3 F1800                                    ; zero the extruded length 
G1 X60  E25 F500                       ; Extrude 25mm of filament in a 5cm line. 
G92 E0                                     ; zero the extruded length again 
G1 E-2 F500                                ; Retract a little 
G1 X70 F4000                              ; Quickly wipe away from the filament line
M117
G90
G21
M83 ; use relative distances for extrusion
; filament start gcode
M106 S0
;LAYER_CHANGE
;Z:0.24
;HEIGHT:0.24
; BEFORE_LAYER_CHANGE 0 @ 0.24mm
G92 E0
G1 E-2.5 F6000
; AFTER_LAYER_CHANGE 0 @ 0.24mm
M204 P500
; printing object "Cyclo2Receiver.stl" id:2214550246144 copy 0
M204 T500
G1 X110.289 Y80.694 F18000
G1 Z.24
G1 E2.5 F6000
;TYPE:Support
;WIDTH:0.5
;MM3_PER_MM:0.107639
G1 F3000
G3 X113.041 Y81.655 I-1.138 J7.681 E.1273
G3 X117.391 Y84.174 I.287 J4.52 E.23131
G3 X119.355 Y85.153 I-3.176 J8.832 E.09548
G3 X123.142 Y87.459 I-.266 J4.699 E.20044
G3 X126.499 Y88.891 I.201 J4.181 E.16392
G3 X132.217 Y95.063 I1.067 J4.746 E.44121
G3 X133.513 Y97.977 I-4.229 J3.626 E.14042
G3 X136.821 Y103.561 I-.87 J4.287 E.31743
G3 X136.832 Y109.676 I-3.365 J3.063 E.29105
G3 X136.217 Y111.473 I-4.153 J-.416 E.08316
G3 X136.438 Y114.608 I-5.622 J1.972 E.13807
G3 X135.911 Y120.525 I-3.837 J2.64 E.27962
G3 X132.471 Y127.054 I-5.144 J1.46 E.35353
G3 X126.803 Y130.636 I-4.778 J-1.284 E.31982
G3 X125.089 Y132.192 I-6.24 J-5.151 E.10081
G3 X118.601 Y135.444 I-4.34 J-.561 E.37143
G1 X118.373 Y135.535 E.01068
G3 X117.014 Y135.852 I-1.401 J-2.927 E.06104
G3 X112.176 Y138.232 I-3.97 J-1.964 E.25163
G3 X104.138 Y136.232 I-3.203 J-4.281 E.41131
G3 X99.031 Y135.909 I-2.3 J-4.159 E.23454
G3 X93.843 Y133.34 I-.74 J-5.029 E.26737
G3 X90.874 Y130.981 I1.288 J-4.669 E.16914
G3 X88.086 Y128.557 I1.688 J-4.757 E.16419
G3 X84.985 Y123.918 I2.25 J-4.86 E.25478
G3 X84.619 Y118.908 I5.091 J-2.89 E.22537
G3 X84.465 Y116.933 I4.601 J-1.353 E.08662
G3 X83.867 Y112.992 I3.337 J-2.521 E.18035
G3 X83.873 Y108.248 I3.457 J-2.368 E.21887
G3 X83.691 Y104.849 I3.788 J-1.907 E.15205
G3 X84.556 Y98.158 I3.72 J-2.92 E.32606
G3 X88.302 Y94.306 I4.308 J.441 E.25165
G3 X89.489 Y92.712 I3.879 J1.65 E.08707
G3 X94.856 Y88.124 I4.295 J-.409 E.35899
G3 X97.701 Y86.43 I3.421 J2.509 E.14766
G3 X104.636 Y83.706 I4.347 J.877 E.38399
G2 X105.669 Y82.86 I.073 J-.965 E.06398
G3 X110.221 Y80.691 I4.59 J3.773 E.22604
G1 X109.619 Y84.698 F18000
G1 F3000
G3 X109.552 Y84.699 I.399 J25.3 E6.89837
G1 E-1.75 F6000
;WIPE_START
G1 F3000
G1 X108.554 Y84.764 E-.75
;WIPE_END
G1 X137.408 Y108.546 F18000
G1 E2.5 F6000
G1 F3000
G1 X137.408 Y105.2 E.14524
G2 X136.91 Y104.276 I-5.315 J2.27 E.04564
G1 X136.91 Y108.985 E.20443
G2 X136.411 Y109.806 I.871 J1.091 E.04254
G1 X136.411 Y101.014 E.38163
G2 X135.913 Y100.003 I-2.685 J.694 E.0493
G1 X135.913 Y119.922 E.86465
G2 X136.411 Y119.208 I-1.419 J-1.522 E.03806
G1 X136.411 Y115.363 E.16693
G3 X136.91 Y118.548 I-6.546 J2.656 E.14121
G1 E-1.75 F6000
;WIPE_START
G1 F3000
G1 X136.874 Y117.549 E-.75
;WIPE_END
G1 X135.415 Y124.194 F18000
G1 E2.5 F6000
G1 F3000
G1 X135.413 Y113.885 E.4475
G3 X134.916 Y116.33 I-27.889 J-4.386 E.10837
G1 X134.916 Y124.681 E.36247
G3 X134.418 Y125.326 I-2.027 J-1.05 E.03558
G1 X134.418 Y118.036 E.31645
G3 X133.92 Y119.42 I-23.209 J-7.576 E.06386
G1 X133.92 Y125.798 E.27687
G3 X133.421 Y126.143 I-1.199 J-1.201 E.02644
G1 X133.41 Y120.625 E.23951
G3 X132.923 Y121.634 I-27.245 J-12.51 E.04864
G1 X132.923 Y126.425 E.20794
G1 X132.425 Y126.635 E.02348
G1 X132.425 Y122.57 E.17646
G3 X131.926 Y123.421 I-44.917 J-25.717 E.04283
G1 X131.926 Y127.446 E.17471
G3 X131.428 Y128.473 I-4.296 J-1.449 E.0497
G1 X131.428 Y124.203 E.18538
G3 X130.93 Y124.928 I-61.561 J-41.782 E.03819
G1 X130.93 Y129.066 E.17963
G3 X130.431 Y129.484 I-1.279 J-1.019 E.02842
G1 X130.431 Y125.602 E.1685
G3 X129.933 Y126.233 I-16.214 J-12.291 E.03491
G1 X129.933 Y129.804 E.155
G3 X129.435 Y130.056 I-.961 J-1.283 E.02436
G1 X129.433 Y126.831 E.14001
G3 X128.936 Y127.387 I-18.734 J-16.211 E.03236
G1 X128.936 Y130.201 E.12214
G3 X128.438 Y130.302 I-.522 J-1.287 E.0222
G1 X128.438 Y127.915 E.10365
G3 X127.94 Y128.413 I-29.207 J-28.717 E.03059
G1 X127.94 Y130.337 E.08353
G3 X127.441 Y130.313 I-.19 J-1.241 E.0218
G1 X127.441 Y128.884 E.06204
G2 X126.943 Y130.248 I.548 J.973 E.06862
G1 X126.593 Y130.202 E.01533
G1 X126.445 Y130.448 E.01247
G1 X126.445 Y129.758 E.02996
G2 X125.946 Y131.075 I.458 J.926 E.06725
G3 X125.448 Y131.5 I-1.215 J-.919 E.02866
G1 X125.448 Y130.547 E.04139
G2 X124.95 Y131.813 I.358 J.872 E.06602
G1 X124.716 Y131.906 E.01094
G3 X124.452 Y133.047 I-2.927 J-.077 E.05118
G1 X124.452 Y131.261 E.07755
G3 X123.953 Y131.59 I-8.985 J-13.074 E.02592
G1 X123.953 Y133.976 E.10359
G1 X123.455 Y134.546 E.03288
G1 X123.455 Y131.905 E.11465
G3 X122.957 Y132.204 I-9.367 J-15.082 E.02521
G1 X122.957 Y134.923 E.11805
G3 X122.458 Y135.208 I-.82 J-.855 E.02517
G1 X122.458 Y132.486 E.11818
G3 X121.96 Y132.756 I-7.926 J-14.014 E.02461
G1 X121.96 Y135.409 E.11515
G3 X121.462 Y135.515 I-.498 J-1.108 E.02229
G1 X121.46 Y133.012 E.10865
G3 X120.963 Y133.253 I-22.461 J-45.66 E.02396
G1 X120.963 Y135.59 E.10144
G1 X120.465 Y135.571 E.02165
G1 X120.465 Y133.482 E.09069
G3 X119.967 Y133.696 I-8.817 J-19.829 E.02355
G1 X119.967 Y135.511 E.07881
G1 X119.468 Y135.385 E.02231
G1 X119.468 Y133.9 E.06446
G3 X118.97 Y134.091 I-5.375 J-13.335 E.02316
G1 X118.97 Y135.175 E.04708
G2 X118.472 Y135.061 I-.301 J.168 E.02501
G1 X118.472 Y134.272 E.03424
G2 X117.973 Y135.259 I.078 J.659 E.05675
G3 X117.475 Y135.368 I-.495 J-1.078 E.02231
G1 X117.475 Y134.597 E.03346
G2 X116.977 Y135.449 I.001 J.572 E.0517
G1 X116.751 Y135.486 E.00991
G1 X116.478 Y136.001 E.0253
G1 X116.478 Y134.878 E.04874
G3 X115.98 Y135.003 I-5.388 J-20.509 E.0223
G1 X115.98 Y136.647 E.07136
G3 X115.482 Y137.088 I-1.293 J-.957 E.02911
G1 X115.482 Y135.117 E.08557
G3 X114.983 Y135.22 I-4.387 J-19.872 E.02209
G1 X114.983 Y137.421 E.09552
G1 X114.485 Y137.666 E.0241
G1 X114.485 Y135.313 E.10214
G3 X113.987 Y135.396 I-2.622 J-14.062 E.02194
G1 X113.987 Y137.808 E.1047
G3 X113.488 Y137.916 I-.479 J-1.013 E.02232
G1 X113.488 Y135.47 E.10618
G3 X112.99 Y135.532 I-1.959 J-13.662 E.0218
G1 X112.99 Y137.924 E.10383
G3 X112.492 Y137.888 I-.175 J-1.061 E.02189
G1 X112.492 Y135.587 E.09989
G3 X111.993 Y135.631 I-4.954 J-53.718 E.02171
G1 X111.993 Y137.868 E.09714
G1 X111.495 Y138.197 E.02592
G1 X111.495 Y135.663 E.11002
G3 X110.997 Y135.688 I-.942 J-13.668 E.02166
G1 X110.997 Y138.454 E.12006
G1 X110.498 Y138.667 E.02352
G1 X110.498 Y135.702 E.1287
G1 X110 Y135.708 E.02163
G1 X110 Y138.781 E.13339
G3 X109.502 Y138.87 I-.494 J-1.329 E.02209
G1 X109.463 Y135.703 E.13749
G3 X109.003 Y135.687 I.399 J-18.346 E.01998
G1 X109.003 Y138.892 E.13914
G3 X108.505 Y138.869 I-.186 J-1.384 E.02177
G1 X108.505 Y135.664 E.13913
G3 X108.007 Y135.63 I.941 J-17.457 E.02168
G1 X108.007 Y138.802 E.13768
G3 X107.508 Y138.664 I.695 J-3.474 E.02247
G1 X107.508 Y135.586 E.1336
G3 X107.01 Y135.533 I1.337 J-14.927 E.02175
G1 X107.01 Y138.495 E.12858
G1 X106.512 Y138.227 E.02456
G1 X106.512 Y135.468 E.11974
G3 X106.013 Y135.397 I2.953 J-22.437 E.02185
G1 X106.013 Y137.893 E.10836
G3 X105.515 Y137.475 I.903 J-1.582 E.02839
G1 X105.515 Y135.314 E.09383
G3 X105.017 Y135.219 I3.521 J-19.898 E.02202
G1 X105.017 Y136.905 E.07317
G3 X104.518 Y135.115 I2.005 J-1.523 E.0826
G3 X104.02 Y135.003 I4.219 J-19.909 E.02217
G1 X104.02 Y135.841 E.03636
G1 X103.522 Y136.081 E.02403
G1 X103.522 Y134.879 E.05222
G3 X103.023 Y134.743 I15.929 J-59.732 E.02241
G1 X103.023 Y136.317 E.06833
G1 X102.525 Y136.424 E.02212
G1 X102.525 Y134.597 E.07931
G3 X102.027 Y134.439 I6.084 J-20.011 E.0227
G1 X102.027 Y136.494 E.08921
G1 X101.528 Y136.491 E.02163
G1 X101.528 Y134.271 E.09634
G3 X101.03 Y134.09 I4.652 J-13.585 E.02302
G1 X101.03 Y136.407 E.10056
G3 X100.532 Y136.295 I.012 J-1.221 E.02233
G1 X100.532 Y133.901 E.10394
G3 X100.033 Y133.697 I7.498 J-19.059 E.02337
G1 X100.033 Y136.078 E.10334
G3 X99.535 Y135.766 I.559 J-1.446 E.02568
G1 X99.535 Y133.481 E.09917
G1 X99.037 Y133.253 E.02379
G1 X99.037 Y135.499 E.09752
G3 X98.538 Y135.571 I-.437 J-1.273 E.02198
G1 X98.525 Y133.005 E.11139
G3 X98.04 Y132.755 I9.764 J-19.505 E.02368
G1 X98.04 Y135.557 E.12163
G3 X97.542 Y135.509 I-.124 J-1.333 E.02186
G1 X97.542 Y132.487 E.1312
G3 X97.043 Y132.202 I7.273 J-13.307 E.02492
G1 X97.043 Y135.4 E.1388
G3 X96.545 Y135.223 I.215 J-1.397 E.02309
G1 X96.545 Y131.905 E.14401
G3 X96.047 Y131.59 I8.164 J-13.461 E.0256
G1 X96.047 Y135.004 E.14818
G1 X95.548 Y134.668 E.02608
G1 X95.548 Y131.261 E.14789
G3 X95.05 Y130.914 I11.309 J-16.736 E.02638
G1 X95.05 Y134.238 E.14429
G3 X94.552 Y133.66 I1.269 J-1.598 E.03332
G1 X94.552 Y130.549 E.13503
G3 X94.054 Y130.164 I55.051 J-71.831 E.02733
G1 X94.054 Y132.983 E.12233
G3 X93.555 Y132.821 I1.09 J-4.216 E.02275
G1 X93.555 Y129.76 E.13287
G3 X93.057 Y129.334 I39.052 J-46.196 E.02846
G1 X93.057 Y132.6 E.14178
G1 X92.559 Y132.308 E.02508
G1 X92.559 Y128.886 E.14852
G3 X92.06 Y128.412 I29.439 J-31.447 E.02986
G1 X92.06 Y131.881 E.15057
G3 X91.562 Y131.319 I2.203 J-2.455 E.03268
G1 X91.562 Y127.914 E.14779
G3 X91.064 Y127.386 I15.212 J-14.853 E.03152
G1 X91.064 Y130.615 E.14016
G3 X90.565 Y130.418 I.263 J-1.393 E.0234
G1 X90.565 Y126.828 E.15584
G3 X90.067 Y126.235 I55.598 J-47.218 E.03363
G1 X90.067 Y130.167 E.17067
G3 X89.569 Y129.793 I2.48 J-3.823 E.02707
G1 X89.569 Y125.6 E.18199
G3 X89.07 Y124.925 I13.75 J-10.667 E.03644
G1 X89.07 Y129.292 E.18958
G3 X88.572 Y128.591 I1.536 J-1.62 E.03757
G1 X88.572 Y124.204 E.19046
G3 X88.074 Y123.421 I54.856 J-35.474 E.04028
G1 X88.074 Y128.092 E.20277
G3 X87.575 Y127.823 I.493 J-1.508 E.02472
G1 X87.575 Y122.569 E.22806
G3 X87.077 Y121.637 I22.004 J-12.36 E.04589
G1 X87.077 Y127.425 E.25128
G3 X86.579 Y126.92 I1.143 J-1.626 E.03097
G1 X86.579 Y120.598 E.27446
G3 X86.08 Y119.419 I27.978 J-12.524 E.05555
G1 X86.08 Y126.229 E.29561
G3 X85.582 Y125.123 I2.798 J-1.926 E.05294
G1 X85.582 Y118.04 E.30745
G3 X85.084 Y116.33 I24.371 J-8.028 E.07735
G1 X85.084 Y123.161 E.29654
G3 X84.585 Y119.667 I6.813 J-2.754 E.15471
G1 E-1.75 F6000
;WIPE_START
G1 F3000
G1 X84.585 Y120.667 E-.75
;WIPE_END
G1 X135.415 Y107.849 F18000
G1 E2.5 F6000
G1 F3000
G1 X135.415 Y99.415 E.3661
G2 X134.916 Y99.008 I-1.241 J1.011 E.02812
G1 X134.903 Y103.617 E.20007
G3 X134.418 Y98.706 I10.003 J-3.467 E.21617
G1 X133.92 Y98.49 E.02358
G1 X133.92 Y100.581 E.09076
G3 X133.421 Y98.37 I4.267 J-2.123 E.09932
G1 X133.143 Y98.309 E.01236
G2 X132.923 Y96.947 I-3.206 J-.181 E.0604
G1 X132.923 Y98.363 E.0615
G3 X132.425 Y95.575 I3.01 J-1.977 E.12637
G1 X131.926 Y96.969 F18000
G1 F3000
G1 X131.926 Y92.642 E.18783
G2 X131.428 Y91.394 I-3.429 J.645 E.05871
G1 X131.428 Y95.799 E.19125
G2 X130.93 Y95.072 I-17.468 J11.438 E.03827
G1 X130.93 Y90.7 E.1898
G2 X130.431 Y90.218 I-1.478 J1.028 E.0303
G1 X130.431 Y94.399 E.1815
G2 X129.933 Y93.767 I-14.276 J10.752 E.03492
G1 X129.933 Y89.849 E.17009
G1 X129.435 Y89.574 E.02471
G1 X129.435 Y93.173 E.15623
G2 X128.936 Y92.615 I-13.971 J11.994 E.03245
G1 X128.936 Y89.388 E.14009
G2 X128.438 Y89.251 I-.632 J1.319 E.02256
G1 X128.405 Y92.051 E.12156
G2 X127.94 Y91.588 I-18.751 J18.359 E.02851
G1 X127.94 Y89.192 E.10397
G2 X127.441 Y89.177 I-.288 J1.262 E.02178
G1 X127.441 Y91.114 E.08406
G2 X126.943 Y90.666 I-18.035 J19.561 E.02909
G1 X126.943 Y89.215 E.06295
G2 X126.445 Y89.325 I.03 J1.324 E.02229
G1 X126.43 Y90.227 E.03917
G3 X125.946 Y88.894 I.503 J-.937 E.06737
G2 X125.448 Y88.5 I-1.145 J.935 E.02781
G1 X125.448 Y89.451 E.04129
G3 X124.95 Y88.209 I.3 J-.841 E.06565
G1 X124.452 Y88.011 E.02329
G1 X124.452 Y88.738 E.03159
G3 X123.953 Y87.907 I.276 J-.73 E.04538
G2 X123.455 Y87.847 I-.387 J1.102 E.02196
G1 X123.455 Y88.333 E.02112
G1 X122.458 Y87.744 F18000
G1 F3000
G2 X121.96 Y86.552 I-.939 J-.307 E.06109
G1 X121.96 Y87.244 E.03002
G3 X121.462 Y86.174 I.165 J-.728 E.05912
G2 X120.963 Y85.895 I-.883 J.992 E.02499
G1 X120.963 Y86.747 E.037
G3 X120.465 Y85.696 I.13 J-.705 E.05889
G2 X119.967 Y85.602 I-.462 J1.085 E.02218
G1 X119.967 Y86.303 E.03041
G3 X119.468 Y85.551 I-.006 J-.537 E.04651
G3 X118.97 Y85.348 I-.08 J-.517 E.02453
G1 X118.97 Y85.908 E.0243
G3 X118.472 Y85.01 I.042 J-.611 E.05287
G2 X117.973 Y84.772 I-.789 J1.013 E.02415
G1 X117.973 Y85.56 E.03421
G2 X117.475 Y85.404 I-4.502 J13.491 E.02267
G1 X117.475 Y84.596 E.03506
G3 X116.977 Y84.241 I-.127 J-.348 E.03126
G1 X116.977 Y85.257 E.04411
G2 X116.478 Y85.122 I-13.479 J48.68 E.02241
G1 X116.478 Y83.483 E.07111
G2 X115.98 Y83.003 I-1.264 J.813 E.03031
G1 X115.98 Y84.999 E.08663
G2 X115.482 Y84.884 I-3.387 J13.533 E.0222
G1 X115.482 Y82.649 E.09702
G1 X114.983 Y82.383 E.02452
G1 X114.983 Y84.78 E.10407
G2 X114.485 Y84.688 I-2.833 J13.846 E.022
G1 X114.485 Y82.224 E.10693
G2 X113.987 Y82.103 I-.549 J1.167 E.02241
G1 X113.987 Y84.603 E.10854
G2 X113.488 Y84.532 I-2.627 J16.525 E.02185
G1 X113.488 Y82.058 E.10737
G2 X112.99 Y82.067 I-.227 J1.221 E.02178
G1 X112.99 Y84.467 E.10417
G2 X112.492 Y84.414 I-1.835 J14.874 E.02175
G1 X112.492 Y81.776 E.11449
G2 X111.993 Y81.521 I-.952 J1.245 E.02443
G1 X111.962 Y84.367 E.12354
G2 X111.495 Y84.336 I-1.48 J18.607 E.02033
G1 X111.495 Y81.309 E.13138
G1 X110.997 Y81.195 E.02219
G1 X110.997 Y84.312 E.13527
G2 X110.498 Y84.299 I-.629 J14.482 E.02164
G1 X110.498 Y81.108 E.13852
G1 X110 Y81.085 E.02165
G1 X110 Y84.292 E.1392
G2 X109.502 Y84.297 I.002 J26.979 E.02163
G1 X109.502 Y81.109 E.13837
G1 X109.003 Y81.176 E.02183
G1 X109.003 Y84.311 E.13608
G2 X108.505 Y84.337 I.769 J19.902 E.02166
G1 X108.505 Y81.316 E.13114
G2 X108.007 Y81.486 I.219 J1.458 E.02298
G1 X108.007 Y84.37 E.1252
G2 X107.508 Y84.414 I1.136 J15.851 E.02172
G1 X107.508 Y81.754 E.11546
G2 X107.01 Y82.089 I.674 J1.54 E.0262
G1 X107.01 Y84.468 E.10327
G2 X106.512 Y84.53 I2.223 J19.915 E.0218
G1 X106.512 Y82.509 E.08771
G1 X106.013 Y83.08 E.03288
G1 X106.013 Y84.603 E.06612
G2 X105.515 Y84.688 I3.149 J19.908 E.02195
G1 X105.515 Y83.881 E.03503
G1 X105.017 Y84.019 E.02245
G1 X105.017 Y84.78 E.03302
G2 X104.518 Y84.884 I2.745 J14.382 E.0221
G1 X104.518 Y84.123 E.03305
G2 X104.02 Y83.777 I-1.05 J.98 E.02654
G1 X104.02 Y84.997 E.05298
G2 X103.522 Y85.122 I4.709 J19.923 E.0223
G1 X103.522 Y83.546 E.06838
G2 X103.023 Y83.393 I-.604 J1.075 E.02281
G1 X103.023 Y85.259 E.081
G2 X102.525 Y85.403 I3.778 J13.956 E.02252
G1 X102.525 Y83.281 E.09211
G2 X102.027 Y83.274 I-.406 J10.789 E.02164
G1 X102.027 Y85.561 E.09926
G2 X101.528 Y85.728 I5.3 J16.619 E.02282
G1 X101.528 Y83.298 E.10549
