; HEADER_BLOCK_START
; generated by AnycubicSlicerNext 1.3.3.1 on 2025-03-06 at 02:35:47
; total layer number: 35
; filament_density: 1.24
; filament_diameter: 1.75
; max_z_height: 7.04
; exclude_object: 0
; model_instances: 1
; HEADER_BLOCK_END

; THUMBNAIL_BLOCK_START
; THUMBNAIL_BLOCK_END

; external perimeters extrusion width = 0.42mm
; perimeters extrusion width = 0.45mm
; infill extrusion width = 0.45mm
; solid infill extrusion width = 0.42mm
; top infill extrusion width = 0.42mm
; support material extrusion width = 0.40mm
; first layer extrusion width = 0.50mm

; EXECUTABLE_BLOCK_START
M201 X2000 Y2000 Z800 E2000
M203 X300 Y300 Z8 E100
M204 P2000 R2000 T2000
M205 X10.00 Y10.00 Z2.00 E5.00 ; sets the jerk limits, mm/sec
;TYPE:Custom
G90 ; use absolute coordinates
M83 ; extruder relative mode
M104 S220 ; set extruder temp
M140 S60 ; set bed temp
M190 S60 ; wait for bed temp
M109 S220 ; wait for extruder temp
G28                                        ; move X/Y/Z to min endstops
G1 Z0.28                                   ; lift nozzle a bit 
G92 E0 
G1 Y3 F1800                                    ; zero the extruded length 
G1 X60  E25 F500                       ; Extrude 25mm of filament in a 5cm line. 
G92 E0                                     ; zero the extruded length again 
G1 E-2 F500                                ; Retract a little 
G1 X70 F4000                              ; Quickly wipe away from the filament line
M117
G90
G21
M83 ; use relative distances for extrusion
; filament start gcode
M106 S0
;LAYER_CHANGE
;Z:0.24
;HEIGHT:0.24
; BEFORE_LAYER_CHANGE 0 @ 0.24mm
G92 E0
G1 E-2.5 F6000
; AFTER_LAYER_CHANGE 0 @ 0.24mm
M204 P500
; printing object "Cyclo3Disk.stl" id:0 copy 0
M204 T500
G1 X90.58 Y88.228 F18000
G1 Z.24
G1 E2.5 F6000
;TYPE:Brim
;WIDTH:0.5
;MM3_PER_MM:0.107639
G1 F3000
G1 X90.923 Y87.904 E.02049
G1 X91.563 Y87.397 E.03545
G1 X92.247 Y86.967 E.03505
G1 X92.958 Y86.621 E.03434
G1 X93.545 Y86.405 E.02716
G1 X93.639 Y86.34 E.00494
G1 X94.023 Y85.89 E.02569
G1 X94.589 Y85.342 E.03422
G1 X95.225 Y84.848 E.03493
G1 X95.918 Y84.421 E.03532
G1 X96.653 Y84.073 E.03531
G1 X97.413 Y83.81 E.0349
G1 X98.18 Y83.634 E.03418
G1 X98.615 Y83.575 E.01905
G1 X98.72 Y83.532 E.00493
G1 X99.341 Y83.062 E.0338
G1 X100.02 Y82.654 E.03438
G1 X100.757 Y82.314 E.03522
G1 X101.066 Y82.199 E.01433
G1 X101.852 Y81.974 E.0355
G1 X102.647 Y81.838 E.03501
G1 X103.437 Y81.79 E.03433
G1 X104.17 Y81.822 E.03188
G1 X104.282 Y81.798 E.00494
G1 X104.712 Y81.579 E.02094
G1 X105.446 Y81.289 E.03426
G1 X106.222 Y81.075 E.03495
G1 X107.025 Y80.946 E.03531
G1 X107.878 Y80.906 E.03705
G1 X108.651 Y80.953 E.03365
G1 X109.416 Y81.083 E.03365
G1 X109.945 Y81.223 E.02379
G1 X110.059 Y81.223 E.00492
G1 X110.707 Y81.056 E.02907
G1 X111.491 Y80.938 E.03442
G1 X112.302 Y80.905 E.0352
G1 X112.773 Y80.927 E.02048
G1 X113.583 Y81.035 E.03546
G1 X114.367 Y81.228 E.03507
G1 X115.112 Y81.5 E.03441
G1 X115.726 Y81.8 E.02964
G1 X115.837 Y81.822 E.00492
G1 X116.371 Y81.791 E.02321
G1 X117.157 Y81.818 E.03417
G1 X117.953 Y81.932 E.03491
G1 X118.741 Y82.134 E.03529
G1 X119.502 Y82.422 E.03533
G1 X120.22 Y82.786 E.03495
G1 X120.881 Y83.217 E.03422
G1 X121.269 Y83.525 E.02152
G1 X121.373 Y83.571 E.00494
G1 X122.085 Y83.685 E.03132
G1 X122.849 Y83.89 E.03433
G1 X123.605 Y84.183 E.03518
G1 X123.902 Y84.326 E.01432
G1 X124.61 Y84.736 E.03551
G1 X125.261 Y85.214 E.03506
G1 X125.844 Y85.749 E.03436
G1 X126.367 Y86.343 E.03432
G1 X126.461 Y86.406 E.00493
G1 X126.863 Y86.548 E.01852
G1 X127.581 Y86.873 E.0342
G1 X128.273 Y87.283 E.03492
G1 X128.924 Y87.771 E.03532
G1 X129.518 Y88.327 E.03532
G1 X130.041 Y88.938 E.03494
G1 X130.487 Y89.587 E.03419
G1 X130.779 Y90.117 E.02627
G1 X130.858 Y90.2 E.00494
G1 X131.381 Y90.523 E.0267
G1 X131.752 Y90.795 E.01997
G1 X132.359 Y91.324 E.03497
G1 X132.589 Y91.558 E.01423
G1 X133.115 Y92.184 E.0355
G1 X133.567 Y92.859 E.03526
G1 X133.939 Y93.572 E.0349
G1 X134.117 Y93.997 E.02
G1 X134.345 Y94.704 E.03224
G1 X134.405 Y94.799 E.00488
G1 X134.755 Y95.125 E.02076
G1 X135.281 Y95.709 E.03411
G1 X135.751 Y96.36 E.03486
G1 X136.152 Y97.067 E.03528
G1 X136.476 Y97.817 E.03549
G1 X136.582 Y98.127 E.0142
G1 X136.783 Y98.905 E.03489
G1 X136.86 Y99.358 E.01994
G1 X136.911 Y99.911 E.0241
G1 X136.95 Y100.018 E.00495
G1 X137.329 Y100.564 E.02884
G1 X137.711 Y101.255 E.03428
G1 X138.024 Y101.998 E.03499
G1 X138.255 Y102.778 E.03533
G1 X138.4 Y103.578 E.0353
G1 X138.456 Y104.379 E.03485
G1 X138.427 Y105.164 E.03411
G1 X138.382 Y105.534 E.01617
G1 X138.4 Y105.654 E.00525
G1 X138.555 Y105.997 E.01636
G1 X138.718 Y106.426 E.01992
G1 X138.937 Y107.192 E.03456
G1 X139.074 Y107.992 E.03527
G1 X139.105 Y108.321 E.01434
G1 X139.117 Y109.141 E.03559
G1 X139.083 Y109.61 E.02039
G1 X138.957 Y110.405 E.03496
G1 X138.884 Y110.71 E.01361
G1 X138.686 Y111.345 E.02889
G1 X138.68 Y111.459 E.00495
G1 X138.797 Y112.002 E.0241
G1 X138.887 Y112.787 E.03431
G1 X138.891 Y113.594 E.03502
G1 X138.807 Y114.406 E.03544
G1 X138.718 Y114.87 E.0205
G1 X138.495 Y115.651 E.03525
G1 X138.196 Y116.388 E.03451
G1 X137.817 Y117.091 E.0347
G1 X137.791 Y117.196 E.00468
G1 X137.784 Y117.939 E.03225
G1 X137.694 Y118.728 E.03448
G1 X137.516 Y119.517 E.03513
G1 X137.25 Y120.29 E.03547
G1 X137.058 Y120.721 E.02047
G1 X136.666 Y121.429 E.03514
G1 X136.211 Y122.076 E.03434
G1 X135.812 Y122.537 E.02648
G1 X135.761 Y122.639 E.00494
G1 X135.641 Y123.234 E.02637
G1 X135.409 Y123.988 E.03422
G1 X135.092 Y124.728 E.03495
G1 X134.692 Y125.437 E.03533
G1 X134.216 Y126.097 E.0353
G1 X133.678 Y126.694 E.03489
G1 X133.092 Y127.219 E.03414
G1 X132.754 Y127.469 E.01828
G1 X132.682 Y127.559 E.00498
G1 X132.359 Y128.287 E.03459
G1 X131.962 Y128.972 E.03438
G1 X131.484 Y129.624 E.03507
G1 X130.931 Y130.226 E.03551
G1 X130.69 Y130.451 E.01432
G1 X130.057 Y130.957 E.03517
G1 X129.39 Y131.38 E.03427
G1 X128.754 Y131.69 E.03074
G1 X128.666 Y131.766 E.00503
G1 X128.381 Y132.188 E.02212
G1 X127.879 Y132.797 E.03425
G1 X127.303 Y133.36 E.03497
G1 X126.662 Y133.862 E.03533
G1 X125.971 Y134.29 E.03531
G1 X125.246 Y134.637 E.03488
G1 X124.64 Y134.851 E.02786
G1 X123.996 Y135.018 E.02891
G1 X123.898 Y135.072 E.00485
G1 X123.39 Y135.553 E.03035
G1 X122.761 Y136.035 E.03444
G1 X122.069 Y136.455 E.03509
G1 X121.329 Y136.8 E.03547
G1 X120.885 Y136.962 E.02052
G1 X120.215 Y137.149 E.0302
G1 X119.343 Y137.286 E.0383
G1 X118.65 Y137.33 E.03015
G1 X118.544 Y137.364 E.00481
G1 X118.08 Y137.656 E.0238
G1 X117.378 Y138.013 E.03418
G1 X116.626 Y138.298 E.03491
G1 X115.838 Y138.502 E.03535
G1 X115.147 Y138.61 E.03035
G1 X114.243 Y138.642 E.03928
G1 X113.919 Y138.636 E.01406
G1 X113.575 Y138.605 E.01498
G1 X112.966 Y138.51 E.02676
G1 X112.856 Y138.52 E.00484
G1 X112.163 Y138.771 E.03196
G1 X111.395 Y138.961 E.03434
G1 X110.594 Y139.069 E.0351
G1 X109.894 Y139.094 E.03041
G1 X108.982 Y139.017 E.03973
G1 X108.638 Y138.969 E.0151
G1 X108.013 Y138.822 E.02783
G1 X107.585 Y138.689 E.01947
G1 X107.155 Y138.521 E.02004
G1 X107.036 Y138.509 E.00519
G1 X106.596 Y138.584 E.01938
G1 X105.81 Y138.646 E.0342
G1 X105.002 Y138.622 E.03511
G1 X104.665 Y138.588 E.01471
G1 X104.318 Y138.526 E.01528
G1 X103.423 Y138.316 E.0399
G1 X102.796 Y138.087 E.02899
G1 X102.091 Y137.751 E.03389
G1 X101.451 Y137.36 E.03256
G1 X101.345 Y137.328 E.00482
G1 X100.719 Y137.297 E.02719
G1 X99.932 Y137.179 E.03455
G1 X99.603 Y137.105 E.01465
G1 X99.267 Y137.003 E.01523
G1 X98.405 Y136.689 E.03983
G1 X97.805 Y136.385 E.02919
G1 X97.134 Y135.961 E.03446
G1 X96.518 Y135.471 E.03416
G1 X96.114 Y135.084 E.0243
G1 X96.018 Y135.029 E.00479
G1 X95.225 Y134.812 E.03568
G1 X94.91 Y134.701 E.01451
G1 X94.591 Y134.561 E.01509
G1 X93.781 Y134.15 E.03946
G1 X93.22 Y133.777 E.02919
G1 X92.597 Y133.269 E.03493
G1 X92.26 Y132.944 E.02032
G1 X91.738 Y132.344 E.03452
G1 X91.336 Y131.771 E.03036
G1 X91.256 Y131.701 E.00462
G1 X90.483 Y131.299 E.03781
G1 X89.715 Y130.789 E.04005
G1 X89.205 Y130.354 E.0291
G1 X88.876 Y130.029 E.02006
G1 X88.347 Y129.408 E.03544
G1 X87.894 Y128.741 E.03496
G1 X87.524 Y128.045 E.03423
G1 X87.322 Y127.557 E.0229
G1 X87.246 Y127.461 E.00536
G1 X87.037 Y127.312 E.01111
G1 X86.606 Y126.953 E.02436
G1 X86.145 Y126.51 E.02776
G1 X85.616 Y125.879 E.03571
G1 X85.164 Y125.199 E.03549
G1 X85.003 Y124.91 E.01433
G1 X84.663 Y124.173 E.03523
G1 X84.411 Y123.423 E.03437
G1 X84.237 Y122.623 E.03553
G1 X84.189 Y122.526 E.0047
G1 X83.634 Y121.869 E.03734
G1 X83.45 Y121.606 E.01393
G1 X83.035 Y120.902 E.03547
G1 X82.701 Y120.161 E.03531
G1 X82.45 Y119.387 E.03532
G1 X82.287 Y118.598 E.03495
G1 X82.211 Y117.814 E.03421
G1 X82.212 Y117.184 E.02734
G1 X82.182 Y117.072 E.00503
G1 X81.895 Y116.57 E.02511
G1 X81.574 Y115.838 E.03471
G1 X81.332 Y115.068 E.03504
G1 X81.174 Y114.267 E.03545
G1 X81.123 Y113.797 E.02049
G1 X81.106 Y112.986 E.03523
G1 X81.175 Y112.195 E.03447
G1 X81.32 Y111.452 E.03283
G1 X81.314 Y111.345 E.00467
G1 X81.088 Y110.592 E.03412
G1 X80.942 Y109.81 E.03452
G1 X80.88 Y109.001 E.03526
G1 X80.885 Y108.528 E.02049
G1 X80.965 Y107.716 E.03544
G1 X81.13 Y106.926 E.03501
G1 X81.375 Y106.175 E.03429
G1 X81.603 Y105.655 E.02468
G1 X81.621 Y105.542 E.00495
G1 X81.556 Y104.897 E.02816
G1 X81.555 Y104.107 E.03427
G1 X81.641 Y103.306 E.03497
G1 X81.815 Y102.511 E.03533
G1 X82.075 Y101.741 E.03529
G1 X82.414 Y101.012 E.03487
G1 X82.819 Y100.339 E.03412
G1 X83.046 Y100.026 E.01679
G1 X83.088 Y99.912 E.00525
G1 X83.117 Y99.553 E.01565
G1 X83.245 Y98.777 E.03412
G1 X83.46 Y98.003 E.03487
G1 X83.762 Y97.248 E.0353
G1 X84.145 Y96.53 E.03533
G1 X84.599 Y95.864 E.03499
G1 X85.111 Y95.264 E.03426
G1 X85.601 Y94.796 E.02941
G1 X85.661 Y94.699 E.00495
G1 X85.817 Y94.182 E.02342
G1 X86.118 Y93.452 E.03431
G1 X86.504 Y92.744 E.03499
G1 X86.971 Y92.073 E.03545
G1 X87.273 Y91.711 E.02049
G1 X87.845 Y91.135 E.03526
G1 X88.463 Y90.634 E.03451
G1 X89.149 Y90.193 E.0354
G1 X89.223 Y90.115 E.00469
G1 X89.58 Y89.482 E.03155
G1 X90.041 Y88.835 E.03449
G1 X90.554 Y88.258 E.03349
G1 X90.889 Y88.556 F18000
G1 F3000
G1 X90.899 Y88.545 E.00062
G1 X91.213 Y88.247 E.0188
G1 X91.817 Y87.768 E.03347
G1 X92.459 Y87.364 E.03293
G1 X93.128 Y87.037 E.03232
G1 X93.688 Y86.83 E.02593
G1 X93.892 Y86.71 E.01026
G1 X93.986 Y86.625 E.00551
G1 X94.355 Y86.193 E.02466
G1 X94.89 Y85.677 E.03227
G1 X95.487 Y85.213 E.03282
G1 X96.126 Y84.82 E.03255
G1 X96.816 Y84.492 E.03318
G1 X97.53 Y84.244 E.03279
G1 X98.255 Y84.077 E.03231
G1 X98.663 Y84.021 E.0179
G1 X98.887 Y83.947 E.01024
G1 X98.997 Y83.884 E.0055
G1 X99.599 Y83.431 E.0327
G1 X100.224 Y83.055 E.03167
G1 X100.924 Y82.73 E.03351
G1 X101.211 Y82.624 E.01327
G1 X101.945 Y82.414 E.03314
G1 X102.692 Y82.286 E.03289
G1 X103.434 Y82.24 E.03227
G1 X104.143 Y82.27 E.03079
G1 X104.269 Y82.259 E.00551
G1 X104.496 Y82.192 E.01026
G1 X104.902 Y81.986 E.01977
G1 X105.595 Y81.713 E.03234
G1 X106.325 Y81.513 E.03284
G1 X107.064 Y81.394 E.0325
G1 X107.867 Y81.355 E.03491
G1 X108.593 Y81.399 E.03156
G1 X109.315 Y81.52 E.03177
G1 X109.819 Y81.653 E.02263
G1 X110.054 Y81.671 E.01023
G1 X110.179 Y81.656 E.00549
G1 X110.804 Y81.495 E.02799
G1 X111.527 Y81.387 E.03174
G1 X112.306 Y81.355 E.03387
G1 X112.739 Y81.375 E.01879
G1 X113.492 Y81.475 E.03298
G1 X114.229 Y81.656 E.03295
G1 X114.93 Y81.911 E.03236
G1 X115.521 Y82.199 E.02856
G1 X115.641 Y82.239 E.00548
G1 X115.875 Y82.269 E.01022
G1 X116.382 Y82.24 E.02205
G1 X117.125 Y82.267 E.03227
G1 X117.873 Y82.375 E.0328
G1 X118.598 Y82.561 E.03252
G1 X119.314 Y82.83 E.0332
G1 X119.989 Y83.172 E.03284
G1 X120.613 Y83.578 E.03229
G1 X120.98 Y83.869 E.02034
G1 X121.189 Y83.98 E.01027
G1 X121.311 Y84.016 E.00551
G1 X121.998 Y84.126 E.03024
G1 X122.703 Y84.315 E.03165
G1 X123.422 Y84.593 E.03347
G1 X123.688 Y84.72 E.01281
G1 X124.358 Y85.108 E.03359
G1 X124.97 Y85.557 E.03294
G1 X125.518 Y86.058 E.03226
G1 X126.024 Y86.632 E.03321
G1 X126.119 Y86.716 E.0055
G1 X126.324 Y86.834 E.01024
G1 X126.701 Y86.967 E.01738
G1 X127.379 Y87.275 E.03234
G1 X128.029 Y87.661 E.03281
G1 X128.629 Y88.111 E.03255
G1 X129.188 Y88.633 E.03318
G1 X129.681 Y89.206 E.03282
G1 X130.101 Y89.818 E.03222
G1 X130.381 Y90.323 E.02507
G1 X130.531 Y90.506 E.01026
G1 X130.629 Y90.586 E.00551
G1 X131.134 Y90.898 E.02579
G1 X131.467 Y91.142 E.0179
G1 X132.048 Y91.648 E.03341
G1 X132.253 Y91.856 E.01272
G1 X132.752 Y92.448 E.03358
G1 X133.184 Y93.094 E.03376
G1 X133.535 Y93.767 E.03294
G1 X133.697 Y94.158 E.01835
G1 X133.915 Y94.833 E.03082
G1 X133.969 Y94.947 E.00545
G1 X134.108 Y95.135 E.01015
G1 X134.438 Y95.444 E.01964
G1 X134.926 Y95.986 E.03166
G1 X135.369 Y96.597 E.03274
G1 X135.753 Y97.274 E.03379
G1 X136.059 Y97.984 E.03358
G1 X136.153 Y98.261 E.0127
G1 X136.343 Y98.993 E.03284
G1 X136.494 Y100.073 E.04731
G1 X136.589 Y100.284 E.01003
G1 X136.951 Y100.807 E.02761
G1 X137.31 Y101.458 E.03227
G1 X137.603 Y102.156 E.03287
G1 X137.82 Y102.889 E.0332
G1 X137.953 Y103.627 E.03253
G1 X138.006 Y104.379 E.03274
G1 X137.941 Y105.611 E.05353
G1 X137.997 Y105.853 E.0108
G1 X138.294 Y106.573 E.03381
G1 X138.5 Y107.298 E.03274
G1 X138.628 Y108.046 E.03292
G1 X138.656 Y108.34 E.01283
G1 X138.668 Y109.134 E.03447
G1 X138.636 Y109.564 E.01871
G1 X138.517 Y110.313 E.03291
G1 X138.238 Y111.329 E.04574
G1 X138.245 Y111.565 E.01028
G1 X138.355 Y112.081 E.0229
G1 X138.438 Y112.821 E.03233
G1 X138.442 Y113.579 E.03291
G1 X138.362 Y114.346 E.03346
G1 X138.279 Y114.771 E.0188
G1 X138.068 Y115.511 E.03341
G1 X137.793 Y116.19 E.03177
G1 X137.383 Y116.984 E.03879
G1 X137.342 Y117.204 E.00972
G1 X137.335 Y117.918 E.03102
G1 X137.25 Y118.66 E.0324
G1 X137.081 Y119.401 E.03301
G1 X136.834 Y120.12 E.03298
G1 X136.653 Y120.526 E.01929
G1 X136.281 Y121.197 E.0333
G1 X135.861 Y121.794 E.0317
G1 X135.478 Y122.237 E.02542
G1 X135.408 Y122.343 E.00551
G1 X135.32 Y122.562 E.01026
G1 X135.203 Y123.13 E.02516
G1 X134.985 Y123.84 E.03226
G1 X134.686 Y124.535 E.03284
G1 X134.317 Y125.188 E.03256
G1 X133.871 Y125.809 E.03317
G1 X133.366 Y126.371 E.03278
G1 X132.814 Y126.866 E.03222
G1 X132.497 Y127.101 E.0171
G1 X132.335 Y127.276 E.01034
G1 X132.269 Y127.385 E.00555
G1 X131.956 Y128.089 E.03347
G1 X131.59 Y128.72 E.03165
G1 X131.142 Y129.333 E.03295
G1 X130.616 Y129.906 E.03378
G1 X130.393 Y130.115 E.01326
G1 X129.79 Y130.595 E.03346
G1 X129.177 Y130.984 E.03148
G1 X128.565 Y131.283 E.02959
G1 X128.457 Y131.355 E.00561
G1 X128.288 Y131.526 E.01045
G1 X128.017 Y131.925 E.02092
G1 X127.543 Y132.498 E.03231
G1 X127.001 Y133.027 E.03286
G1 X126.399 Y133.498 E.0332
G1 X125.761 Y133.892 E.03254
G1 X125.08 Y134.219 E.03279
G1 X124.514 Y134.419 E.02606
G1 X123.891 Y134.582 E.02796
G1 X123.775 Y134.628 E.00541
G1 X123.581 Y134.755 E.01007
G1 X123.093 Y135.215 E.02912
G1 X122.501 Y135.668 E.03238
G1 X121.851 Y136.062 E.03297
G1 X121.162 Y136.383 E.03298
G1 X120.742 Y136.536 E.01941
G1 X120.111 Y136.712 E.02843
G1 X119.3 Y136.839 E.03564
G1 X118.63 Y136.881 E.02916
G1 X118.508 Y136.905 E.00537
G1 X118.295 Y136.991 E.01
G1 X117.853 Y137.269 E.02265
G1 X117.19 Y137.605 E.03227
G1 X116.483 Y137.872 E.0328
G1 X115.741 Y138.064 E.03329
G1 X115.097 Y138.163 E.02828
G1 X114.242 Y138.193 E.03711
G1 X113.639 Y138.161 E.02621
G1 X113.048 Y138.069 E.02599
G1 X112.816 Y138.074 E.01005
G1 X112.695 Y138.102 E.0054
G1 X112.026 Y138.343 E.03088
G1 X111.318 Y138.518 E.03165
G1 X110.563 Y138.621 E.0331
G1 X109.895 Y138.644 E.02899
G1 X108.714 Y138.526 E.05152
G1 X108.127 Y138.388 E.02618
G1 X107.196 Y138.075 E.04262
G1 X106.948 Y138.069 E.01078
G1 X106.535 Y138.139 E.0182
G1 X105.792 Y138.197 E.03232
G1 X105.036 Y138.174 E.03284
G1 X104.405 Y138.086 E.02764
G1 X103.56 Y137.887 E.03772
G1 X102.975 Y137.675 E.02697
G1 X102.311 Y137.36 E.03192
G1 X101.692 Y136.982 E.03149
G1 X101.579 Y136.931 E.00537
G1 X101.354 Y136.879 E.01001
G1 X100.757 Y136.85 E.02597
G1 X100.005 Y136.736 E.03302
G1 X99.406 Y136.577 E.0269
G1 X98.591 Y136.279 E.03765
G1 X98.021 Y135.991 E.02772
G1 X97.4 Y135.598 E.03189
G1 X96.818 Y135.137 E.03225
G1 X96.433 Y134.768 E.02314
G1 X96.242 Y134.641 E.00996
G1 X96.128 Y134.594 E.00535
G1 X95.364 Y134.385 E.0344
G1 X94.791 Y134.158 E.02673
G1 X94.014 Y133.765 E.03781
G1 X93.492 Y133.42 E.02716
