; HEADER_BLOCK_START
; generated by AnycubicSlicerNext 1.3.3.1 on 2025-03-06 at 02:37:04
; total layer number: 25
; filament_density: 1.24
; filament_diameter: 1.75
; max_z_height: 5.04
; exclude_object: 0
; model_instances: 1
; HEADER_BLOCK_END

; THUMBNAIL_BLOCK_START
; THUMBNAIL_BLOCK_END

; external perimeters extrusion width = 0.42mm
; perimeters extrusion width = 0.45mm
; infill extrusion width = 0.45mm
; solid infill extrusion width = 0.42mm
; top infill extrusion width = 0.42mm
; support material extrusion width = 0.40mm
; first layer extrusion width = 0.50mm

; EXECUTABLE_BLOCK_START
M201 X2000 Y2000 Z800 E2000
M203 X300 Y300 Z8 E100
M204 P2000 R2000 T2000
M205 X10.00 Y10.00 Z2.00 E5.00 ; sets the jerk limits, mm/sec
;TYPE:Custom
G90 ; use absolute coordinates
M83 ; extruder relative mode
M104 S220 ; set extruder temp
M140 S60 ; set bed temp
M190 S60 ; wait for bed temp
M109 S220 ; wait for extruder temp
G28                                        ; move X/Y/Z to min endstops
G1 Z0.28                                   ; lift nozzle a bit 
G92 E0 
G1 Y3 F1800                                    ; zero the extruded length 
G1 X60  E25 F500                       ; Extrude 25mm of filament in a 5cm line. 
G92 E0                                     ; zero the extruded length again 
G1 E-2 F500                                ; Retract a little 
G1 X70 F4000                              ; Quickly wipe away from the filament line
M117
G90
G21
M83 ; use relative distances for extrusion
; filament start gcode
M106 S0
;LAYER_CHANGE
;Z:0.24
;HEIGHT:0.24
; BEFORE_LAYER_CHANGE 0 @ 0.24mm
G92 E0
G1 E-2.5 F6000
; AFTER_LAYER_CHANGE 0 @ 0.24mm
M204 P500
; printing object "Cyclo3AxisSpacer.stl" id:0 copy 0
M204 T500
G1 X98.439 Y98.353 F18000
G1 Z.24
G1 E2.5 F6000
;TYPE:Brim
;WIDTH:0.5
;MM3_PER_MM:0.107639
G1 F3000
G1 X99.037 Y97.788 E.0357
G1 X99.719 Y97.209 E.03886
G1 X100.371 Y96.711 E.0356
G1 X101.048 Y96.246 E.03563
G1 X101.65 Y95.873 E.03075
G1 X102.399 Y95.456 E.03724
G1 X103.202 Y95.064 E.03879
G1 X103.854 Y94.784 E.03079
G1 X104.623 Y94.496 E.03565
G1 X105.404 Y94.246 E.03559
G1 X106.198 Y94.036 E.03563
G1 X107 Y93.866 E.03561
G1 X107.81 Y93.737 E.03561
G1 X108.663 Y93.644 E.03723
G1 X109.445 Y93.599 E.034
G1 X110.149 Y93.591 E.03057
G1 X110.923 Y93.615 E.03361
G1 X111.776 Y93.686 E.03716
G1 X112.554 Y93.79 E.03407
G1 X113.362 Y93.938 E.03562
G1 X114.052 Y94.098 E.03075
G1 X114.877 Y94.331 E.03726
G1 X115.619 Y94.582 E.03398
G1 X116.417 Y94.896 E.03724
G1 X117.164 Y95.236 E.03561
G1 X117.893 Y95.612 E.0356
G1 X118.666 Y96.064 E.03887
G1 X119.259 Y96.451 E.03074
G1 X119.954 Y96.954 E.03726
G1 X120.565 Y97.443 E.03398
G1 X121.207 Y98.013 E.03724
G1 X121.792 Y98.587 E.0356
G1 X122.347 Y99.19 E.03554
G1 X122.871 Y99.82 E.03562
G1 X123.343 Y100.447 E.03405
G1 X123.823 Y101.156 E.03717
G1 X124.285 Y101.923 E.03886
G1 X124.618 Y102.544 E.03058
G1 X124.922 Y103.173 E.03031
G1 X125.246 Y103.929 E.03571
G1 X125.518 Y104.664 E.03402
G1 X125.775 Y105.48 E.03714
G1 X125.974 Y106.24 E.03408
G1 X126.148 Y107.078 E.03716
G1 X126.259 Y107.778 E.03077
G1 X126.35 Y108.593 E.03563
G1 X126.4 Y109.412 E.03561
G1 X126.409 Y110.197 E.03405
G1 X126.378 Y111.017 E.03562
G1 X126.307 Y111.835 E.03564
G1 X126.222 Y112.478 E.02819
G1 X126.078 Y113.287 E.03563
G1 X125.893 Y114.086 E.03562
G1 X125.669 Y114.875 E.03561
G1 X125.404 Y115.658 E.0359
G1 X125.102 Y116.421 E.03561
G1 X124.762 Y117.168 E.03563
G1 X124.44 Y117.795 E.03057
G1 X124.03 Y118.512 E.03588
G1 X123.657 Y119.098 E.03014
G1 X123.11 Y119.87 E.04108
G1 X122.681 Y120.416 E.03014
G1 X122.059 Y121.129 E.04106
G1 X121.488 Y121.718 E.03561
G1 X120.86 Y122.303 E.03726
G1 X120.261 Y122.806 E.03396
G1 X119.607 Y123.304 E.03564
G1 X118.931 Y123.767 E.03561
G1 X118.231 Y124.196 E.03561
G1 X117.512 Y124.59 E.03561
G1 X116.773 Y124.947 E.03561
G1 X116.131 Y125.222 E.03033
G1 X115.401 Y125.496 E.03387
G1 X114.619 Y125.747 E.03561
G1 X113.828 Y125.958 E.03554
G1 X113.026 Y126.129 E.03562
G1 X112.326 Y126.245 E.0308
G1 X111.473 Y126.344 E.03728
G1 X110.654 Y126.397 E.0356
G1 X109.759 Y126.409 E.03886
G1 X108.94 Y126.376 E.03559
G1 X108.087 Y126.298 E.03716
G1 X107.31 Y126.189 E.03407
G1 X106.505 Y126.034 E.03561
G1 X105.709 Y125.84 E.03554
G1 X104.921 Y125.605 E.0357
G1 X104.253 Y125.371 E.03074
G1 X103.457 Y125.05 E.03724
G1 X102.646 Y124.671 E.03885
G1 X101.922 Y124.285 E.0356
G1 X101.218 Y123.863 E.03563
G1 X100.628 Y123.471 E.03076
G1 X100.063 Y123.06 E.03032
G1 X99.454 Y122.573 E.03386
G1 X98.812 Y122.006 E.03717
G1 X98.303 Y121.511 E.03083
G1 X97.742 Y120.911 E.03563
G1 X97.236 Y120.314 E.03396
G1 X96.714 Y119.633 E.03727
G1 X96.249 Y118.957 E.0356
G1 X95.838 Y118.291 E.03397
G1 X95.424 Y117.54 E.03725
G1 X95.035 Y116.735 E.03879
G1 X94.76 Y116.086 E.03059
G1 X94.527 Y115.467 E.02872
G1 X94.273 Y114.687 E.03563
G1 X94.05 Y113.859 E.03723
G1 X93.876 Y113.055 E.0357
G1 X93.759 Y112.356 E.03075
G1 X93.655 Y111.467 E.03887
G1 X93.601 Y110.613 E.03716
G1 X93.59 Y109.903 E.03082
G1 X93.619 Y109.008 E.03887
G1 X93.689 Y108.192 E.03554
G1 X93.783 Y107.489 E.0308
G1 X93.936 Y106.644 E.03728
G1 X94.124 Y105.846 E.0356
G1 X94.351 Y105.059 E.03553
G1 X94.644 Y104.213 E.03887
G1 X94.906 Y103.559 E.03058
G1 X95.194 Y102.923 E.03031
G1 X95.567 Y102.19 E.03571
G1 X95.956 Y101.51 E.03402
G1 X96.418 Y100.789 E.03716
G1 X96.828 Y100.211 E.03076
G1 X97.383 Y99.506 E.03894
G1 X97.947 Y98.863 E.03714
G1 X98.411 Y98.382 E.02903
G1 X98.734 Y98.693 F18000
G1 F3000
G1 X98.757 Y98.669 E.00142
G1 X99.339 Y98.12 E.03474
G1 X99.998 Y97.56 E.03753
G1 X100.632 Y97.076 E.03461
G1 X101.29 Y96.624 E.03469
G1 X101.88 Y96.258 E.0301
G1 X102.61 Y95.852 E.03628
G1 X103.386 Y95.473 E.03748
G1 X104.018 Y95.202 E.02987
G1 X104.767 Y94.921 E.0347
G1 X105.527 Y94.678 E.03462
G1 X106.299 Y94.474 E.03466
G1 X107.079 Y94.308 E.03464
G1 X107.874 Y94.181 E.03493
G1 X108.697 Y94.091 E.03595
G1 X109.458 Y94.048 E.03309
G1 X110.148 Y94.039 E.02996
G1 X110.901 Y94.064 E.0327
G1 X111.731 Y94.133 E.03618
G1 X112.488 Y94.233 E.03311
G1 X113.273 Y94.377 E.03468
G1 X113.943 Y94.533 E.02983
G1 X114.748 Y94.761 E.03632
G1 X115.468 Y95.004 E.033
G1 X116.245 Y95.311 E.03627
G1 X116.971 Y95.641 E.03461
G1 X117.673 Y96.004 E.0343
G1 X118.427 Y96.444 E.03789
G1 X119.007 Y96.823 E.03008
G1 X119.68 Y97.309 E.03602
G1 X120.273 Y97.784 E.03301
G1 X120.898 Y98.338 E.03626
G1 X121.467 Y98.897 E.03462
G1 X122.007 Y99.483 E.03456
G1 X122.522 Y100.101 E.03494
G1 X122.98 Y100.711 E.03308
G1 X123.443 Y101.395 E.03587
G1 X123.893 Y102.142 E.03787
G1 X124.217 Y102.745 E.02971
G1 X124.515 Y103.361 E.02971
G1 X124.83 Y104.098 E.03479
G1 X125.095 Y104.812 E.03306
G1 X125.345 Y105.607 E.03616
G1 X125.538 Y106.345 E.03311
G1 X125.706 Y107.155 E.03592
G1 X125.815 Y107.841 E.03013
G1 X125.903 Y108.635 E.03469
G1 X125.951 Y109.425 E.03436
G1 X125.96 Y110.188 E.0331
G1 X125.931 Y110.985 E.03466
G1 X125.861 Y111.783 E.03474
G1 X125.778 Y112.413 E.02758
G1 X125.637 Y113.2 E.03472
G1 X125.458 Y113.978 E.03464
G1 X125.24 Y114.745 E.03463
G1 X124.982 Y115.507 E.03492
G1 X124.688 Y116.249 E.03463
G1 X124.359 Y116.97 E.0344
G1 X124.048 Y117.578 E.02967
G1 X123.647 Y118.277 E.03497
G1 X123.283 Y118.851 E.02948
G1 X122.752 Y119.599 E.03982
G1 X122.333 Y120.132 E.02946
G1 X121.731 Y120.823 E.03975
G1 X121.172 Y121.4 E.03489
G1 X120.565 Y121.965 E.03598
G1 X119.983 Y122.454 E.033
G1 X119.347 Y122.938 E.03468
G1 X118.689 Y123.389 E.03464
G1 X118.009 Y123.806 E.03464
G1 X117.309 Y124.189 E.03464
G1 X116.59 Y124.537 E.03468
G1 X115.961 Y124.807 E.02971
G1 X115.25 Y125.074 E.03297
G1 X114.49 Y125.317 E.03465
G1 X113.72 Y125.522 E.03457
G1 X112.939 Y125.689 E.03467
G1 X112.26 Y125.801 E.02988
G1 X111.429 Y125.898 E.03633
G1 X110.633 Y125.949 E.03459
G1 X109.769 Y125.96 E.03754
G1 X108.966 Y125.928 E.03488
G1 X108.142 Y125.853 E.03589
G1 X107.381 Y125.745 E.0334
G1 X106.603 Y125.596 E.03436
G1 X105.83 Y125.407 E.03457
G1 X105.062 Y125.179 E.03477
G1 X104.408 Y124.95 E.0301
G1 X103.639 Y124.64 E.03597
G1 X102.85 Y124.271 E.03782
G1 X102.146 Y123.896 E.03461
G1 X101.46 Y123.486 E.03469
G1 X100.887 Y123.104 E.02991
G1 X100.333 Y122.701 E.02973
G1 X99.74 Y122.228 E.03295
G1 X99.12 Y121.679 E.03594
G1 X98.621 Y121.194 E.03019
G1 X98.079 Y120.615 E.03441
G1 X97.584 Y120.03 E.03329
G1 X97.079 Y119.372 E.03599
G1 X96.627 Y118.715 E.03463
G1 X96.224 Y118.062 E.0333
G1 X95.824 Y117.337 E.03595
G1 X95.445 Y116.553 E.0378
G1 X95.178 Y115.922 E.02974
G1 X94.949 Y115.316 E.02813
G1 X94.702 Y114.556 E.0347
G1 X94.487 Y113.756 E.03593
G1 X94.317 Y112.967 E.03504
G1 X94.203 Y112.29 E.02983
G1 X94.102 Y111.43 E.03756
G1 X94.05 Y110.598 E.0362
G1 X94.038 Y109.903 E.03016
G1 X94.067 Y109.038 E.03758
G1 X94.135 Y108.244 E.03459
G1 X94.227 Y107.555 E.03016
G1 X94.375 Y106.739 E.03603
G1 X94.557 Y105.962 E.03462
G1 X94.777 Y105.198 E.03453
G1 X95.063 Y104.373 E.03789
G1 X95.318 Y103.738 E.02971
G1 X95.6 Y103.114 E.02971
G1 X95.964 Y102.4 E.03479
G1 X96.342 Y101.739 E.03306
G1 X96.792 Y101.038 E.03619
G1 X97.19 Y100.477 E.02983
G1 X97.726 Y99.796 E.03763
G1 X98.275 Y99.169 E.03618
G1 X98.707 Y98.722 E.02698
G1 X99.03 Y99.033 F18000
G1 F3000
G1 X99.075 Y98.986 E.00283
G1 X99.641 Y98.452 E.03379
G1 X100.277 Y97.912 E.03621
G1 X100.893 Y97.442 E.03363
G1 X101.533 Y97.001 E.03375
G1 X102.11 Y96.643 E.02946
G1 X102.821 Y96.248 E.03532
G1 X103.57 Y95.882 E.03619
G1 X104.183 Y95.619 E.02895
G1 X104.911 Y95.346 E.03376
G1 X105.649 Y95.11 E.03364
G1 X106.399 Y94.911 E.03369
G1 X107.158 Y94.75 E.03366
G1 X107.937 Y94.625 E.03424
G1 X108.731 Y94.539 E.03467
G1 X109.471 Y94.496 E.03217
G1 X110.146 Y94.488 E.02934
G1 X110.878 Y94.512 E.03179
G1 X111.687 Y94.579 E.03521
G1 X112.421 Y94.677 E.03216
G1 X113.185 Y94.817 E.03373
G1 X113.834 Y94.969 E.02892
G1 X114.618 Y95.19 E.03538
G1 X115.317 Y95.427 E.03202
G1 X116.073 Y95.725 E.0353
G1 X116.772 Y96.043 E.03333
G1 X117.454 Y96.395 E.0333
G1 X118.188 Y96.824 E.03691
G1 X118.756 Y97.195 E.02942
G1 X119.405 Y97.664 E.03478
G1 X119.987 Y98.129 E.03233
G1 X120.59 Y98.664 E.03498
G1 X121.143 Y99.207 E.03364
G1 X121.671 Y99.781 E.03388
G1 X122.168 Y100.377 E.03368
G1 X122.616 Y100.974 E.03241
G1 X123.063 Y101.633 E.03458
G1 X123.502 Y102.361 E.03689
G1 X123.816 Y102.946 E.02884
G1 X124.108 Y103.55 E.0291
G1 X124.415 Y104.268 E.03387
G1 X124.672 Y104.961 E.0321
G1 X124.915 Y105.734 E.03519
G1 X125.101 Y106.451 E.03215
G1 X125.264 Y107.233 E.03469
G1 X125.371 Y107.904 E.02949
G1 X125.456 Y108.677 E.03375
G1 X125.503 Y109.438 E.0331
G1 X125.512 Y110.179 E.03215
G1 X125.483 Y110.954 E.03369
G1 X125.416 Y111.731 E.03383
G1 X125.334 Y112.347 E.02697
G1 X125.197 Y113.113 E.0338
G1 X125.023 Y113.869 E.03367
G1 X124.81 Y114.615 E.03366
G1 X124.559 Y115.355 E.03394
G1 X124.273 Y116.076 E.03366
G1 X123.957 Y116.772 E.03318
G1 X123.655 Y117.362 E.02877
G1 X123.265 Y118.043 E.03407
G1 X122.908 Y118.603 E.02883
G1 X122.395 Y119.328 E.03855
G1 X121.985 Y119.849 E.02878
G1 X121.403 Y120.517 E.03844
G1 X120.855 Y121.082 E.03418
G1 X120.27 Y121.626 E.03469
G1 X119.705 Y122.102 E.03204
G1 X119.087 Y122.572 E.03372
G1 X118.448 Y123.011 E.03366
G1 X117.787 Y123.417 E.03367
G1 X117.107 Y123.789 E.03366
G1 X116.407 Y124.128 E.03375
G1 X115.791 Y124.391 E.02908
G1 X115.099 Y124.651 E.03206
G1 X114.36 Y124.888 E.03368
G1 X113.612 Y125.087 E.0336
G1 X112.853 Y125.249 E.03372
G1 X112.194 Y125.357 E.02896
G1 X111.385 Y125.451 E.03538
G1 X110.613 Y125.501 E.03358
G1 X109.778 Y125.511 E.03621
G1 X108.992 Y125.48 E.03418
G1 X108.198 Y125.408 E.03461
G1 X107.451 Y125.302 E.03272
G1 X106.702 Y125.159 E.0331
G1 X105.95 Y124.975 E.03359
G1 X105.203 Y124.753 E.03383
G1 X104.563 Y124.529 E.02946
G1 X103.822 Y124.23 E.03469
G1 X103.054 Y123.871 E.0368
G1 X102.37 Y123.507 E.03363
G1 X101.703 Y123.108 E.03375
G1 X101.145 Y122.738 E.02904
G1 X100.603 Y122.343 E.02913
G1 X100.026 Y121.882 E.03204
G1 X99.427 Y121.352 E.03471
G1 X98.939 Y120.878 E.02954
G1 X98.417 Y120.319 E.03319
G1 X97.931 Y119.746 E.03262
G1 X97.444 Y119.111 E.03472
G1 X97.005 Y118.473 E.03365
G1 X96.61 Y117.833 E.03263
G1 X96.225 Y117.134 E.03465
G1 X95.855 Y116.371 E.03681
G1 X95.595 Y115.758 E.02888
G1 X95.372 Y115.165 E.02754
G1 X95.131 Y114.425 E.03377
G1 X94.924 Y113.654 E.03464
G1 X94.757 Y112.88 E.03438
G1 X94.647 Y112.223 E.0289
G1 X94.55 Y111.394 E.03626
G1 X94.498 Y110.583 E.03524
G1 X94.487 Y109.904 E.0295
G1 X94.515 Y109.068 E.0363
G1 X94.581 Y108.296 E.03364
G1 X94.67 Y107.622 E.02952
G1 X94.813 Y106.834 E.03479
G1 X94.99 Y106.079 E.03364
G1 X95.204 Y105.337 E.03353
G1 X95.482 Y104.533 E.03691
G1 X95.729 Y103.917 E.02884
G1 X96.006 Y103.306 E.0291
G1 X96.36 Y102.611 E.03387
G1 X96.727 Y101.969 E.0321
G1 X97.166 Y101.286 E.03523
G1 X97.551 Y100.743 E.0289
G1 X98.069 Y100.085 E.03633
G1 X98.604 Y99.475 E.03522
G1 X99.002 Y99.062 E.02492
G1 X99.325 Y99.373 F18000
G1 F3000
G1 X99.393 Y99.303 E.00424
G1 X99.943 Y98.784 E.03283
G1 X100.556 Y98.264 E.0349
G1 X101.153 Y97.807 E.03264
G1 X101.776 Y97.378 E.03281
G1 X102.34 Y97.029 E.02881
G1 X103.032 Y96.644 E.03436
G1 X103.754 Y96.291 E.03489
G1 X104.347 Y96.037 E.02803
G1 X105.055 Y95.771 E.03281
G1 X105.772 Y95.541 E.03267
G1 X106.5 Y95.348 E.03271
G1 X107.237 Y95.192 E.03268
G1 X107.993 Y95.07 E.03325
G1 X108.764 Y94.986 E.03368
G1 X109.483 Y94.945 E.03125
G1 X110.145 Y94.937 E.02872
G1 X110.856 Y94.96 E.03087
G1 X111.642 Y95.026 E.03423
G1 X112.354 Y95.121 E.0312
G1 X113.097 Y95.257 E.03279
G1 X113.725 Y95.404 E.028
G1 X114.488 Y95.62 E.03444
G1 X115.166 Y95.849 E.03104
G1 X115.901 Y96.14 E.03433
G1 X116.573 Y96.446 E.03206
G1 X117.235 Y96.787 E.03231
G1 X117.949 Y97.204 E.03592
G1 X118.504 Y97.566 E.02877
G1 X119.131 Y98.019 E.03355
G1 X119.7 Y98.475 E.03165
G1 X120.281 Y98.99 E.03371
G1 X120.818 Y99.517 E.03265
G1 X121.332 Y100.074 E.0329
G1 X121.814 Y100.653 E.03271
G1 X122.253 Y101.238 E.03174
G1 X122.683 Y101.872 E.03328
G1 X123.11 Y102.58 E.0359
G1 X123.415 Y103.148 E.02796
G1 X123.701 Y103.739 E.02849
G1 X123.999 Y104.437 E.03295
G1 X124.248 Y105.109 E.03114
G1 X124.484 Y105.861 E.03421
G1 X124.665 Y106.556 E.03118
G1 X124.822 Y107.311 E.03346
G1 X124.926 Y107.967 E.02884
G1 X125.01 Y108.719 E.03281
G1 X125.054 Y109.451 E.03186
G1 X125.063 Y110.17 E.0312
G1 X125.035 Y110.923 E.03273
G1 X124.97 Y111.679 E.03292
G1 X124.891 Y112.281 E.02635
G1 X124.757 Y113.027 E.03288
G1 X124.587 Y113.76 E.0327
G1 X124.381 Y114.485 E.03268
G1 X124.139 Y115.197 E.03267
G1 X123.859 Y115.903 E.03298
G1 X123.554 Y116.574 E.03197
G1 X123.262 Y117.145 E.02786
G1 X122.882 Y117.808 E.03316
G1 X122.534 Y118.356 E.02816
G1 X122.037 Y119.057 E.03729
G1 X121.637 Y119.565 E.0281
G1 X121.075 Y120.21 E.03712
G1 X120.539 Y120.764 E.03347
G1 X119.975 Y121.288 E.03341
G1 X119.427 Y121.749 E.03108
G1 X118.827 Y122.207 E.03276
G1 X118.206 Y122.632 E.03269
G1 X117.565 Y123.027 E.03269
G1 X116.904 Y123.389 E.03269
G1 X116.224 Y123.718 E.03282
G1 X115.621 Y123.976 E.02846
G1 X114.949 Y124.228 E.03116
G1 X114.231 Y124.458 E.03272
G1 X113.505 Y124.651 E.03262
G1 X112.766 Y124.808 E.03277
G1 X112.129 Y124.913 E.02805
G1 X111.341 Y125.005 E.03444
G1 X110.592 Y125.053 E.03257
G1 X109.788 Y125.063 E.0349
G1 X109.024 Y125.033 E.03317
G1 X108.253 Y124.962 E.03364
G1 X107.528 Y124.86 E.03176
G1 X106.801 Y124.721 E.03214
G1 X106.071 Y124.543 E.03262
G1 X105.345 Y124.327 E.03289
G1 X104.718 Y124.108 E.02882
G1 X104.004 Y123.82 E.03342
G1 X103.257 Y123.471 E.03577
G1 X102.593 Y123.118 E.03264
G1 X101.945 Y122.73 E.03282
G1 X101.404 Y122.371 E.02818
G1 X100.872 Y121.984 E.02853
