; HEADER_BLOCK_START
; generated by AnycubicSlicerNext 1.3.3.1 on 2025-03-06 at 10:40:01
; total layer number: 117
; filament_density: 1.24
; filament_diameter: 1.75
; max_z_height: 23.44
; exclude_object: 0
; model_instances: 1
; HEADER_BLOCK_END

; THUMBNAIL_BLOCK_START
; THUMBNAIL_BLOCK_END

; external perimeters extrusion width = 0.42mm
; perimeters extrusion width = 0.45mm
; infill extrusion width = 0.45mm
; solid infill extrusion width = 0.42mm
; top infill extrusion width = 0.42mm
; first layer extrusion width = 0.50mm

; EXECUTABLE_BLOCK_START
M201 X2000 Y2000 Z800 E2000
M203 X300 Y300 Z8 E100
M204 P2000 R2000 T2000
M205 X10.00 Y10.00 Z2.00 E5.00 ; sets the jerk limits, mm/sec
;TYPE:Custom
G90 ; use absolute coordinates
M83 ; extruder relative mode
M104 S220 ; set extruder temp
M140 S60 ; set bed temp
M190 S60 ; wait for bed temp
M109 S220 ; wait for extruder temp
G28                                        ; move X/Y/Z to min endstops
G1 Z0.28                                   ; lift nozzle a bit 
G92 E0 
G1 Y3 F1800                                    ; zero the extruded length 
G1 X60  E25 F500                       ; Extrude 25mm of filament in a 5cm line. 
G92 E0                                     ; zero the extruded length again 
G1 E-2 F500                                ; Retract a little 
G1 X70 F4000                              ; Quickly wipe away from the filament line
M117
G90
G21
M83 ; use relative distances for extrusion
; filament start gcode
M106 S0
;LAYER_CHANGE
;Z:0.24
;HEIGHT:0.24
; BEFORE_LAYER_CHANGE 0 @ 0.24mm
G92 E0
G1 E-2.5 F6000
; AFTER_LAYER_CHANGE 0 @ 0.24mm
M204 P500
; printing object "Cyclo3Case.stl" id:0 copy 0
M204 T500
G1 X86.317 Y75.262 F18000
G1 Z.24
G1 E2.5 F6000
;TYPE:Brim
;WIDTH:0.5
;MM3_PER_MM:0.107639
G1 F3000
G1 X86.8 Y74.769 E.02996
G1 X87.428 Y74.214 E.03639
G1 X88.144 Y73.68 E.03878
G1 X88.728 Y73.311 E.02996
G1 X89.467 Y72.916 E.03639
G1 X90.287 Y72.562 E.03878
G1 X90.941 Y72.336 E.03004
G1 X91.75 Y72.123 E.03631
G1 X92.629 Y71.968 E.03875
G1 X93.464 Y71.891 E.03639
G1 X94.161 Y71.878 E.03025
G1 X95.047 Y71.93 E.03852
G1 X95.733 Y72.022 E.03004
G1 X96.214 Y72.115 E.0213
G1 X96.747 Y72.246 E.02381
G1 X97.216 Y72.386 E.02125
G1 X97.731 Y72.568 E.02369
G1 X98.37 Y72.838 E.03011
G1 X98.81 Y73.055 E.0213
G1 X99.288 Y73.32 E.02373
G1 X99.705 Y73.58 E.02133
G1 X100.154 Y73.891 E.02369
G1 X100.7 Y74.319 E.03012
G1 X101.068 Y74.644 E.0213
G1 X101.459 Y75.025 E.02374
G1 X101.793 Y75.385 E.02133
G1 X102.145 Y75.804 E.02371
G1 X102.503 Y76.282 E.02594
G1 X102.625 Y76.364 E.00641
G1 X102.725 Y76.367 E.00431
G1 X104.281 Y76.068 E.06878
G1 X105.554 Y75.878 E.05586
G1 X106.322 Y75.787 E.03361
G1 X108.138 Y75.64 E.07906
G1 X109.985 Y75.59 E.08023
G1 X111.805 Y75.637 E.07899
G1 X113.647 Y75.783 E.08025
G1 X115.24 Y75.991 E.06969
G1 X116.507 Y76.21 E.05583
G1 X117.273 Y76.367 E.03394
G1 X117.419 Y76.347 E.00641
G1 X117.497 Y76.282 E.00443
G1 X117.85 Y75.811 E.02552
G1 X118.298 Y75.283 E.03007
G1 X118.78 Y74.788 E.03
G1 X119.183 Y74.419 E.02372
G1 X119.723 Y73.983 E.03012
G1 X120.121 Y73.696 E.02131
G1 X120.705 Y73.324 E.03004
G1 X121.312 Y72.992 E.03004
G1 X121.941 Y72.701 E.03007
G1 X122.449 Y72.501 E.02372
G1 X123.107 Y72.287 E.03004
G1 X123.582 Y72.162 E.02131
G1 X124.26 Y72.023 E.03004
G1 X124.947 Y71.93 E.03007
G1 X125.49 Y71.889 E.02364
G1 X126.182 Y71.879 E.03007
G1 X126.875 Y71.914 E.03009
G1 X127.362 Y71.966 E.02126
G1 X128.045 Y72.08 E.03009
G1 X128.719 Y72.238 E.03003
G1 X129.381 Y72.441 E.03004
G1 X130.027 Y72.688 E.03004
G1 X130.656 Y72.976 E.03004
G1 X131.265 Y73.306 E.03004
G1 X131.85 Y73.676 E.03004
G1 X132.409 Y74.084 E.03004
G1 X132.94 Y74.527 E.03004
G1 X133.44 Y75.006 E.03007
G1 X133.811 Y75.405 E.02364
G1 X134.252 Y75.94 E.03008
G1 X134.655 Y76.502 E.03004
G1 X135.021 Y77.091 E.03009
G1 X135.255 Y77.521 E.02126
G1 X135.552 Y78.148 E.03009
G1 X135.806 Y78.791 E.03004
G1 X136.017 Y79.451 E.03007
G1 X136.151 Y79.979 E.02364
G1 X136.282 Y80.66 E.03012
G1 X136.347 Y81.146 E.02126
G1 X136.401 Y81.838 E.03012
G1 X136.41 Y82.382 E.02364
G1 X136.38 Y83.075 E.03009
G1 X136.332 Y83.563 E.0213
G1 X136.224 Y84.247 E.03004
G1 X136.107 Y84.78 E.02371
G1 X135.919 Y85.446 E.03005
G1 X135.687 Y86.1 E.03009
G1 X135.452 Y86.648 E.02591
G1 X135.442 Y86.796 E.00641
G1 X135.489 Y86.883 E.00432
G1 X136.502 Y88.052 E.06711
G1 X137.304 Y89.058 E.05587
G1 X137.76 Y89.666 E.03298
G1 X138.687 Y90.996 E.07039
G1 X139.377 Y92.082 E.05586
G1 X139.766 Y92.735 E.03298
G1 X140.546 Y94.157 E.07039
G1 X141.117 Y95.31 E.05586
G1 X141.44 Y96.014 E.03362
G1 X142.136 Y97.698 E.07912
G1 X142.504 Y98.704 E.04649
G1 X142.763 Y99.482 E.0356
G1 X142.853 Y99.599 E.00641
G1 X142.947 Y99.633 E.00433
G1 X143.732 Y99.735 E.03437
G1 X144.41 Y99.873 E.03001
G1 X145.079 Y100.056 E.03012
G1 X145.731 Y100.281 E.02997
G1 X146.37 Y100.552 E.03011
G1 X146.987 Y100.862 E.02996
G1 X147.584 Y101.214 E.03012
G1 X148.154 Y101.604 E.02996
G1 X148.699 Y102.031 E.03004
G1 X149.213 Y102.494 E.03004
G1 X149.696 Y102.99 E.03004
G1 X150.145 Y103.517 E.03004
G1 X150.557 Y104.072 E.03001
G1 X150.933 Y104.654 E.03007
G1 X151.268 Y105.259 E.03004
G1 X151.563 Y105.886 E.03008
G1 X151.746 Y106.341 E.02127
G1 X151.968 Y106.998 E.03012
G1 X152.112 Y107.524 E.02369
G1 X152.217 Y108.004 E.02133
G1 X152.308 Y108.544 E.02373
G1 X152.365 Y109.031 E.0213
G1 X152.407 Y109.724 E.03012
G1 X152.407 Y110.268 E.02364
G1 X152.366 Y110.961 E.03012
G1 X152.309 Y111.448 E.0213
G1 X152.219 Y111.987 E.02373
G1 X152.114 Y112.467 E.02133
G1 X151.97 Y112.994 E.02369
G1 X151.749 Y113.651 E.03012
G1 X151.566 Y114.107 E.0213
G1 X151.338 Y114.602 E.02368
G1 X151.011 Y115.213 E.03007
G1 X150.645 Y115.8 E.03004
G1 X150.24 Y116.362 E.03004
G1 X149.8 Y116.895 E.03
G1 X149.323 Y117.399 E.03012
G1 X148.966 Y117.736 E.0213
G1 X148.437 Y118.182 E.03005
G1 X147.879 Y118.591 E.03004
G1 X147.295 Y118.963 E.03004
G1 X146.688 Y119.295 E.03004
G1 X146.059 Y119.586 E.03007
G1 X145.552 Y119.785 E.02364
G1 X144.894 Y120 E.03007
G1 X144.223 Y120.17 E.03004
G1 X143.542 Y120.295 E.03006
G1 X142.949 Y120.367 E.0259
G1 X142.817 Y120.431 E.00641
G1 X142.763 Y120.518 E.00442
G1 X142.505 Y121.293 E.03545
G1 X142.06 Y122.5 E.05585
G1 X141.435 Y123.997 E.07041
G1 X141.119 Y124.687 E.03296
G1 X140.548 Y125.84 E.05585
G1 X139.768 Y127.261 E.07035
G1 X138.89 Y128.693 E.07291
G1 X138.171 Y129.76 E.05583
G1 X137.772 Y130.318 E.0298
G1 X137.306 Y130.939 E.0337
G1 X136.504 Y131.946 E.05587
G1 X135.489 Y133.117 E.06726
G1 X135.434 Y133.254 E.00641
G1 X135.452 Y133.352 E.00432
G1 X135.684 Y133.893 E.02557
G1 X135.871 Y134.405 E.02366
G1 X136.016 Y134.876 E.02137
G1 X136.151 Y135.405 E.02369
G1 X136.282 Y136.086 E.03012
G1 X136.348 Y136.572 E.0213
G1 X136.393 Y137.117 E.02373
G1 X136.41 Y137.608 E.02133
G1 X136.401 Y138.155 E.02373
G1 X136.368 Y138.645 E.02133
G1 X136.305 Y139.187 E.02369
G1 X136.184 Y139.87 E.03009
G1 X136.071 Y140.348 E.02133
G1 X135.919 Y140.872 E.02369
G1 X135.687 Y141.526 E.03012
G1 X135.497 Y141.976 E.02122
G1 X135.096 Y142.776 E.03883
G1 X134.66 Y143.49 E.03635
G1 X134.133 Y144.211 E.03875
G1 X133.584 Y144.844 E.03635
G1 X132.946 Y145.467 E.03875
G1 X132.3 Y146 E.03634
G1 X131.567 Y146.509 E.03875
G1 X130.842 Y146.928 E.03635
G1 X130.034 Y147.31 E.03878
G1 X129.389 Y147.556 E.03
G1 X128.726 Y147.76 E.03008
G1 X127.91 Y147.946 E.03636
G1 X127.227 Y148.05 E.02996
G1 X126.336 Y148.118 E.03878
G1 X125.498 Y148.111 E.03639
G1 X124.808 Y148.055 E.03004
G1 X124.266 Y147.978 E.02377
G1 X123.786 Y147.885 E.02125
G1 X123.256 Y147.755 E.02369
G1 X122.593 Y147.55 E.03012
G1 X122.133 Y147.378 E.0213
G1 X121.631 Y147.162 E.02373
G1 X121.19 Y146.945 E.02134
G1 X120.711 Y146.68 E.02376
G1 X120.127 Y146.308 E.03005
G1 X119.729 Y146.022 E.0213
G1 X119.301 Y145.681 E.02373
G1 X118.932 Y145.356 E.02133
G1 X118.541 Y144.975 E.02374
G1 X118.207 Y144.615 E.02133
G1 X117.855 Y144.196 E.02371
G1 X117.497 Y143.718 E.02593
G1 X117.375 Y143.636 E.00641
G1 X117.276 Y143.633 E.00428
G1 X115.453 Y143.976 E.08053
G1 X113.649 Y144.216 E.07902
G1 X112.878 Y144.29 E.03361
G1 X111.593 Y144.374 E.05591
G1 X109.987 Y144.41 E.0697
G1 X109.213 Y144.401 E.03362
G1 X107.926 Y144.348 E.05591
G1 X106.326 Y144.214 E.06969
G1 X105.557 Y144.122 E.03362
G1 X104.283 Y143.932 E.05591
G1 X102.725 Y143.633 E.06888
G1 X102.579 Y143.654 E.00641
G1 X102.505 Y143.715 E.00416
G1 X101.93 Y144.457 E.04074
G1 X101.324 Y145.111 E.03872
G1 X100.704 Y145.677 E.03643
G1 X100.278 Y146.017 E.02365
G1 X99.881 Y146.303 E.02125
G1 X99.122 Y146.776 E.03883
G1 X98.377 Y147.158 E.03634
G1 X97.55 Y147.499 E.03882
G1 X97.086 Y147.655 E.02125
G1 X96.561 Y147.803 E.02365
G1 X95.738 Y147.977 E.03651
G1 X95.199 Y148.054 E.02365
G1 X94.711 Y148.099 E.02125
G1 X93.817 Y148.121 E.03882
G1 X92.981 Y148.073 E.03635
G1 X92.098 Y147.948 E.03875
G1 X91.279 Y147.761 E.03646
G1 X90.757 Y147.605 E.02362
G1 X90.296 Y147.442 E.02125
G1 X89.475 Y147.088 E.03883
G1 X88.736 Y146.694 E.03635
G1 X87.986 Y146.21 E.03875
G1 X87.322 Y145.699 E.03635
G1 X86.661 Y145.096 E.03883
G1 X86.322 Y144.743 E.02125
G1 X85.965 Y144.332 E.02365
G1 X85.458 Y143.663 E.03643
G1 X84.98 Y142.91 E.03872
G1 X84.59 Y142.166 E.03646
G1 X84.37 Y141.668 E.02365
G1 X84.194 Y141.209 E.02133
G1 X84.025 Y140.69 E.02368
G1 X83.849 Y140.02 E.03008
G1 X83.718 Y139.34 E.03009
G1 X83.652 Y138.853 E.0213
G1 X83.607 Y138.309 E.02373
G1 X83.59 Y137.817 E.02133
G1 X83.599 Y137.271 E.02373
G1 X83.632 Y136.78 E.02133
G1 X83.695 Y136.238 E.02369
G1 X83.816 Y135.555 E.03012
G1 X83.929 Y135.078 E.02127
G1 X84.126 Y134.413 E.03012
G1 X84.313 Y133.901 E.02366
G1 X84.548 Y133.351 E.02595
G1 X84.558 Y133.204 E.00641
G1 X84.509 Y133.114 E.00443
G1 X84.018 Y132.562 E.03208
G1 X83.192 Y131.574 E.0559
G1 X82.307 Y130.426 E.06293
G1 X81.376 Y129.099 E.07036
G1 X80.795 Y128.198 E.04651
G1 X80.213 Y127.228 E.04913
G1 X79.832 Y126.553 E.03366
G1 X79.235 Y125.413 E.05586
G1 X78.519 Y123.894 E.07291
G1 X77.9 Y122.396 E.07033
G1 X77.459 Y121.187 E.05586
G1 X77.237 Y120.518 E.0306
G1 X77.146 Y120.401 E.00641
G1 X77.05 Y120.367 E.00444
G1 X76.467 Y120.297 E.02553
G1 X75.785 Y120.172 E.03006
G1 X75.114 Y120.002 E.03007
G1 X74.455 Y119.788 E.03004
G1 X73.948 Y119.589 E.02364
G1 X73.32 Y119.299 E.03007
G1 X72.711 Y118.966 E.03012
G1 X72.128 Y118.596 E.02996
G1 X71.57 Y118.187 E.03004
G1 X71.039 Y117.741 E.03008
G1 X70.683 Y117.405 E.02126
G1 X70.206 Y116.902 E.03009
G1 X69.765 Y116.369 E.03003
G1 X69.36 Y115.807 E.03004
G1 X68.993 Y115.22 E.03004
G1 X68.666 Y114.61 E.03007
G1 X68.437 Y114.115 E.02368
G1 X68.254 Y113.659 E.0213
G1 X68.032 Y113.002 E.03012
G1 X67.888 Y112.475 E.02369
G1 X67.783 Y111.996 E.0213
G1 X67.673 Y111.311 E.03012
G1 X67.618 Y110.769 E.02364
G1 X67.59 Y110.076 E.03012
G1 X67.598 Y109.586 E.02126
G1 X67.649 Y108.895 E.03008
G1 X67.745 Y108.209 E.03007
G1 X67.853 Y107.674 E.02369
G1 X67.974 Y107.199 E.0213
G1 X68.183 Y106.537 E.03012
G1 X68.377 Y106.028 E.02364
G1 X68.663 Y105.397 E.03008
G1 X68.989 Y104.787 E.03004
G1 X69.355 Y104.2 E.03004
G1 X69.76 Y103.638 E.03004
G1 X70.2 Y103.105 E.03
G1 X70.676 Y102.602 E.03008
G1 X71.034 Y102.264 E.02134
G1 X71.563 Y101.818 E.03005
G1 X72.122 Y101.408 E.03009
G1 X72.705 Y101.037 E.03
G1 X73.313 Y100.705 E.03007
G1 X73.805 Y100.472 E.02364
G1 X74.448 Y100.214 E.03008
G1 X75.106 Y100 E.03004
G1 X75.777 Y99.83 E.03004
G1 X76.458 Y99.705 E.03006
G1 X77.051 Y99.633 E.02592
G1 X77.184 Y99.569 E.00641
G1 X77.236 Y99.485 E.00428
G1 X77.844 Y97.751 E.07978
G1 X78.548 Y96.042 E.08023
G1 X79.33 Y94.398 E.07899
G1 X80.204 Y92.787 E.0796
G1 X81.047 Y91.404 E.07031
G1 X81.763 Y90.334 E.05586
G1 X82.204 Y89.715 E.03298
G1 X83.19 Y88.429 E.07038
G1 X84.016 Y87.441 E.05586
G1 X84.509 Y86.885 E.03227
G1 X84.565 Y86.749 E.00641
G1 X84.548 Y86.648 E.00443
G1 X84.316 Y86.107 E.02556
G1 X84.129 Y85.595 E.02366
G1 X83.984 Y85.124 E.02137
G1 X83.849 Y84.595 E.02369
G1 X83.718 Y83.914 E.03012
G1 X83.652 Y83.428 E.0213
G1 X83.607 Y82.883 E.02373
G1 X83.59 Y82.392 E.02133
G1 X83.599 Y81.845 E.02373
G1 X83.632 Y81.355 E.02133
G1 X83.695 Y80.813 E.02369
G1 X83.816 Y80.13 E.03009
G1 X83.929 Y79.652 E.02133
G1 X84.081 Y79.128 E.02369
G1 X84.313 Y78.474 E.03012
G1 X84.503 Y78.024 E.02122
G1 X84.904 Y77.224 E.03883
G1 X85.341 Y76.509 E.03639
G1 X85.743 Y75.948 E.02996
G1 X86.292 Y75.293 E.03708
G1 X86.635 Y75.581 F18000
G1 F3000
G1 X86.647 Y75.568 E.00076
G1 X87.105 Y75.098 E.02851
G1 X87.715 Y74.559 E.03532
G1 X88.394 Y74.053 E.03676
G1 X88.958 Y73.696 E.02894
G1 X89.667 Y73.318 E.03489
G1 X90.445 Y72.982 E.03676
G1 X91.077 Y72.765 E.02902
G1 X91.841 Y72.563 E.03433
G1 X92.695 Y72.412 E.03761
G1 X93.484 Y72.339 E.0344
G1 X94.157 Y72.327 E.02923
G1 X94.999 Y72.376 E.0366
G1 X95.664 Y72.466 E.02913
G1 X96.125 Y72.555 E.02037
G1 X97.07 Y72.811 E.04253
G1 X97.572 Y72.988 E.0231
G1 X98.18 Y73.245 E.02864
G1 X99.055 Y73.704 E.04289
G1 X99.881 Y74.247 E.04294
G1 X100.418 Y74.669 E.02962
G1 X101.133 Y75.334 E.04241
G1 X101.455 Y75.68 E.02049
G1 X101.795 Y76.085 E.02299
G1 X102.137 Y76.542 E.02474
G1 X102.359 Y76.726 E.01252
G1 X102.625 Y76.812 E.01213
G1 X102.82 Y76.806 E.00846
G1 X104.359 Y76.51 E.06803
G1 X105.611 Y76.323 E.05496
G1 X106.364 Y76.233 E.03293
G1 X108.166 Y76.088 E.07844
G1 X109.982 Y76.038 E.07888
G1 X111.785 Y76.085 E.07827
G1 X113.597 Y76.229 E.07894
G1 X115.175 Y76.435 E.06906
G1 X116.422 Y76.651 E.05492
G1 X117.172 Y76.804 E.03324
G1 X117.46 Y76.794 E.01251
G1 X117.722 Y76.678 E.01245
G1 X117.775 Y76.634 E.00299
G1 X118.2 Y76.092 E.02989
G1 X118.627 Y75.589 E.02867
G1 X119.089 Y75.113 E.02879
G1 X119.473 Y74.762 E.02256
G1 X119.998 Y74.337 E.02933
G1 X120.376 Y74.065 E.0202
G1 X120.937 Y73.708 E.02887
G1 X121.518 Y73.391 E.02874
G1 X122.113 Y73.115 E.02848
G1 X122.605 Y72.922 E.02291
G1 X123.23 Y72.719 E.02857
G1 X123.688 Y72.598 E.02054
G1 X124.339 Y72.465 E.02887
G1 X124.99 Y72.377 E.02848
G1 X125.514 Y72.338 E.02283
G1 X126.179 Y72.327 E.02886
G1 X126.835 Y72.361 E.02853
G1 X127.297 Y72.41 E.02016
G1 X127.962 Y72.521 E.02925
G1 X128.606 Y72.673 E.02874
G1 X129.231 Y72.864 E.02836
G1 X129.85 Y73.1 E.02874
G1 X130.451 Y73.376 E.02874
G1 X131.034 Y73.691 E.02874
G1 X131.601 Y74.05 E.02913
G1 X132.136 Y74.44 E.02874
G1 X132.644 Y74.865 E.02875
G1 X133.118 Y75.318 E.02848
G1 X133.471 Y75.698 E.02248
G1 X133.898 Y76.217 E.02922
G1 X134.284 Y76.756 E.02874
G1 X134.631 Y77.314 E.02853
G1 X134.853 Y77.721 E.02016
G1 X135.138 Y78.322 E.02886
G1 X135.384 Y78.946 E.02913
G1 X135.584 Y79.571 E.02848
G1 X135.714 Y80.081 E.02283
G1 X135.839 Y80.729 E.02865
G1 X135.901 Y81.189 E.02016
G1 X135.952 Y81.855 E.02898
G1 X135.961 Y82.373 E.02248
G1 X135.932 Y83.047 E.0293
G1 X135.886 Y83.51 E.02019
G1 X135.782 Y84.168 E.02891
G1 X135.671 Y84.675 E.02256
G1 X135.49 Y85.314 E.02884
G1 X135.271 Y85.932 E.02846
G1 X135.044 Y86.462 E.025
G1 X134.996 Y86.746 E.01252
G1 X135.055 Y87.019 E.01214
G1 X135.157 Y87.185 E.00847
G1 X136.159 Y88.341 E.06636
G1 X136.948 Y89.331 E.05497
G1 X137.395 Y89.927 E.03234
G1 X138.315 Y91.247 E.06987
G1 X138.994 Y92.315 E.05495
G1 X139.375 Y92.956 E.03234
G1 X140.15 Y94.367 E.06986
G1 X140.711 Y95.501 E.05494
G1 X141.028 Y96.191 E.03293
G1 X141.719 Y97.863 E.07857
G1 X142.079 Y98.85 E.0456
G1 X142.334 Y99.613 E.03492
G1 X142.415 Y99.765 E.00747
G1 X142.487 Y99.858 E.0051
G1 X142.716 Y100.026 E.01234
G1 X142.785 Y100.051 E.00318
G1 X143.663 Y100.179 E.03853
G1 X144.302 Y100.308 E.02827
G1 X144.942 Y100.483 E.02882
G1 X145.566 Y100.699 E.02867
G1 X146.178 Y100.957 E.02882
G1 X146.768 Y101.254 E.02867
