; HEADER_BLOCK_START
; generated by AnycubicSlicerNext 1.3.3.1 on 2025-03-06 at 02:37:33
; total layer number: 70
; filament_density: 1.24
; filament_diameter: 1.75
; max_z_height: 14.04
; exclude_object: 0
; model_instances: 1
; HEADER_BLOCK_END

; THUMBNAIL_BLOCK_START
; THUMBNAIL_BLOCK_END

; external perimeters extrusion width = 0.42mm
; perimeters extrusion width = 0.45mm
; infill extrusion width = 0.45mm
; solid infill extrusion width = 0.42mm
; top infill extrusion width = 0.42mm
; support material extrusion width = 0.40mm
; first layer extrusion width = 0.50mm

; EXECUTABLE_BLOCK_START
M201 X2000 Y2000 Z800 E2000
M203 X300 Y300 Z8 E100
M204 P2000 R2000 T2000
M205 X10.00 Y10.00 Z2.00 E5.00 ; sets the jerk limits, mm/sec
;TYPE:Custom
G90 ; use absolute coordinates
M83 ; extruder relative mode
M104 S220 ; set extruder temp
M140 S60 ; set bed temp
M190 S60 ; wait for bed temp
M109 S220 ; wait for extruder temp
G28                                        ; move X/Y/Z to min endstops
G1 Z0.28                                   ; lift nozzle a bit 
G92 E0 
G1 Y3 F1800                                    ; zero the extruded length 
G1 X60  E25 F500                       ; Extrude 25mm of filament in a 5cm line. 
G92 E0                                     ; zero the extruded length again 
G1 E-2 F500                                ; Retract a little 
G1 X70 F4000                              ; Quickly wipe away from the filament line
M117
G90
G21
M83 ; use relative distances for extrusion
; filament start gcode
M106 S0
;LAYER_CHANGE
;Z:0.24
;HEIGHT:0.24
; BEFORE_LAYER_CHANGE 0 @ 0.24mm
G92 E0
G1 E-2.5 F6000
; AFTER_LAYER_CHANGE 0 @ 0.24mm
M204 P500
; printing object "Cyclo3AxisHub.stl" id:2489048792064 copy 0
M204 T500
G1 X113.988 Y98.625 F18000
G1 Z.24
G1 E2.5 F6000
;TYPE:Support
;WIDTH:0.5
;MM3_PER_MM:0.107639
G1 F3000
G3 X117.693 Y105.615 I-.405 J4.692 E.40773
G3 X117.963 Y112.828 I-2.103 J3.69 E.3744
G2 X109.726 Y100.63 I-8.963 J-2.828 E.73398
G3 X113.92 Y98.622 I3.853 J2.663 E.21122
G1 X119.468 Y110.671 F18000
G1 F3000
G2 X118.97 Y107.385 I-5.039 J-.917 E.14693
G1 X118.97 Y111.242 E.16744
G3 X118.653 Y111.702 I-1.203 J-.489 E.02443
G2 X118.472 Y107.474 I-9.764 J-1.698 E.18515
G1 X118.472 Y106.439 E.04491
G1 X117.475 Y105.489 F18000
G1 F3000
G1 X117.475 Y101.461 E.17484
G2 X116.977 Y100.665 I-2.212 J.83 E.04106
G1 X116.977 Y104.302 E.15791
G2 X116.478 Y103.663 I-11.022 J8.075 E.0352
G1 X116.478 Y100.121 E.15374
G1 X115.98 Y99.726 E.0276
G1 X115.98 Y103.117 E.1472
G2 X115.482 Y102.647 I-11.534 J11.716 E.02975
G1 X115.482 Y99.457 E.13847
G2 X114.983 Y99.243 I-.776 J1.121 E.0237
G1 X114.983 Y102.235 E.12987
G2 X114.485 Y101.876 I-6.753 J8.838 E.02667
G1 X114.485 Y99.105 E.12026
G2 X113.987 Y99.031 I-.465 J1.4 E.02198
G1 X113.987 Y101.561 E.10983
G2 X113.488 Y101.286 I-4.809 J8.133 E.0247
G1 X113.488 Y99.004 E.09906
G2 X112.99 Y99.056 I.54 J7.545 E.02175
G1 X112.99 Y101.047 E.0864
G2 X112.492 Y100.84 I-3.874 J8.655 E.02341
G1 X112.492 Y99.151 E.07333
G2 X111.993 Y99.32 I1.153 J4.22 E.02285
G1 X111.992 Y100.665 E.05838
G2 X111.495 Y100.52 I-3.929 J12.57 E.02249
G1 X111.495 Y99.555 E.0419
G2 X110.997 Y100.609 I.326 J.799 E.05556
G1 E-1.75 F6000
;WIPE_START
G1 F3000
G1 X110.997 Y99.875 E-.55012
G1 X111.221 Y99.731 E-.19988
;WIPE_END
G1 X117.471 Y114.296 F18000
G1 E2.5 F6000
G1 F3000
G3 X111.735 Y118.992 I-4.169 J.758 E.39169
G2 X117.426 Y114.164 I-2.754 J-9.015 E.33309
G1 X117.449 Y114.233 E.00316
G1 X116.977 Y116.892 F18000
G1 F3000
G1 X116.977 Y115.698 E.05187
G2 X116.396 Y117.466 I1.738 J1.55 E.08311
G1 X115.98 Y117.905 E.02626
G1 X115.98 Y116.883 E.04439
G2 X115.482 Y118.297 I.71 J1.045 E.06969
G3 X114.983 Y118.584 I-.902 J-.988 E.02516
G1 X114.983 Y117.765 E.03556
G2 X114.41 Y118.813 I.357 J.876 E.05611
G1 X113.987 Y118.882 E.01861
G1 X113.987 Y118.439 E.01921
G2 X113.488 Y119.14 I.107 J.604 E.04135
G1 E-1.75 F6000
;WIPE_START
G1 F3000
G1 X113.488 Y118.714 E-.31924
G1 X113.987 Y118.439 E-.42677
G1 X113.987 Y118.445 E-.00399
;WIPE_END
G1 X112.747 Y117.529 F18000
G1 E2.5 F6000
;TYPE:Brim
G1 F3000
G1 X111.978 Y117.865 E.03645
G1 X111.18 Y118.122 E.03639
G1 X110.36 Y118.299 E.03639
G1 X109.527 Y118.393 E.03639
G1 X108.689 Y118.404 E.0364
G1 X107.854 Y118.331 E.03639
G1 X107.03 Y118.176 E.03639
G1 X106.226 Y117.939 E.03639
G1 X105.449 Y117.623 E.03639
G1 X104.708 Y117.232 E.03639
G1 X104.009 Y116.769 E.03639
G1 X103.36 Y116.238 E.03639
G1 X102.767 Y115.645 E.03639
G1 X102.236 Y114.997 E.03639
G1 X101.772 Y114.298 E.03639
G1 X101.38 Y113.557 E.03639
G1 X101.063 Y112.781 E.0364
G1 X100.826 Y111.977 E.03639
G1 X100.669 Y111.152 E.03646
G1 X100.607 Y110.537 E.02682
G1 X100.596 Y109.697 E.03645
G1 X100.668 Y108.862 E.03639
G1 X100.822 Y108.038 E.03639
G1 X101.058 Y107.233 E.03639
G1 X101.373 Y106.456 E.0364
G1 X101.764 Y105.715 E.03639
G1 X102.227 Y105.016 E.03639
G1 X102.757 Y104.366 E.03639
G1 X103.349 Y103.772 E.0364
G1 X103.997 Y103.241 E.03639
G1 X104.695 Y102.776 E.03639
G1 X105.435 Y102.383 E.03639
G1 X106.211 Y102.066 E.03639
G1 X107.015 Y101.828 E.03639
G1 X107.839 Y101.671 E.03639
G1 X108.675 Y101.596 E.03645
G1 X109.313 Y101.596 E.02769
G1 X110.146 Y101.669 E.0363
G1 X110.97 Y101.824 E.03639
G1 X111.774 Y102.061 E.03639
G1 X112.551 Y102.377 E.03639
G1 X113.292 Y102.768 E.03639
G1 X113.991 Y103.231 E.03639
G1 X114.64 Y103.762 E.03639
G1 X115.233 Y104.355 E.0364
G1 X115.764 Y105.003 E.03639
G1 X116.228 Y105.702 E.03639
G1 X116.62 Y106.443 E.03639
G1 X116.937 Y107.219 E.03639
G1 X117.174 Y108.023 E.03639
G1 X117.331 Y108.848 E.03645
G1 X117.393 Y109.463 E.02682
G1 X117.404 Y110.303 E.03646
G1 X117.332 Y111.138 E.03639
G1 X117.178 Y111.962 E.03639
G1 X116.942 Y112.767 E.03639
G1 X116.627 Y113.544 E.03639
G1 X116.236 Y114.285 E.03639
G1 X115.773 Y114.984 E.03639
G1 X115.243 Y115.634 E.03639
G1 X114.651 Y116.228 E.03639
G1 X114.003 Y116.76 E.0364
G1 X113.304 Y117.225 E.03645
G1 X112.782 Y117.51 E.0258
G1 X112.567 Y117.115 F18000
G1 F3000
G1 X112.544 Y117.128 E.00114
G1 X111.812 Y117.447 E.03466
G1 X111.057 Y117.69 E.03445
G1 X110.281 Y117.857 E.03445
G1 X109.493 Y117.945 E.03445
G1 X108.699 Y117.955 E.03445
G1 X107.908 Y117.885 E.03445
G1 X107.129 Y117.737 E.03445
G1 X106.368 Y117.513 E.03445
G1 X105.633 Y117.213 E.03445
G1 X104.931 Y116.842 E.03445
G1 X104.27 Y116.403 E.03445
G1 X103.656 Y115.9 E.03445
G1 X103.104 Y115.349 E.03387
G1 X102.601 Y114.735 E.03445
G1 X102.161 Y114.074 E.03445
G1 X101.79 Y113.373 E.03445
G1 X101.49 Y112.639 E.03445
G1 X101.264 Y111.878 E.03445
G1 X101.115 Y111.093 E.03467
G1 X101.055 Y110.505 E.02564
G1 X101.045 Y109.707 E.03467
G1 X101.114 Y108.916 E.03445
G1 X101.261 Y108.136 E.03445
G1 X101.481 Y107.388 E.03386
G1 X101.778 Y106.652 E.03445
G1 X102.147 Y105.949 E.03445
G1 X102.585 Y105.287 E.03445
G1 X103.086 Y104.672 E.03445
G1 X103.646 Y104.11 E.03445
G1 X104.259 Y103.606 E.03444
G1 X104.919 Y103.165 E.03445
G1 X105.62 Y102.793 E.03445
G1 X106.354 Y102.492 E.03445
G1 X107.115 Y102.266 E.03445
G1 X107.894 Y102.117 E.03445
G1 X108.689 Y102.046 E.03465
G1 X109.3 Y102.045 E.02649
G1 X110.078 Y102.113 E.03393
G1 X110.858 Y102.26 E.03445
G1 X111.62 Y102.483 E.03445
G1 X112.355 Y102.781 E.03445
G1 X113.057 Y103.151 E.03445
G1 X113.719 Y103.589 E.03445
G1 X114.334 Y104.091 E.03445
G1 X114.896 Y104.651 E.03445
G1 X115.399 Y105.265 E.03445
G1 X115.839 Y105.926 E.03445
G1 X116.21 Y106.627 E.03445
G1 X116.51 Y107.361 E.03445
G1 X116.736 Y108.122 E.03445
G1 X116.885 Y108.907 E.03467
G1 X116.945 Y109.495 E.02564
G1 X116.955 Y110.293 E.03468
G1 X116.886 Y111.084 E.03445
G1 X116.739 Y111.864 E.03445
G1 X116.519 Y112.612 E.03387
G1 X116.222 Y113.348 E.03445
G1 X115.853 Y114.051 E.03445
G1 X115.415 Y114.713 E.03445
G1 X114.914 Y115.328 E.03445
G1 X114.354 Y115.89 E.03445
G1 X113.741 Y116.394 E.03445
G1 X113.077 Y116.837 E.03466
G1 X112.602 Y117.096 E.02347
G1 X112.387 Y116.702 F18000
G1 F3000
G1 X112.342 Y116.727 E.00227
G1 X111.647 Y117.029 E.03285
G1 X110.934 Y117.258 E.0325
G1 X110.202 Y117.414 E.0325
G1 X109.458 Y117.497 E.0325
G1 X108.709 Y117.505 E.03251
G1 X107.963 Y117.439 E.0325
G1 X107.228 Y117.299 E.0325
G1 X106.51 Y117.086 E.0325
G1 X105.829 Y116.809 E.03192
G1 X105.167 Y116.459 E.0325
G1 X104.543 Y116.045 E.0325
G1 X103.963 Y115.571 E.03251
G1 X103.442 Y115.052 E.03194
G1 X102.966 Y114.473 E.03251
G1 X102.551 Y113.85 E.0325
G1 X102.2 Y113.189 E.0325
G1 X101.916 Y112.496 E.03251
G1 X101.703 Y111.778 E.0325
G1 X101.56 Y111.034 E.03288
G1 X101.504 Y110.474 E.02444
G1 X101.494 Y109.717 E.03288
G1 X101.56 Y108.971 E.0325
G1 X101.699 Y108.235 E.03251
G1 X101.907 Y107.529 E.03194
G1 X102.189 Y106.835 E.03252
G1 X102.538 Y106.172 E.0325
G1 X102.951 Y105.548 E.0325
G1 X103.424 Y104.968 E.0325
G1 X103.943 Y104.447 E.03193
G1 X104.521 Y103.971 E.0325
G1 X105.144 Y103.555 E.0325
G1 X105.805 Y103.203 E.0325
G1 X106.497 Y102.918 E.03251
G1 X107.215 Y102.704 E.0325
G1 X107.95 Y102.563 E.0325
G1 X108.704 Y102.495 E.03285
G1 X109.286 Y102.494 E.02529
G1 X110.024 Y102.559 E.03214
G1 X110.76 Y102.698 E.03252
G1 X111.478 Y102.91 E.0325
G1 X112.172 Y103.192 E.0325
G1 X112.834 Y103.541 E.0325
G1 X113.458 Y103.955 E.0325
G1 X114.028 Y104.42 E.03192
G1 X114.558 Y104.948 E.03251
G1 X115.034 Y105.527 E.0325
G1 X115.449 Y106.15 E.0325
G1 X115.8 Y106.811 E.03251
G1 X116.084 Y107.504 E.0325
G1 X116.297 Y108.222 E.0325
G1 X116.44 Y108.966 E.03288
G1 X116.496 Y109.526 E.02444
G1 X116.506 Y110.283 E.03289
G1 X116.44 Y111.029 E.0325
G1 X116.301 Y111.765 E.03251
G1 X116.093 Y112.471 E.03194
G1 X115.811 Y113.165 E.03251
G1 X115.462 Y113.828 E.0325
G1 X115.049 Y114.452 E.0325
G1 X114.576 Y115.032 E.0325
G1 X114.057 Y115.553 E.03192
G1 X113.479 Y116.029 E.03251
G1 X112.85 Y116.45 E.03285
G1 X112.423 Y116.683 E.02112
G1 X112.207 Y116.289 F18000
G1 F3000
G1 X112.139 Y116.326 E.00339
G1 X111.483 Y116.611 E.03104
G1 X110.812 Y116.825 E.03056
G1 X110.124 Y116.972 E.03056
G1 X109.424 Y117.049 E.03056
G1 X108.733 Y117.057 E.02998
G1 X108.032 Y116.995 E.03056
G1 X107.34 Y116.864 E.03056
G1 X106.665 Y116.664 E.03057
G1 X106.025 Y116.404 E.02999
G1 X105.402 Y116.076 E.03057
G1 X104.815 Y115.688 E.03056
G1 X104.269 Y115.242 E.03058
G1 X103.779 Y114.755 E.03001
G1 X103.331 Y114.211 E.03057
G1 X102.94 Y113.626 E.03056
G1 X102.609 Y113.004 E.03056
G1 X102.342 Y112.353 E.03056
G1 X102.141 Y111.678 E.03056
G1 X102.006 Y110.975 E.03108
G1 X101.952 Y110.443 E.02323
G1 X101.944 Y109.727 E.03108
G1 X102.006 Y109.026 E.03056
G1 X102.135 Y108.347 E.03
G1 X102.329 Y107.683 E.03001
G1 X102.593 Y107.03 E.03058
G1 X102.921 Y106.407 E.03056
G1 X103.309 Y105.82 E.03056
G1 X103.753 Y105.274 E.03057
G1 X104.24 Y104.783 E.03
G1 X104.784 Y104.335 E.03056
G1 X105.369 Y103.944 E.03056
G1 X105.99 Y103.612 E.03056
G1 X106.641 Y103.344 E.03056
G1 X107.315 Y103.142 E.03056
G1 X108.006 Y103.009 E.03056
G1 X108.718 Y102.944 E.03103
G1 X109.272 Y102.943 E.02407
G1 X109.969 Y103.005 E.03035
G1 X110.661 Y103.137 E.03059
G1 X111.336 Y103.336 E.03056
G1 X111.976 Y103.596 E.02998
G1 X112.599 Y103.924 E.03056
G1 X113.186 Y104.313 E.03057
G1 X113.722 Y104.749 E.02999
G1 X114.221 Y105.246 E.03057
G1 X114.669 Y105.789 E.03056
G1 X115.06 Y106.374 E.03056
G1 X115.391 Y106.996 E.03056
G1 X115.658 Y107.647 E.03056
G1 X115.859 Y108.322 E.03056
G1 X115.994 Y109.025 E.03108
G1 X116.048 Y109.557 E.02323
G1 X116.056 Y110.273 E.03108
G1 X115.994 Y110.974 E.03056
G1 X115.865 Y111.653 E.02999
G1 X115.671 Y112.317 E.03001
G1 X115.407 Y112.97 E.03057
G1 X115.079 Y113.593 E.03056
G1 X114.691 Y114.18 E.03056
G1 X114.247 Y114.726 E.03057
G1 X113.76 Y115.217 E.03
G1 X113.216 Y115.665 E.03057
G1 X112.622 Y116.062 E.03104
G1 X112.243 Y116.27 E.01878
G1 X112.027 Y115.875 F18000
G1 F3000
G1 X111.936 Y115.925 E.00451
G1 X111.318 Y116.192 E.02921
G1 X110.69 Y116.392 E.02861
G1 X110.045 Y116.529 E.02861
G1 X109.39 Y116.601 E.02862
G1 X108.744 Y116.607 E.02805
G1 X108.087 Y116.549 E.02862
G1 X107.453 Y116.429 E.02803
G1 X106.82 Y116.242 E.02864
G1 X106.22 Y116 E.02806
G1 X105.637 Y115.693 E.02863
G1 X105.087 Y115.33 E.02861
G1 X104.575 Y114.913 E.02865
G1 X104.116 Y114.457 E.02808
G1 X103.696 Y113.948 E.02863
G1 X103.329 Y113.401 E.02861
G1 X103.019 Y112.819 E.02862
G1 X102.768 Y112.21 E.02862
G1 X102.579 Y111.578 E.02861
G1 X102.451 Y110.916 E.02927
G1 X102.4 Y110.412 E.02201
G1 X102.393 Y109.737 E.02927
G1 X102.452 Y109.081 E.02862
G1 X102.573 Y108.445 E.02808
G1 X102.756 Y107.825 E.02809
G1 X103.004 Y107.213 E.02864
G1 X103.304 Y106.642 E.02803
G1 X103.667 Y106.091 E.02861
G1 X104.083 Y105.579 E.02863
G1 X104.538 Y105.12 E.02807
G1 X105.047 Y104.7 E.02862
G1 X105.594 Y104.333 E.02862
G1 X106.175 Y104.022 E.02861
G1 X106.784 Y103.77 E.02862
G1 X107.416 Y103.58 E.02861
G1 X108.063 Y103.455 E.02861
G1 X108.733 Y103.393 E.0292
G1 X109.259 Y103.392 E.02284
G1 X109.913 Y103.451 E.02854
G1 X110.549 Y103.572 E.02807
G1 X111.181 Y103.758 E.02863
G1 X111.78 Y104.001 E.02805
G1 X112.364 Y104.307 E.02862
G1 X112.914 Y104.671 E.02864
G1 X113.416 Y105.079 E.02807
G1 X113.884 Y105.543 E.02863
G1 X114.304 Y106.052 E.02861
G1 X114.671 Y106.599 E.02861
G1 X114.981 Y107.181 E.02862
G1 X115.232 Y107.79 E.02861
G1 X115.421 Y108.422 E.02861
G1 X115.549 Y109.084 E.02927
G1 X115.6 Y109.588 E.02201
G1 X115.607 Y110.263 E.02927
G1 X115.548 Y110.919 E.02862
G1 X115.427 Y111.555 E.02807
G1 X115.244 Y112.175 E.02809
G1 X114.996 Y112.787 E.02864
G1 X114.696 Y113.358 E.02803
G1 X114.333 Y113.909 E.02861
G1 X113.917 Y114.421 E.02864
G1 X113.462 Y114.88 E.02807
G1 X112.953 Y115.3 E.02863
G1 X112.395 Y115.675 E.02921
G1 X112.063 Y115.856 E.01642
G1 X111.851 Y115.457 F18000
G1 F3000
G1 X111.611 Y115.585 E.0118
G1 X111.047 Y115.815 E.02643
G1 X110.457 Y115.99 E.02671
G1 X109.913 Y116.097 E.02409
G1 X109.315 Y116.156 E.02609
G1 X108.074 Y116.094 E.05392
G1 X107.482 Y115.975 E.0262
G1 X106.949 Y115.814 E.02418
G1 X106.38 Y115.58 E.02669
G1 X105.838 Y115.292 E.02668
G1 X105.327 Y114.951 E.02668
G1 X104.852 Y114.56 E.02668
G1 X104.418 Y114.125 E.02668
G1 X104.03 Y113.648 E.02668
G1 X103.692 Y113.135 E.02668
G1 X103.406 Y112.591 E.02668
G1 X103.176 Y112.021 E.02668
G1 X103.004 Y111.43 E.02671
G1 X102.899 Y110.885 E.02409
G1 X102.842 Y110.276 E.02658
G1 X102.845 Y109.661 E.02668
G1 X102.909 Y109.049 E.02672
G1 X103.018 Y108.508 E.02398
G1 X103.195 Y107.924 E.02647
G1 X103.431 Y107.357 E.02667
G1 X103.722 Y106.815 E.02668
G1 X104.064 Y106.306 E.02662
G1 X104.438 Y105.853 E.02552
G1 X104.872 Y105.422 E.02653
G1 X105.348 Y105.034 E.02667
G1 X105.86 Y104.695 E.02666
G1 X106.396 Y104.412 E.02628
G1 X106.964 Y104.181 E.02662
G1 X107.553 Y104.008 E.02667
G1 X108.158 Y103.893 E.02675
G1 X108.705 Y103.842 E.02384
G1 X109.312 Y103.843 E.02634
G1 X109.923 Y103.905 E.02665
G1 X110.525 Y104.027 E.02668
G1 X111.112 Y104.208 E.02668
G1 X111.678 Y104.448 E.02668
G1 X112.218 Y104.742 E.02668
G1 X112.725 Y105.088 E.02668
G1 X113.196 Y105.484 E.02668
G1 X113.625 Y105.924 E.02668
G1 X114.001 Y106.396 E.02618
G1 X114.622 Y107.471 E.05392
G1 X114.842 Y108.033 E.0262
G1 X114.996 Y108.569 E.02421
G1 X115.101 Y109.115 E.0241
G1 X115.158 Y109.724 E.02658
G1 X115.155 Y110.338 E.02663
G1 X115.093 Y110.94 E.02628
G1 X114.969 Y111.541 E.02664
G1 X114.786 Y112.128 E.02668
G1 X114.545 Y112.693 E.02668
G1 X114.251 Y113.23 E.02657
G1 X113.942 Y113.685 E.02387
G1 X113.555 Y114.154 E.02642
G1 X113.138 Y114.569 E.02552
G1 X112.666 Y114.956 E.02653
G1 X112.154 Y115.297 E.02666
G1 X111.886 Y115.438 E.01316
G1 X111.679 Y115.043 F18000
G1 F3000
G1 X111.397 Y115.19 E.0138
G1 X110.874 Y115.401 E.0245
G1 X110.326 Y115.561 E.02477
