; HEADER_BLOCK_START
; generated by AnycubicSlicerNext 1.3.3.1 on 2025-03-18 at 03:54:09
; total layer number: 20
; filament_density: 1.24
; filament_diameter: 1.75
; max_z_height: 4.04
; exclude_object: 0
; model_instances: 2
; HEADER_BLOCK_END

; THUMBNAIL_BLOCK_START
; THUMBNAIL_BLOCK_END

; external perimeters extrusion width = 0.42mm
; perimeters extrusion width = 0.45mm
; infill extrusion width = 0.45mm
; solid infill extrusion width = 0.42mm
; top infill extrusion width = 0.42mm
; support material extrusion width = 0.40mm
; first layer extrusion width = 0.50mm

; external perimeters extrusion width = 0.42mm
; perimeters extrusion width = 0.45mm
; infill extrusion width = 0.45mm
; solid infill extrusion width = 0.42mm
; top infill extrusion width = 0.42mm
; support material extrusion width = 0.40mm
; first layer extrusion width = 0.50mm

; EXECUTABLE_BLOCK_START
M201 X2000 Y2000 Z800 E2000
M203 X300 Y300 Z8 E100
M204 P2000 R2000 T2000
M205 X10.00 Y10.00 Z2.00 E5.00 ; sets the jerk limits, mm/sec
;TYPE:Custom
G90 ; use absolute coordinates
M83 ; extruder relative mode
M104 S220 ; set extruder temp
M140 S60 ; set bed temp
M190 S60 ; wait for bed temp
M109 S220 ; wait for extruder temp
G28                                        ; move X/Y/Z to min endstops
G1 Z0.28                                   ; lift nozzle a bit 
G92 E0 
G1 Y3 F1800                                    ; zero the extruded length 
G1 X60  E25 F500                       ; Extrude 25mm of filament in a 5cm line. 
G92 E0                                     ; zero the extruded length again 
G1 E-2 F500                                ; Retract a little 
G1 X70 F4000                              ; Quickly wipe away from the filament line
M117
G90
G21
M83 ; use relative distances for extrusion
; filament start gcode
M106 S0
;LAYER_CHANGE
;Z:0.24
;HEIGHT:0.24
; BEFORE_LAYER_CHANGE 0 @ 0.24mm
G92 E0
G1 E-2.5 F6000
; AFTER_LAYER_CHANGE 0 @ 0.24mm
M204 P500
; printing object "cycloidDisk.stl" id:0 copy 0
M204 T500
G1 X125.062 Y90.289 F18000
G1 Z.24
G1 E2.5 F6000
;TYPE:Brim
;WIDTH:0.5
;MM3_PER_MM:0.107639
G1 F1500
G1 X125.555 Y89.613 E.03631
G1 X125.834 Y89.281 E.01881
G1 X126.414 Y88.68 E.03626
G1 X126.701 Y88.42 E.01679
G1 X127.342 Y87.911 E.03553
G1 X127.68 Y87.678 E.01782
G1 X128.349 Y87.278 E.03384
G1 X128.667 Y87.114 E.01553
G1 X129.292 Y86.837 E.02968
G1 X129.401 Y86.733 E.00656
G1 X129.59 Y86.357 E.01825
G1 X129.969 Y85.713 E.03245
G1 X130.421 Y85.074 E.03397
G1 X130.682 Y84.753 E.01793
G1 X131.241 Y84.152 E.03566
G1 X131.523 Y83.886 E.01683
G1 X132.169 Y83.354 E.03631
G1 X132.521 Y83.102 E.01881
G1 X133.233 Y82.664 E.03625
G1 X133.575 Y82.483 E.0168
G1 X134.322 Y82.15 E.03552
G1 X134.708 Y82.008 E.01782
G1 X135.455 Y81.787 E.03384
G1 X135.804 Y81.707 E.01553
G1 X136.478 Y81.594 E.02968
G1 X136.607 Y81.524 E.00636
G1 X137.151 Y80.926 E.03509
G1 X137.717 Y80.406 E.03337
G1 X138.007 Y80.17 E.01621
G1 X138.666 Y79.704 E.03506
G1 X139.376 Y79.289 E.03569
G1 X140.131 Y78.936 E.03619
G1 X140.535 Y78.779 E.01881
G1 X141.331 Y78.533 E.03615
G1 X142.135 Y78.361 E.03568
G1 X142.512 Y78.306 E.01654
G1 X143.303 Y78.242 E.03448
G1 X144.064 Y78.246 E.03303
G1 X144.743 Y78.303 E.02957
G1 X144.885 Y78.267 E.00636
G1 X145.561 Y77.824 E.03509
G1 X146.238 Y77.46 E.03336
G1 X146.578 Y77.305 E.01622
G1 X147.332 Y77.016 E.03506
G1 X148.123 Y76.792 E.03569
G1 X148.942 Y76.637 E.03619
G1 X149.375 Y76.586 E.01892
G1 X149.773 Y76.557 E.01729
G1 X150.616 Y76.552 E.0366
G1 X151.407 Y76.619 E.03448
G1 X152.187 Y76.754 E.03437
G1 X152.923 Y76.946 E.03303
G1 X153.567 Y77.171 E.02957
G1 X153.718 Y77.17 E.00656
G1 X154.112 Y77.025 E.01825
G1 X154.83 Y76.815 E.03247
G1 X155.597 Y76.659 E.03396
G1 X156.006 Y76.604 E.01793
G1 X156.826 Y76.548 E.03566
G1 X157.213 Y76.547 E.01683
G1 X158.025 Y76.599 E.03528
G1 X158.467 Y76.658 E.01936
G1 X159.296 Y76.827 E.03673
G1 X159.669 Y76.93 E.01682
G1 X160.442 Y77.198 E.03552
G1 X160.82 Y77.359 E.01782
G1 X161.516 Y77.709 E.03384
G1 X161.825 Y77.89 E.01553
G1 X162.394 Y78.269 E.02968
G1 X162.541 Y78.306 E.00656
G1 X162.959 Y78.264 E.01825
G1 X163.707 Y78.239 E.03246
G1 X164.488 Y78.278 E.03396
G1 X164.898 Y78.326 E.01793
G1 X165.706 Y78.476 E.03567
G1 X166.082 Y78.572 E.01683
G1 X166.877 Y78.832 E.03631
G1 X167.279 Y78.994 E.01881
G1 X168.029 Y79.36 E.03626
G1 X168.365 Y79.553 E.0168
G1 X169.047 Y80.005 E.03553
G1 X169.373 Y80.254 E.01782
G1 X169.961 Y80.767 E.03384
G1 X170.215 Y81.019 E.01553
G1 X170.672 Y81.528 E.02968
G1 X170.805 Y81.6 E.00656
G1 X171.22 Y81.663 E.01824
G1 X171.95 Y81.825 E.03247
G1 X172.697 Y82.057 E.03396
G1 X173.083 Y82.206 E.01793
G1 X173.828 Y82.552 E.03567
G1 X174.168 Y82.738 E.01682
G1 X174.874 Y83.187 E.03631
G1 X175.222 Y83.445 E.01881
G1 X175.858 Y83.986 E.03626
G1 X176.136 Y84.256 E.0168
G1 X176.684 Y84.864 E.03553
G1 X176.938 Y85.186 E.01782
G1 X177.379 Y85.829 E.03384
G1 X177.563 Y86.136 E.01553
G1 X177.879 Y86.743 E.02968
G1 X177.985 Y86.843 E.00636
G1 X178.722 Y87.176 E.03509
G1 X179.392 Y87.553 E.03337
G1 X179.705 Y87.756 E.01621
G1 X180.353 Y88.239 E.03506
G1 X180.966 Y88.786 E.03569
G1 X181.536 Y89.395 E.03619
G1 X181.809 Y89.731 E.01881
G1 X182.289 Y90.411 E.03614
G1 X182.701 Y91.123 E.03569
G1 X182.87 Y91.465 E.01654
G1 X183.176 Y92.198 E.03447
G1 X183.408 Y92.922 E.03303
G1 X183.562 Y93.586 E.02958
G1 X183.64 Y93.71 E.00636
G1 X184.271 Y94.215 E.03508
G1 X184.824 Y94.745 E.03326
G1 X185.352 Y95.345 E.03468
G1 X185.585 Y95.648 E.0166
G1 X186.044 Y96.333 E.03579
G1 X186.445 Y97.064 E.0362
G1 X186.626 Y97.458 E.01881
G1 X186.922 Y98.236 E.03615
G1 X187.144 Y99.025 E.03557
G1 X187.291 Y99.813 E.03479
G1 X187.368 Y100.586 E.03373
G1 X187.381 Y100.944 E.01553
G1 X187.366 Y101.628 E.02968
G1 X187.413 Y101.771 E.00656
G1 X187.673 Y102.102 E.01825
G1 X188.095 Y102.719 E.03246
G1 X188.48 Y103.4 E.03396
G1 X188.659 Y103.772 E.01793
G1 X188.965 Y104.535 E.03567
G1 X189.086 Y104.903 E.01683
G1 X189.292 Y105.714 E.03631
G1 X189.37 Y106.14 E.01881
G1 X189.464 Y106.97 E.03626
G1 X189.481 Y107.357 E.0168
G1 X189.465 Y108.175 E.03553
G1 X189.429 Y108.584 E.01782
G1 X189.31 Y109.355 E.03384
G1 X189.234 Y109.704 E.01553
G1 X189.049 Y110.362 E.02968
G1 X189.058 Y110.509 E.00636
G1 X189.367 Y111.256 E.03509
G1 X189.598 Y111.989 E.03337
G1 X189.687 Y112.352 E.01621
G1 X189.829 Y113.147 E.03505
G1 X189.901 Y113.966 E.03569
G1 X189.9 Y114.8 E.03619
G1 X189.869 Y115.232 E.01881
G1 X189.753 Y116.056 E.03614
G1 X189.567 Y116.857 E.03569
G1 X189.456 Y117.222 E.01655
G1 X189.177 Y117.965 E.03447
G1 X188.85 Y118.652 E.03302
G1 X188.508 Y119.242 E.02959
G1 X188.48 Y119.386 E.00636
G1 X188.594 Y120.186 E.03508
G1 X188.634 Y120.951 E.03326
G1 X188.608 Y121.749 E.03468
G1 X188.571 Y122.13 E.01659
G1 X188.437 Y122.944 E.0358
G1 X188.228 Y123.751 E.0362
G1 X188.091 Y124.162 E.01881
G1 X187.774 Y124.932 E.03615
G1 X187.395 Y125.659 E.03558
G1 X186.963 Y126.334 E.03478
G1 X186.49 Y126.95 E.03373
G1 X186.255 Y127.219 E.01553
G1 X185.776 Y127.707 E.02968
G1 X185.712 Y127.845 E.00656
G1 X185.675 Y128.264 E.01825
G1 X185.56 Y129.002 E.03245
G1 X185.374 Y129.762 E.03397
G1 X185.25 Y130.157 E.01793
G1 X184.952 Y130.922 E.03566
G1 X184.787 Y131.273 E.01683
G1 X184.383 Y132.005 E.03631
G1 X184.148 Y132.369 E.01881
G1 X183.648 Y133.038 E.03625
G1 X183.396 Y133.332 E.01679
G1 X182.824 Y133.917 E.03553
G1 X182.518 Y134.191 E.01782
G1 X181.904 Y134.671 E.03384
G1 X181.609 Y134.874 E.01554
G1 X181.024 Y135.228 E.02967
G1 X180.928 Y135.345 E.00656
G1 X180.788 Y135.741 E.01825
G1 X180.492 Y136.428 E.03247
G1 X180.124 Y137.118 E.03396
G1 X179.906 Y137.469 E.01793
G1 X179.426 Y138.136 E.03567
G1 X179.18 Y138.435 E.01683
G1 X178.606 Y139.044 E.03631
G1 X178.288 Y139.338 E.01881
G1 X177.637 Y139.862 E.03626
G1 X177.32 Y140.084 E.01679
G1 X176.62 Y140.508 E.03553
G1 X176.256 Y140.697 E.01782
G1 X175.542 Y141.01 E.03384
G1 X175.206 Y141.133 E.01554
G1 X174.551 Y141.33 E.02968
G1 X174.432 Y141.415 E.00636
G1 X173.967 Y142.077 E.03509
G1 X173.473 Y142.662 E.03325
G1 X172.907 Y143.226 E.03468
G1 X172.619 Y143.478 E.0166
G1 X171.965 Y143.98 E.0358
G1 X171.26 Y144.425 E.03619
G1 X170.879 Y144.631 E.01881
G1 X170.12 Y144.975 E.03615
G1 X169.347 Y145.245 E.03558
G1 X168.57 Y145.442 E.03478
G1 X167.803 Y145.567 E.03373
G1 X167.447 Y145.603 E.01553
G1 X166.764 Y145.63 E.02968
G1 X166.624 Y145.687 E.00656
G1 X166.31 Y145.967 E.01825
G1 X165.72 Y146.427 E.03246
G1 X165.064 Y146.854 E.03396
G1 X164.704 Y147.056 E.01793
G1 X163.963 Y147.41 E.03566
G1 X163.602 Y147.553 E.01683
G1 X162.806 Y147.81 E.03631
G1 X162.386 Y147.915 E.01881
G1 X161.563 Y148.06 E.03626
G1 X161.179 Y148.102 E.01679
G1 X160.361 Y148.137 E.03553
G1 X159.95 Y148.126 E.01782
G1 X159.174 Y148.057 E.03383
G1 X158.82 Y148.002 E.01554
G1 X158.152 Y147.859 E.02968
G1 X158.006 Y147.877 E.00636
G1 X157.28 Y148.233 E.03509
G1 X156.563 Y148.509 E.03337
G1 X156.206 Y148.62 E.01621
G1 X155.42 Y148.813 E.03516
G1 X155.001 Y148.885 E.01843
G1 X154.172 Y148.972 E.03621
G1 X153.782 Y148.986 E.01693
G1 X152.944 Y148.962 E.03639
G1 X152.516 Y148.92 E.01869
G1 X151.702 Y148.783 E.03579
G1 X151.331 Y148.696 E.01654
G1 X150.572 Y148.464 E.03447
G1 X149.866 Y148.18 E.03303
G1 X149.256 Y147.877 E.02957
G1 X149.111 Y147.858 E.00636
G1 X148.319 Y148.021 E.03509
G1 X147.558 Y148.11 E.03325
G1 X146.76 Y148.134 E.03468
G1 X146.377 Y148.121 E.0166
G1 X145.557 Y148.038 E.03579
G1 X144.738 Y147.88 E.03619
G1 X144.319 Y147.769 E.01881
G1 X143.531 Y147.501 E.03615
G1 X142.782 Y147.169 E.03558
G1 X142.081 Y146.78 E.03478
G1 X141.436 Y146.347 E.03372
G1 X141.153 Y146.129 E.01554
G1 X140.635 Y145.681 E.02968
G1 X140.494 Y145.627 E.00656
G1 X140.074 Y145.616 E.01825
G1 X139.33 Y145.547 E.03246
G1 X138.559 Y145.41 E.03396
G1 X138.158 Y145.311 E.01793
G1 X137.376 Y145.061 E.03567
G1 X137.015 Y144.919 E.01683
G1 X136.259 Y144.561 E.03631
G1 X135.881 Y144.349 E.01881
G1 X135.182 Y143.892 E.03626
G1 X134.872 Y143.659 E.0168
G1 X134.252 Y143.125 E.03553
G1 X133.96 Y142.837 E.01782
G1 X133.442 Y142.254 E.03384
G1 X133.221 Y141.973 E.01552
G1 X132.832 Y141.411 E.02969
G1 X132.709 Y141.323 E.00657
G1 X132.305 Y141.208 E.01821
G1 X131.6 Y140.956 E.03248
G1 X130.888 Y140.632 E.03397
G1 X130.524 Y140.436 E.01793
G1 X129.829 Y139.999 E.03566
G1 X129.515 Y139.772 E.01683
G1 X128.871 Y139.237 E.03631
G1 X128.557 Y138.938 E.01881
G1 X127.994 Y138.322 E.03626
G1 X127.753 Y138.019 E.01679
G1 X127.285 Y137.348 E.03554
G1 X127.074 Y136.996 E.01782
G1 X126.717 Y136.303 E.03383
G1 X126.573 Y135.975 E.01553
G1 X126.335 Y135.334 E.02968
G1 X126.238 Y135.218 E.00656
G1 X125.875 Y135.006 E.01825
G1 X125.256 Y134.587 E.03246
G1 X124.647 Y134.096 E.03396
G1 X124.343 Y133.816 E.01793
G1 X123.777 Y133.22 E.03567
G1 X123.53 Y132.921 E.01683
G1 X123.039 Y132.244 E.03631
G1 X122.81 Y131.876 E.01881
G1 X122.418 Y131.139 E.03626
G1 X122.259 Y130.786 E.0168
G1 X121.973 Y130.019 E.03553
G1 X121.856 Y129.625 E.01782
G1 X121.682 Y128.865 E.03383
G1 X121.625 Y128.512 E.01553
G1 X121.554 Y127.832 E.02968
G1 X121.492 Y127.699 E.00636
G1 X120.93 Y127.119 E.03509
G1 X120.446 Y126.522 E.03336
G1 X120.229 Y126.217 E.01621
G1 X119.804 Y125.53 E.03506
G1 X119.436 Y124.795 E.03569
G1 X119.13 Y124.02 E.03619
G1 X119 Y123.607 E.01881
G1 X118.804 Y122.797 E.03615
G1 X118.682 Y121.984 E.03568
G1 X118.651 Y121.604 E.01654
G1 X118.637 Y120.81 E.03448
G1 X118.688 Y120.051 E.03302
G1 X118.789 Y119.377 E.02958
G1 X118.759 Y119.229 E.00656
G1 X118.543 Y118.868 E.01825
G1 X118.202 Y118.203 E.03246
G1 X117.905 Y117.479 E.03396
G1 X117.774 Y117.087 E.01793
G1 X117.566 Y116.292 E.03567
G1 X117.493 Y115.912 E.01683
G1 X117.389 Y115.082 E.03631
G1 X117.365 Y114.649 E.01881
G1 X117.377 Y113.814 E.03626
G1 X117.408 Y113.428 E.0168
G1 X117.527 Y112.618 E.03553
G1 X117.613 Y112.217 E.01782
G1 X117.828 Y111.467 E.03384
G1 X117.947 Y111.13 E.01553
G1 X118.213 Y110.5 E.02968
G1 X118.221 Y110.349 E.00656
G1 X118.102 Y109.946 E.01825
G1 X117.937 Y109.217 E.03245
G1 X117.829 Y108.442 E.03397
G1 X117.8 Y108.03 E.01793
G1 X117.796 Y107.208 E.03566
G1 X117.819 Y106.821 E.01682
G1 X117.926 Y105.991 E.03632
G1 X118.01 Y105.566 E.01881
G1 X118.229 Y104.76 E.03626
G1 X118.355 Y104.394 E.01679
G1 X118.671 Y103.64 E.03553
G1 X118.855 Y103.273 E.01782
G1 X119.249 Y102.6 E.03384
G1 X119.449 Y102.303 E.01553
G1 X119.863 Y101.759 E.02968
G1 X119.909 Y101.619 E.00636
G1 X119.896 Y100.811 E.03509
G1 X119.952 Y100.044 E.03337
G1 X120.003 Y99.675 E.0162
G1 X120.163 Y98.883 E.03507
G1 X120.397 Y98.095 E.03569
G1 X120.706 Y97.32 E.03619
G1 X120.893 Y96.93 E.01881
G1 X121.305 Y96.205 E.03615
G1 X121.773 Y95.53 E.03569
G1 X122.01 Y95.232 E.01653
G1 X122.543 Y94.643 E.03448
G1 X123.1 Y94.125 E.03302
G1 X123.635 Y93.702 E.02958
G1 X123.715 Y93.574 E.00656
G1 X123.804 Y93.163 E.01825
G1 X124.011 Y92.445 E.03246
G1 X124.29 Y91.714 E.03396
G1 X124.463 Y91.338 E.01793
G1 X124.855 Y90.616 E.03566
G1 X125.041 Y90.323 E.01509
G1 X125.42 Y90.562 F18000
G1 F1500
G1 X125.431 Y90.545 E.00088
G1 X125.911 Y89.886 E.03538
G1 X126.17 Y89.578 E.01747
G1 X126.73 Y88.999 E.03494
G1 X126.994 Y88.76 E.01551
G1 X127.605 Y88.275 E.03385
G1 X127.926 Y88.053 E.01692
G1 X128.563 Y87.673 E.03223
G1 X128.864 Y87.517 E.0147
G1 X129.463 Y87.252 E.02844
G1 X129.61 Y87.154 E.00765
G1 X129.702 Y87.065 E.00556
G1 X129.807 Y86.923 E.00765
G1 X129.986 Y86.568 E.01729
G1 X130.343 Y85.961 E.03054
G1 X130.776 Y85.349 E.03257
G1 X131.024 Y85.044 E.01703
G1 X131.556 Y84.471 E.03397
G1 X131.817 Y84.225 E.01554
G1 X132.439 Y83.712 E.03499
G1 X132.766 Y83.478 E.01747
G1 X133.451 Y83.056 E.03495
G1 X133.775 Y82.885 E.0159
G1 X134.487 Y82.567 E.03384
G1 X134.853 Y82.433 E.01692
G1 X135.573 Y82.22 E.03259
G1 X135.895 Y82.147 E.01434
G1 X136.542 Y82.038 E.02845
G1 X136.812 Y81.923 E.01276
G1 X136.946 Y81.818 E.00741
G1 X137.474 Y81.239 E.034
G1 X138.007 Y80.748 E.03146
G1 X138.282 Y80.526 E.01534
G1 X138.914 Y80.078 E.03363
G1 X139.59 Y79.684 E.03395
G1 X140.303 Y79.35 E.03418
G1 X140.687 Y79.202 E.01787
G1 X141.439 Y78.969 E.03415
G1 X142.219 Y78.802 E.03462
G1 X142.567 Y78.751 E.01527
G1 X143.315 Y78.691 E.03258
G1 X144.039 Y78.694 E.03143
G1 X144.694 Y78.749 E.02854
G1 X144.864 Y78.735 E.00741
G1 X145.141 Y78.636 E.01275
G1 X145.796 Y78.207 E.03401
G1 X146.434 Y77.864 E.03145
G1 X146.756 Y77.717 E.01535
G1 X147.479 Y77.441 E.03363
G1 X148.22 Y77.23 E.03343
G1 X149.015 Y77.08 E.03511
G1 X149.794 Y77.005 E.03399
G1 X150.592 Y77.001 E.03462
G1 X151.344 Y77.064 E.03277
G1 X152.098 Y77.194 E.03319
G1 X152.787 Y77.374 E.03094
G1 X153.408 Y77.591 E.02852
G1 X153.581 Y77.62 E.00765
G1 X153.71 Y77.619 E.00556
G1 X153.883 Y77.587 E.00765
G1 X154.257 Y77.45 E.01729
G1 X154.933 Y77.253 E.03056
G1 X155.667 Y77.103 E.03256
G1 X156.056 Y77.05 E.01702
G1 X156.837 Y76.997 E.03398
G1 X157.204 Y76.996 E.01593
G1 X157.976 Y77.046 E.0336
G1 X158.388 Y77.1 E.01801
G1 X159.187 Y77.262 E.0354
G1 X159.54 Y77.36 E.01591
G1 X160.276 Y77.615 E.03383
G1 X160.635 Y77.768 E.01692
G1 X161.306 Y78.106 E.03259
G1 X161.591 Y78.273 E.01435
G1 X162.136 Y78.636 E.02843
G1 X162.297 Y78.707 E.00765
G1 X162.422 Y78.738 E.00556
G1 X162.597 Y78.751 E.00765
G1 X162.994 Y78.711 E.01729
G1 X163.697 Y78.688 E.03055
G1 X164.446 Y78.725 E.03256
G1 X164.836 Y78.771 E.01703
G1 X165.605 Y78.914 E.03398
G1 X165.961 Y79.004 E.01593
G1 X166.727 Y79.255 E.035
G1 X167.1 Y79.406 E.01747
G1 X167.816 Y79.755 E.03455
G1 X168.133 Y79.937 E.0159
G1 X168.783 Y80.368 E.03384
G1 X169.093 Y80.605 E.01692
G1 X169.658 Y81.099 E.03259
G1 X169.893 Y81.331 E.01434
G1 X170.33 Y81.819 E.02843
