; HEADER_BLOCK_START
; generated by AnycubicSlicerNext 1.3.3.1 on 2025-03-18 at 01:12:13
; total layer number: 70
; filament_density: 1.24
; filament_diameter: 1.75
; max_z_height: 14.04
; exclude_object: 0
; model_instances: 3
; HEADER_BLOCK_END

; THUMBNAIL_BLOCK_START
; THUMBNAIL_BLOCK_END

; external perimeters extrusion width = 0.42mm
; perimeters extrusion width = 0.45mm
; infill extrusion width = 0.45mm
; solid infill extrusion width = 0.42mm
; top infill extrusion width = 0.42mm
; support material extrusion width = 0.40mm
; first layer extrusion width = 0.50mm

; external perimeters extrusion width = 0.42mm
; perimeters extrusion width = 0.45mm
; infill extrusion width = 0.45mm
; solid infill extrusion width = 0.42mm
; top infill extrusion width = 0.42mm
; support material extrusion width = 0.40mm
; first layer extrusion width = 0.50mm

; external perimeters extrusion width = 0.42mm
; perimeters extrusion width = 0.45mm
; infill extrusion width = 0.45mm
; solid infill extrusion width = 0.42mm
; top infill extrusion width = 0.42mm
; support material extrusion width = 0.40mm
; first layer extrusion width = 0.50mm

; EXECUTABLE_BLOCK_START
M201 X2000 Y2000 Z800 E2000
M203 X300 Y300 Z8 E100
M204 P2000 R2000 T2000
M205 X10.00 Y10.00 Z2.00 E5.00 ; sets the jerk limits, mm/sec
;TYPE:Custom
G90 ; use absolute coordinates
M83 ; extruder relative mode
M104 S220 ; set extruder temp
M140 S60 ; set bed temp
M190 S60 ; wait for bed temp
M109 S220 ; wait for extruder temp
G28                                        ; move X/Y/Z to min endstops
G1 Z0.28                                   ; lift nozzle a bit 
G92 E0 
G1 Y3 F1800                                    ; zero the extruded length 
G1 X60  E25 F500                       ; Extrude 25mm of filament in a 5cm line. 
G92 E0                                     ; zero the extruded length again 
G1 E-2 F500                                ; Retract a little 
G1 X70 F4000                              ; Quickly wipe away from the filament line
M117
G90
G21
M83 ; use relative distances for extrusion
; filament start gcode
M106 S0
;LAYER_CHANGE
;Z:0.24
;HEIGHT:0.24
; BEFORE_LAYER_CHANGE 0 @ 0.24mm
G92 E0
G1 E-2.5 F6000
; AFTER_LAYER_CHANGE 0 @ 0.24mm
M204 P500
; printing object "cycloidPinCap.stl" id:2053063683840 copy 0
M204 T500
G1 X91.349 Y64.103 F18000
G1 Z.24
G1 E2.5 F6000
;TYPE:Brim
;WIDTH:0.5
;MM3_PER_MM:0.107639
G1 F1500
G1 X91.708 Y62.521 E.07041
G1 X92.147 Y60.96 E.0704
G1 X92.656 Y59.446 E.06933
G1 X93.2 Y58.054 E.0649
G1 X93.757 Y56.798 E.05962
G1 X94.491 Y55.333 E.07112
G1 X95.282 Y53.935 E.06973
G1 X96.16 Y52.553 E.07108
G1 X97.036 Y51.314 E.06585
G1 X97.944 Y50.148 E.06418
G1 X99.013 Y48.906 E.07111
G1 X100.133 Y47.732 E.07044
G1 X101.25 Y46.67 E.0669
G1 X102.46 Y45.628 E.06933
G1 X103.639 Y44.709 E.06488
G1 X104.952 Y43.783 E.06974
G1 X106.251 Y42.96 E.06677
G1 X107.531 Y42.23 E.06394
G1 X108.977 Y41.496 E.07042
G1 X110.459 Y40.837 E.07039
G1 X111.972 Y40.253 E.07041
G1 X113.433 Y39.771 E.06679
G1 X114.852 Y39.375 E.06393
G1 X116.449 Y39.013 E.07111
G1 X118.032 Y38.737 E.06973
G1 X119.641 Y38.539 E.07037
G1 X121.275 Y38.423 E.0711
G1 X122.874 Y38.39 E.06942
G1 X124.286 Y38.427 E.06131
G1 X125.904 Y38.547 E.07044
G1 X127.433 Y38.737 E.06689
G1 X129.031 Y39.015 E.07041
G1 X130.613 Y39.374 E.0704
G1 X132.174 Y39.813 E.07041
G1 X133.696 Y40.325 E.06969
G1 X135.082 Y40.868 E.06463
G1 X136.488 Y41.495 E.06683
G1 X137.808 Y42.161 E.06418
G1 X139.198 Y42.948 E.06933
G1 X140.568 Y43.818 E.07041
G1 X141.826 Y44.707 E.06691
G1 X142.986 Y45.611 E.06382
G1 X144.216 Y46.668 E.07041
G1 X145.403 Y47.8 E.07121
G1 X146.507 Y48.964 E.06962
G1 X147.572 Y50.208 E.07108
G1 X148.515 Y51.427 E.06692
G1 X149.434 Y52.743 E.06968
G1 X150.303 Y54.133 E.07113
G1 X151.091 Y55.55 E.07041
G1 X151.743 Y56.868 E.0638
G1 X152.361 Y58.28 E.06693
G1 X152.937 Y59.797 E.07042
G1 X153.392 Y61.194 E.0638
G1 X153.815 Y62.744 E.06974
G1 X154.163 Y64.327 E.07037
G1 X154.43 Y65.927 E.07041
G1 X154.609 Y67.458 E.06689
G1 X154.718 Y69.093 E.07114
G1 X154.744 Y70.563 E.06379
G1 X154.699 Y72.104 E.06693
G1 X154.573 Y73.705 E.0697
G1 X154.386 Y75.179 E.06452
G1 X154.103 Y76.777 E.07044
G1 X153.76 Y78.279 E.06689
G1 X153.321 Y79.841 E.07041
G1 X152.809 Y81.362 E.06968
G1 X152.218 Y82.864 E.07005
G1 X151.604 Y84.226 E.06488
G1 X150.874 Y85.658 E.06974
G1 X150.066 Y87.063 E.07038
G1 X149.187 Y88.426 E.0704
G1 X148.23 Y89.755 E.07111
G1 X147.268 Y90.961 E.06693
G1 X146.309 Y92.053 E.06311
G1 X145.242 Y93.161 E.06679
G1 X144.06 Y94.272 E.07042
G1 X142.926 Y95.238 E.06463
G1 X141.655 Y96.22 E.06974
G1 X140.323 Y97.145 E.07038
G1 X138.932 Y98.01 E.0711
G1 X137.584 Y98.758 E.06693
G1 X136.267 Y99.409 E.0638
G1 X134.854 Y100.027 E.06693
G1 X133.337 Y100.603 E.07042
G1 X131.94 Y101.058 E.0638
G1 X130.39 Y101.482 E.06973
G1 X128.807 Y101.829 E.07038
G1 X127.207 Y102.097 E.0704
G1 X125.679 Y102.275 E.06679
G1 X124.041 Y102.384 E.07126
G1 X122.571 Y102.41 E.06379
G1 X121.03 Y102.365 E.06693
G1 X119.429 Y102.24 E.0697
G1 X117.955 Y102.052 E.06451
G1 X116.357 Y101.769 E.07045
G1 X114.855 Y101.426 E.06688
G1 X113.232 Y100.968 E.07322
G1 X111.681 Y100.442 E.07108
G1 X110.248 Y99.875 E.06691
G1 X108.786 Y99.212 E.06968
G1 X107.33 Y98.461 E.07113
G1 X105.942 Y97.653 E.0697
G1 X104.775 Y96.898 E.06031
G1 X103.442 Y95.945 E.07114
G1 X102.173 Y94.935 E.07041
G1 X101.081 Y93.976 E.0631
G1 X99.971 Y92.906 E.0669
G1 X98.86 Y91.724 E.07042
G1 X97.896 Y90.593 E.06452
G1 X96.952 Y89.373 E.06693
G1 X96.034 Y88.057 E.06968
G1 X95.165 Y86.668 E.07113
G1 X94.376 Y85.25 E.07041
G1 X93.725 Y83.933 E.0638
G1 X93.107 Y82.52 E.06693
G1 X92.531 Y81.004 E.07042
G1 X92.076 Y79.606 E.0638
G1 X91.652 Y78.056 E.06974
G1 X91.305 Y76.473 E.07037
G1 X91.037 Y74.873 E.07041
G1 X90.859 Y73.342 E.06689
G1 X90.75 Y71.707 E.07114
G1 X90.724 Y70.238 E.06379
G1 X90.769 Y68.697 E.06693
G1 X90.894 Y67.096 E.0697
G1 X91.082 Y65.621 E.06452
G1 X91.342 Y64.142 E.06519
G1 X91.784 Y64.22 F18000
G1 F1500
G1 X91.789 Y64.188 E.0014
G1 X92.144 Y62.628 E.06944
G1 X92.575 Y61.095 E.06912
G1 X93.077 Y59.602 E.06838
G1 X93.616 Y58.223 E.06426
G1 X94.164 Y56.987 E.05873
G1 X94.889 Y55.541 E.07018
G1 X95.669 Y54.163 E.06875
G1 X96.535 Y52.8 E.0701
G1 X97.394 Y51.584 E.06464
G1 X98.294 Y50.43 E.06353
G1 X99.348 Y49.205 E.07015
G1 X100.452 Y48.047 E.06946
G1 X101.553 Y47.001 E.06594
G1 X102.747 Y45.973 E.06838
G1 X103.909 Y45.067 E.06394
G1 X105.204 Y44.154 E.06879
G1 X106.479 Y43.346 E.06555
G1 X107.746 Y42.624 E.06329
G1 X109.173 Y41.9 E.06946
G1 X110.634 Y41.25 E.06941
G1 X112.12 Y40.677 E.06915
G1 X113.561 Y40.201 E.06586
G1 X114.965 Y39.809 E.06328
G1 X116.541 Y39.452 E.07015
G1 X118.101 Y39.18 E.06875
G1 X119.688 Y38.986 E.06938
G1 X121.292 Y38.871 E.06981
G1 X122.876 Y38.839 E.06876
G1 X124.267 Y38.876 E.0604
G1 X125.863 Y38.994 E.0695
G1 X127.371 Y39.181 E.06593
G1 X128.946 Y39.456 E.06944
G1 X130.506 Y39.81 E.06941
G1 X132.039 Y40.241 E.06913
G1 X133.539 Y40.746 E.06873
G1 X134.906 Y41.28 E.06371
G1 X136.293 Y41.899 E.06591
G1 X137.6 Y42.559 E.06353
G1 X138.97 Y43.335 E.06838
G1 X140.321 Y44.192 E.06944
G1 X141.556 Y45.065 E.06569
G1 X142.704 Y45.96 E.06317
G1 X143.917 Y47.003 E.06945
G1 X145.088 Y48.12 E.07022
G1 X146.176 Y49.267 E.06863
G1 X147.222 Y50.489 E.06981
G1 X148.156 Y51.695 E.06625
G1 X149.058 Y52.988 E.06842
G1 X149.915 Y54.358 E.07014
G1 X150.693 Y55.756 E.06945
G1 X151.338 Y57.06 E.06315
G1 X151.944 Y58.447 E.06571
G1 X152.513 Y59.943 E.06947
G1 X152.963 Y61.326 E.06314
G1 X153.38 Y62.855 E.06879
G1 X153.722 Y64.409 E.06909
G1 X153.986 Y65.987 E.06944
G1 X154.162 Y67.495 E.06593
G1 X154.269 Y69.109 E.07019
G1 X154.295 Y70.557 E.06287
G1 X154.251 Y72.083 E.06628
G1 X154.127 Y73.662 E.06874
G1 X153.941 Y75.115 E.06358
G1 X153.662 Y76.691 E.06949
G1 X153.324 Y78.172 E.06593
G1 X152.891 Y79.712 E.06944
G1 X152.386 Y81.211 E.0687
G1 X151.806 Y82.686 E.0688
G1 X151.198 Y84.035 E.06421
G1 X150.478 Y85.447 E.06878
G1 X149.681 Y86.832 E.06939
G1 X148.818 Y88.17 E.06911
G1 X147.874 Y89.482 E.07013
G1 X146.926 Y90.67 E.066
G1 X145.977 Y91.752 E.06247
G1 X144.929 Y92.84 E.06557
G1 X143.763 Y93.936 E.06947
G1 X142.641 Y94.892 E.06397
G1 X141.387 Y95.86 E.06878
G1 X140.08 Y96.768 E.06909
G1 X138.708 Y97.621 E.07013
G1 X137.378 Y98.359 E.06599
G1 X136.074 Y99.004 E.06316
G1 X134.681 Y99.613 E.066
G1 X133.191 Y100.179 E.06918
G1 X131.808 Y100.629 E.06315
G1 X130.279 Y101.047 E.06878
G1 X128.725 Y101.388 E.06909
G1 X127.147 Y101.652 E.06943
G1 X125.641 Y101.828 E.06582
G1 X124.025 Y101.936 E.0703
G1 X122.577 Y101.962 E.06287
G1 X121.051 Y101.917 E.06628
G1 X119.472 Y101.793 E.06875
G1 X118.019 Y101.608 E.06357
G1 X116.443 Y101.329 E.0695
G1 X114.963 Y100.99 E.06592
G1 X113.368 Y100.54 E.07192
G1 X111.839 Y100.022 E.0701
G1 X110.426 Y99.463 E.06595
G1 X108.978 Y98.807 E.069
G1 X107.548 Y98.069 E.06985
G1 X106.179 Y97.272 E.06876
G1 X105.03 Y96.529 E.05939
G1 X103.716 Y95.589 E.07017
G1 X102.463 Y94.592 E.06946
G1 X101.382 Y93.643 E.06246
G1 X100.293 Y92.593 E.06568
G1 X99.197 Y91.427 E.06947
G1 X98.242 Y90.307 E.06387
G1 X97.312 Y89.105 E.066
G1 X96.41 Y87.812 E.06842
G1 X95.553 Y86.442 E.07014
G1 X94.775 Y85.044 E.06945
G1 X94.13 Y83.74 E.06315
G1 X93.521 Y82.348 E.066
G1 X92.955 Y80.858 E.06918
G1 X92.505 Y79.475 E.06314
G1 X92.087 Y77.946 E.06879
G1 X91.746 Y76.391 E.06909
G1 X91.482 Y74.813 E.06944
G1 X91.306 Y73.305 E.06593
G1 X91.198 Y71.692 E.07019
G1 X91.173 Y70.243 E.06287
G1 X91.217 Y68.717 E.06628
G1 X91.34 Y67.145 E.06846
G1 X91.526 Y65.685 E.06387
G1 X91.777 Y64.259 E.06285
G1 X92.219 Y64.337 F18000
G1 F1500
G1 X92.23 Y64.273 E.0028
G1 X92.578 Y62.742 E.06817
G1 X93.003 Y61.231 E.06814
G1 X93.497 Y59.758 E.06742
G1 X94.031 Y58.393 E.06363
G1 X94.571 Y57.175 E.05784
G1 X95.286 Y55.75 E.06923
G1 X96.055 Y54.391 E.06776
G1 X96.909 Y53.047 E.06912
G1 X97.752 Y51.854 E.06342
G1 X98.643 Y50.711 E.06288
G1 X99.678 Y49.509 E.06888
G1 X100.771 Y48.362 E.06877
G1 X101.857 Y47.331 E.06498
G1 X103.034 Y46.318 E.06743
G1 X104.179 Y45.426 E.063
G1 X105.456 Y44.525 E.06785
G1 X106.708 Y43.732 E.06434
G1 X107.962 Y43.018 E.06264
G1 X109.369 Y42.304 E.0685
G1 X110.809 Y41.663 E.06842
G1 X112.268 Y41.1 E.06788
G1 X113.688 Y40.631 E.06492
G1 X115.078 Y40.244 E.06263
G1 X116.632 Y39.891 E.06919
G1 X118.171 Y39.624 E.06777
G1 X119.735 Y39.432 E.0684
G1 X121.309 Y39.32 E.06853
G1 X122.878 Y39.288 E.06809
G1 X124.247 Y39.324 E.05948
G1 X125.822 Y39.441 E.06857
G1 X127.308 Y39.625 E.06497
G1 X128.861 Y39.896 E.06846
G1 X130.392 Y40.244 E.06813
G1 X131.903 Y40.669 E.06814
G1 X133.383 Y41.166 E.06777
G1 X134.73 Y41.693 E.06278
G1 X136.097 Y42.303 E.06499
G1 X137.391 Y42.956 E.06288
G1 X138.742 Y43.721 E.06742
G1 X140.073 Y44.567 E.06846
G1 X141.286 Y45.424 E.06447
G1 X142.423 Y46.309 E.06252
G1 X143.619 Y47.338 E.06849
G1 X144.773 Y48.439 E.06923
G1 X145.845 Y49.57 E.06765
G1 X146.872 Y50.769 E.06854
G1 X147.796 Y51.964 E.06557
G1 X148.682 Y53.233 E.06715
G1 X149.526 Y54.583 E.06915
G1 X150.294 Y55.962 E.06849
G1 X150.932 Y57.252 E.0625
G1 X151.528 Y58.613 E.06449
G1 X152.089 Y60.089 E.06852
G1 X152.534 Y61.457 E.06248
G1 X152.944 Y62.959 E.06754
G1 X153.281 Y64.491 E.06811
G1 X153.541 Y66.047 E.06846
G1 X153.714 Y67.533 E.06496
G1 X153.821 Y69.125 E.06924
G1 X153.846 Y70.551 E.06194
G1 X153.802 Y72.062 E.06562
G1 X153.68 Y73.619 E.06779
G1 X153.497 Y75.05 E.06263
G1 X153.222 Y76.605 E.06854
G1 X152.888 Y78.064 E.06497
G1 X152.461 Y79.582 E.06846
G1 X151.966 Y81.055 E.06742
G1 X151.394 Y82.509 E.06785
G1 X150.792 Y83.844 E.06355
G1 X150.082 Y85.236 E.06783
G1 X149.296 Y86.601 E.06841
G1 X148.449 Y87.915 E.06783
G1 X147.519 Y89.208 E.06916
G1 X146.584 Y90.38 E.06507
G1 X145.645 Y91.451 E.06183
G1 X144.616 Y92.518 E.06436
G1 X143.466 Y93.599 E.06852
G1 X142.356 Y94.545 E.06331
G1 X141.119 Y95.5 E.06782
G1 X139.836 Y96.391 E.06781
G1 X138.483 Y97.233 E.06915
G1 X137.173 Y97.96 E.06506
G1 X135.882 Y98.599 E.06252
G1 X134.508 Y99.199 E.06507
G1 X133.045 Y99.755 E.06794
G1 X131.676 Y100.2 E.06249
G1 X130.176 Y100.61 E.06754
G1 X128.643 Y100.947 E.06811
G1 X127.087 Y101.207 E.06846
G1 X125.603 Y101.381 E.06486
G1 X124.009 Y101.487 E.06935
G1 X122.583 Y101.513 E.06194
G1 X121.072 Y101.469 E.06562
G1 X119.515 Y101.346 E.06779
G1 X118.084 Y101.164 E.06263
G1 X116.529 Y100.888 E.06854
G1 X115.07 Y100.555 E.06495
G1 X113.504 Y100.113 E.07063
G1 X111.996 Y99.602 E.06912
G1 X110.604 Y99.051 E.06499
G1 X109.177 Y98.404 E.06802
G1 X107.767 Y97.677 E.06886
G1 X106.417 Y96.891 E.06782
G1 X105.285 Y96.16 E.05847
G1 X103.989 Y95.232 E.06921
G1 X102.754 Y94.25 E.0685
G1 X101.683 Y93.311 E.06181
G1 X100.614 Y92.28 E.06446
G1 X99.533 Y91.13 E.06852
G1 X98.592 Y90.027 E.06294
G1 X97.671 Y88.836 E.06534
G1 X96.786 Y87.568 E.06716
G1 X95.941 Y86.217 E.06915
G1 X95.174 Y84.839 E.06849
G1 X94.535 Y83.548 E.0625
G1 X93.935 Y82.175 E.06507
G1 X93.379 Y80.712 E.06794
G1 X92.934 Y79.343 E.06248
G1 X92.524 Y77.842 E.06754
G1 X92.187 Y76.309 E.06811
G1 X91.927 Y74.754 E.06846
G1 X91.753 Y73.267 E.06496
G1 X91.647 Y71.676 E.06924
G1 X91.621 Y70.249 E.06194
G1 X91.665 Y68.738 E.06562
G1 X91.786 Y67.194 E.06723
G1 X91.97 Y65.749 E.06322
G1 X92.212 Y64.376 E.06052
G1 X92.654 Y64.454 F18000
G1 F1500
G1 X92.67 Y64.359 E.0042
G1 X93.012 Y62.856 E.06691
G1 X93.43 Y61.366 E.06716
G1 X93.918 Y59.915 E.06647
G1 X94.446 Y58.563 E.06299
G1 X94.978 Y57.364 E.05695
G1 X95.684 Y55.958 E.06829
G1 X96.442 Y54.619 E.06677
G1 X97.284 Y53.295 E.06814
G1 X98.111 Y52.124 E.06221
G1 X98.992 Y50.993 E.06222
G1 X100.013 Y49.808 E.06792
G1 X101.091 Y48.678 E.06779
G1 X102.16 Y47.662 E.06402
G1 X103.321 Y46.663 E.06647
G1 X104.448 Y45.784 E.06206
G1 X105.708 Y44.897 E.0669
G1 X106.937 Y44.118 E.06312
G1 X108.177 Y43.411 E.06199
G1 X109.565 Y42.708 E.06753
G1 X110.984 Y42.076 E.06744
G1 X112.416 Y41.524 E.06662
G1 X113.822 Y41.059 E.06427
G1 X115.191 Y40.678 E.0617
G1 X116.724 Y40.331 E.06822
G1 X118.24 Y40.067 E.06678
G1 X119.781 Y39.878 E.06741
G1 X121.326 Y39.768 E.06725
G1 X122.879 Y39.736 E.06742
G1 X124.228 Y39.772 E.05856
G1 X125.782 Y39.888 E.06763
G1 X127.245 Y40.069 E.06401
G1 X128.776 Y40.337 E.06749
G1 X130.285 Y40.68 E.06715
G1 X131.768 Y41.097 E.06687
G1 X133.227 Y41.587 E.06682
G1 X134.554 Y42.106 E.06185
G1 X135.902 Y42.707 E.06407
G1 X137.182 Y43.353 E.06223
G1 X138.514 Y44.108 E.06647
G1 X139.826 Y44.941 E.06749
G1 X141.017 Y45.782 E.06325
G1 X142.141 Y46.658 E.06187
G1 X143.32 Y47.673 E.06753
G1 X144.457 Y48.758 E.06824
G1 X145.514 Y49.873 E.06666
G1 X146.522 Y51.05 E.06727
G1 X147.437 Y52.232 E.0649
G1 X148.305 Y53.477 E.06589
G1 X149.138 Y54.808 E.06816
G1 X149.895 Y56.167 E.06752
G1 X150.527 Y57.445 E.06185
G1 X151.111 Y58.78 E.06327
G1 X151.664 Y60.235 E.06757
G1 X152.105 Y61.589 E.06182
G1 X152.509 Y63.069 E.06659
G1 X152.839 Y64.573 E.06683
G1 X153.096 Y66.106 E.06749
G1 X153.267 Y67.571 E.064
G1 X153.372 Y69.14 E.06828
G1 X153.398 Y70.546 E.06101
G1 X153.354 Y72.041 E.06496
G1 X153.233 Y73.576 E.06683
G1 X153.053 Y74.986 E.06169
G1 X152.781 Y76.519 E.06759
G1 X152.453 Y77.957 E.064
G1 X152.031 Y79.453 E.06749
G1 X151.543 Y80.904 E.06645
G1 X150.982 Y82.332 E.0666
G1 X150.386 Y83.653 E.06289
G1 X149.686 Y85.025 E.06687
G1 X148.915 Y86.365 E.06713
G1 X148.08 Y87.659 E.06684
G1 X147.163 Y88.934 E.06818
G1 X146.242 Y90.09 E.06413
G1 X145.312 Y91.149 E.06119
G1 X144.303 Y92.196 E.06314
G1 X143.169 Y93.263 E.06757
G1 X142.071 Y94.199 E.06264
G1 X140.857 Y95.136 E.06657
G1 X139.592 Y96.015 E.06683
G1 X138.259 Y96.844 E.06818
G1 X136.967 Y97.561 E.06412
