; HEADER_BLOCK_START
; generated by AnycubicSlicerNext 1.3.3.1 on 2025-03-18 at 20:42:23
; total layer number: 60
; filament_density: 1.24
; filament_diameter: 1.75
; max_z_height: 12.04
; exclude_object: 0
; model_instances: 1
; HEADER_BLOCK_END

; THUMBNAIL_BLOCK_START
; THUMBNAIL_BLOCK_END

; external perimeters extrusion width = 0.42mm
; perimeters extrusion width = 0.45mm
; infill extrusion width = 0.45mm
; solid infill extrusion width = 0.42mm
; top infill extrusion width = 0.42mm
; support material extrusion width = 0.40mm
; first layer extrusion width = 0.50mm

; EXECUTABLE_BLOCK_START
M201 X2000 Y2000 Z800 E2000
M203 X300 Y300 Z8 E100
M204 P2000 R2000 T2000
M205 X10.00 Y10.00 Z2.00 E5.00 ; sets the jerk limits, mm/sec
;TYPE:Custom
G90 ; use absolute coordinates
M83 ; extruder relative mode
M104 S220 ; set extruder temp
M140 S60 ; set bed temp
M190 S60 ; wait for bed temp
M109 S220 ; wait for extruder temp
G28                                        ; move X/Y/Z to min endstops
G1 Z0.28                                   ; lift nozzle a bit 
G92 E0 
G1 Y3 F1800                                    ; zero the extruded length 
G1 X60  E25 F500                       ; Extrude 25mm of filament in a 5cm line. 
G92 E0                                     ; zero the extruded length again 
G1 E-2 F500                                ; Retract a little 
G1 X70 F4000                              ; Quickly wipe away from the filament line
M117
G90
G21
M83 ; use relative distances for extrusion
; filament start gcode
M106 S0
;LAYER_CHANGE
;Z:0.24
;HEIGHT:0.24
; BEFORE_LAYER_CHANGE 0 @ 0.24mm
G92 E0
G1 E-2.5 F6000
; AFTER_LAYER_CHANGE 0 @ 0.24mm
M204 P500
; printing object "cycloidCover.stl" id:2196748314624 copy 0
M204 T500
G1 X86.426 Y92.494 F18000
G1 Z.24
G1 E2.5 F6000
;TYPE:Support
;WIDTH:0.5
;MM3_PER_MM:0.107639
G1 F1500
G3 X83.304 Y97.449 I-.802 J2.956 E.49677
G3 X86.361 Y92.479 I21.033 J9.512 E.25396
G1 X88.074 Y96.964 F18000
G1 F1500
G1 X88.074 Y94.415 E.11063
G2 X87.575 Y93.649 I-1.517 J.441 E.04028
G1 X87.575 Y97.257 E.15665
G3 X87.077 Y97.683 I-1.029 J-.701 E.02878
G1 X87.077 Y93.227 E.19342
G2 X86.579 Y92.959 I-.757 J.811 E.02483
G1 X86.579 Y97.95 E.21664
G1 X86.08 Y98.077 E.02233
G1 X86.08 Y93.435 E.20148
G2 X85.582 Y94.178 I26.044 J18.018 E.03882
G1 X85.582 Y98.108 E.17059
G3 X85.084 Y98.075 I-.195 J-.84 E.02199
G1 X85.084 Y94.976 E.13453
G2 X84.585 Y97.9 I3.26 J2.06 E.13217
G3 X84.087 Y97.627 I.928 J-2.29 E.02471
G1 X84.087 Y96.33 E.05631
G1 E-1.75 F6000
;WIPE_START
G1 F1500
G1 X84.087 Y97.33 E-.75
;WIPE_END
G1 X86.073 Y120.989 F18000
G1 E2.5 F6000
G1 F1500
G3 X85.815 Y126.891 I-.748 J2.924 E.35741
G3 X83.003 Y121.891 I24.621 J-17.133 E.24941
G3 X86.007 Y120.974 I2.287 J2.116 E.14288
G1 X87.575 Y125.667 F18000
G1 F1500
G1 X87.575 Y122.596 E.13333
G2 X87.077 Y121.98 I-1.268 J.516 E.0349
G1 X87.077 Y125.918 E.17096
G3 X86.579 Y126.268 I-1.685 J-1.874 E.02648
G1 X86.579 Y121.633 E.20117
G2 X86.08 Y121.412 I-.668 J.832 E.02394
G1 X86.033 Y126.496 E.22072
G3 X85.582 Y125.821 I24.105 J-16.589 E.03522
G1 X85.582 Y121.291 E.19665
G2 X85.084 Y121.301 I-.232 J.913 E.0219
G1 X85.084 Y125.024 E.16164
G3 X84.585 Y124.166 I53.087 J-31.393 E.04309
G1 X84.585 Y121.379 E.12096
G1 X84.087 Y121.554 E.02293
G1 X84.087 Y123.232 E.07282
G3 X83.589 Y121.647 I2.796 J-1.75 E.07291
G1 E-1.75 F6000
;WIPE_START
G1 F1500
G1 X83.589 Y122.204 E-.41789
G1 X83.782 Y122.603 E-.33211
;WIPE_END
G1 X110.467 Y135.421 F18000
G1 E2.5 F6000
G1 F1500
G3 X112.575 Y139.387 I-1.021 J3.086 E.21521
G3 X106.75 Y139.319 I-2.564 J-30.069 E.25325
G3 X110.401 Y135.407 I2.956 J-.902 E.28089
G1 X111.993 Y139.229 F18000
G1 F1500
G1 X111.993 Y137.087 E.09297
G2 X111.495 Y136.442 I-1.315 J.502 E.03588
G1 X111.495 Y139.057 E.11351
G3 X110.997 Y139.079 I-1.059 J-18.683 E.02165
G1 X110.997 Y136.082 E.1301
G2 X110.498 Y135.851 I-.686 J.83 E.0241
G1 X110.498 Y139.092 E.14066
G3 X110 Y139.095 I-.35 J-14.943 E.02163
G1 X110 Y135.729 E.14613
G2 X109.502 Y135.731 I-.246 J.908 E.02189
G1 X109.502 Y139.092 E.14589
G3 X109.003 Y139.079 I.242 J-18.714 E.02164
G1 X109.003 Y135.801 E.14227
G1 X108.505 Y135.976 E.02292
G1 X108.505 Y139.057 E.13377
G3 X108.007 Y139.028 I2.61 J-48.362 E.02167
G1 X108.007 Y136.308 E.11808
G2 X107.508 Y136.824 I1.333 J1.785 E.03129
G1 X107.508 Y138.989 E.09396
G3 X107.01 Y138.613 I-.144 J-.327 E.03294
G1 X107.01 Y137.302 E.05689
G1 E-1.75 F6000
;WIPE_START
G1 F1500
G1 X107.01 Y138.302 E-.75
;WIPE_END
G1 X135.309 Y121.346 F18000
G1 E2.5 F6000
G1 F1500
G3 X136.766 Y122.403 I-.371 J2.044 E.08083
G3 X133.877 Y127.323 I-27.474 J-12.822 E.24806
G3 X135.243 Y121.331 I.637 J-3.007 E.42326
G1 X135.913 Y123.671 F18000
G1 F1500
G1 X135.913 Y122.051 E.07029
G2 X135.415 Y121.798 I-.73 J.818 E.02454
G1 X135.415 Y124.165 E.10276
G3 X134.916 Y125.025 I-32.612 J-18.337 E.04312
G1 X134.916 Y121.671 E.1456
G2 X134.418 Y121.652 I-.283 J.898 E.02191
G1 X134.418 Y125.82 E.18093
G3 X133.92 Y126.566 I-22.744 J-14.655 E.03894
G1 X133.92 Y121.699 E.21126
G1 X133.421 Y121.874 E.02292
G1 X133.421 Y126.736 E.21105
G3 X132.923 Y126.443 I.976 J-2.231 E.02515
G1 X132.923 Y122.178 E.18516
G2 X132.425 Y122.644 I.765 J1.317 E.02987
G1 X132.425 Y125.947 E.1434
G3 X131.926 Y124.959 I1.898 J-1.577 E.04844
G1 X131.926 Y123.063 E.08232
G1 E-1.75 F6000
;WIPE_START
G1 F1500
G1 X131.926 Y124.063 E-.75
;WIPE_END
G1 X134.016 Y92.868 F18000
G1 E2.5 F6000
G1 F1500
G3 X136.755 Y97.576 I-24.087 J17.169 E.23675
G3 X133.791 Y92.56 I-2.296 J-2.027 E.50117
G1 X133.976 Y92.814 E.01366
G1 X135.913 Y98.021 F18000
G1 F1500
G1 X135.913 Y96.768 E.0544
G2 X135.415 Y95.837 I-42.789 J22.299 E.04585
G1 X135.415 Y98.058 E.09645
G3 X134.916 Y98.19 I-1.332 J-4.021 E.02239
G1 X134.916 Y94.975 E.13956
G2 X134.418 Y94.178 I-54.28 J33.385 E.0408
G1 X134.418 Y98.226 E.1757
G3 X133.92 Y98.198 I-.203 J-.84 E.02198
G1 X133.91 Y93.419 E.20744
G2 X133.421 Y93.117 I-.314 J-.039 E.03129
G1 X133.421 Y98.024 E.21303
G3 X132.923 Y97.758 I.306 J-1.171 E.02477
G1 X132.923 Y93.383 E.1899
G2 X132.425 Y93.843 I1.604 J2.237 E.02952
G1 X132.425 Y97.297 E.14995
G3 X131.926 Y96.435 I1.874 J-1.658 E.04352
G1 X131.926 Y94.188 E.09755
G1 E-1.75 F6000
;WIPE_START
G1 F1500
G1 X131.926 Y95.188 E-.75
;WIPE_END
G1 X110.541 Y80.505 F18000
G1 E2.5 F6000
G1 F1500
G3 X112.54 Y80.718 I.384 J5.884 E.0877
G3 X106.667 Y80.689 I-2.941 J.889 E.49861
G3 X110.474 Y80.504 I3.335 J29.401 E.16556
G1 X111.993 Y83.203 F18000
G1 F1500
G1 X111.993 Y80.973 E.09683
G2 X111.495 Y80.943 I-1.124 J14.95 E.02167
G1 X111.495 Y83.46 E.10926
G3 X110.997 Y83.869 I-.999 J-.709 E.02832
G1 X110.997 Y80.921 E.12798
G2 X110.498 Y80.908 I-1.239 J38.421 E.02164
G1 X110.498 Y84.122 E.13952
G1 X110 Y84.25 E.02233
G1 X110 Y80.904 E.14523
G2 X109.502 Y80.908 I-.01 J30.841 E.02163
G1 X109.502 Y84.27 E.14593
G3 X109.003 Y84.226 I-.176 J-.846 E.02203
G1 X109.003 Y80.921 E.14344
G2 X108.505 Y80.943 I.546 J18.68 E.02165
G1 X108.505 Y84.052 E.13496
G3 X108.007 Y83.763 I.985 J-2.278 E.02505
G1 X108.007 Y80.972 E.12117
G2 X107.508 Y81.012 I.935 J14.977 E.0217
G1 X107.508 Y83.273 E.09816
G3 X107.01 Y80.855 I2.242 J-1.722 E.11089
G1 E-1.75 F6000
;WIPE_START
G1 F1500
G1 X107.01 Y81.855 E-.75
;WIPE_END
G1 X105.94 Y69.926 F18000
G1 E2.5 F6000
;TYPE:Brim
G1 F1500
G1 X107.035 Y69.819 E.04776
G1 X108.18 Y69.751 E.04979
G1 X109.05 Y69.721 E.0378
G1 X110.635 Y69.714 E.0688
G1 X111.968 Y69.758 E.0579
G1 X112.865 Y69.812 E.03902
G1 X114.008 Y69.909 E.04976
G1 X114.873 Y70.005 E.03781
G1 X116.518 Y70.24 E.07211
G1 X118.442 Y70.604 E.08501
G1 X120.041 Y70.981 E.07131
G1 X120.906 Y71.214 E.0389
G1 X122.328 Y71.642 E.06444
G1 X124.236 Y72.308 E.08773
G1 X125.566 Y72.838 E.06214
G1 X127.342 Y73.633 E.0845
G1 X129.121 Y74.536 E.08657
G1 X130.759 Y75.469 E.08184
G1 X131.658 Y76.025 E.0459
G1 X132.469 Y76.557 E.0421
G1 X134.05 Y77.675 E.08403
G1 X134.823 Y78.264 E.04222
G1 X135.705 Y78.975 E.04915
G1 X137.062 Y80.151 E.07796
G1 X138.143 Y81.168 E.06444
G1 X138.83 Y81.855 E.04217
G1 X139.848 Y82.936 E.06444
G1 X140.442 Y83.606 E.03887
G1 X141.588 Y84.99 E.07803
G1 X142.288 Y85.899 E.04978
G1 X142.844 Y86.663 E.04103
G1 X143.933 Y88.278 E.08454
G1 X144.53 Y89.24 E.04915
G1 X144.978 Y90.003 E.03841
G1 X145.875 Y91.661 E.08181
G1 X146.345 Y92.611 E.046
G1 X146.806 Y93.61 E.04776
G1 X147.498 Y95.263 E.0778
G1 X147.899 Y96.324 E.04924
G1 X148.213 Y97.229 E.04158
G1 X148.785 Y99.089 E.08448
G1 X149.252 Y100.913 E.0817
G1 X149.643 Y102.806 E.08393
G1 X149.905 Y104.443 E.07196
G1 X150.134 Y106.452 E.08776
G1 X150.267 Y108.612 E.09396
G1 X150.288 Y110.485 E.08132
G1 X150.237 Y112.068 E.06872
G1 X150.182 Y112.95 E.03837
G1 X150.083 Y114.08 E.04924
G1 X149.832 Y116.061 E.08669
G1 X149.659 Y117.103 E.04586
G1 X149.474 Y118.071 E.04277
G1 X149.081 Y119.799 E.07694
G1 X148.809 Y120.824 E.046
G1 X148.533 Y121.768 E.04271
G1 X148.27 Y122.6 E.03787
G1 X147.895 Y123.684 E.0498
G1 X147.366 Y125.07 E.06438
G1 X147.016 Y125.91 E.03952
G1 X146.144 Y127.803 E.09047
G1 X145.464 Y129.121 E.06437
G1 X145.03 Y129.906 E.03892
G1 X144.448 Y130.896 E.04985
G1 X143.989 Y131.635 E.03777
G1 X142.987 Y133.133 E.07824
G1 X142.318 Y134.059 E.04959
G1 X141.745 Y134.81 E.04101
G1 X140.51 Y136.315 E.0845
G1 X139.256 Y137.702 E.08117
G1 X137.992 Y138.979 E.07798
G1 X137.064 Y139.847 E.05518
G1 X136.393 Y140.442 E.0389
G1 X135.127 Y141.495 E.07151
G1 X134.121 Y142.272 E.0552
G1 X133.396 Y142.801 E.03892
G1 X132.463 Y143.448 E.04931
G1 X130.886 Y144.455 E.08122
G1 X129.974 Y144.991 E.04591
G1 X128.339 Y145.875 E.08068
G1 X127.389 Y146.345 E.046
G1 X126.383 Y146.809 E.04812
G1 X124.654 Y147.531 E.08133
G1 X123.664 Y147.903 E.0459
G1 X122.604 Y148.268 E.04866
G1 X120.826 Y148.809 E.08068
G1 X119.801 Y149.08 E.04601
G1 X118.857 Y149.305 E.04211
G1 X116.947 Y149.687 E.08459
G1 X116.014 Y149.839 E.04101
G1 X114.963 Y149.984 E.04604
G1 X114.01 Y150.091 E.04164
G1 X112.955 Y150.182 E.046
G1 X111.085 Y150.276 E.08128
G1 X109.153 Y150.281 E.08386
G1 X108.019 Y150.242 E.04922
G1 X107.049 Y150.182 E.04221
G1 X105.126 Y149.994 E.08388
G1 X103.482 Y149.76 E.07206
G1 X101.497 Y149.383 E.08772
G1 X100.055 Y149.044 E.06428
G1 X99.19 Y148.813 E.03889
G1 X97.613 Y148.339 E.07147
G1 X95.706 Y147.67 E.08774
G1 X94.525 Y147.2 E.05517
G1 X93.699 Y146.845 E.03903
G1 X92.657 Y146.367 E.04974
G1 X91.664 Y145.876 E.04811
G1 X90.093 Y145.029 E.07746
G1 X89.242 Y144.532 E.04279
G1 X88.343 Y143.975 E.04591
G1 X86.871 Y142.99 E.0769
G1 X85.951 Y142.326 E.04924
G1 X85.178 Y141.736 E.04222
G1 X83.685 Y140.51 E.08387
G1 X82.352 Y139.307 E.07792
G1 X81.169 Y138.144 E.072
G1 X80.086 Y136.99 E.06873
G1 X79.493 Y136.318 E.03889
G1 X78.638 Y135.293 E.05793
G1 X77.409 Y133.689 E.08774
G1 X76.559 Y132.473 E.06438
G1 X76.068 Y131.723 E.03893
G1 X75.47 Y130.76 E.04921
G1 X75.022 Y129.997 E.03841
G1 X74.125 Y128.339 E.08181
G1 X73.655 Y127.389 E.046
G1 X73.194 Y126.39 E.04776
G1 X72.502 Y124.737 E.07781
G1 X72.101 Y123.676 E.04924
G1 X71.787 Y122.771 E.04158
G1 X71.215 Y120.911 E.08449
G1 X70.748 Y119.087 E.0817
G1 X70.357 Y117.194 E.08391
G1 X70.066 Y115.349 E.08108
G1 X69.866 Y113.549 E.07861
G1 X69.763 Y112.07 E.06439
G1 X69.727 Y111.175 E.03888
G1 X69.712 Y109.515 E.07205
G1 X69.763 Y107.932 E.06874
G1 X69.818 Y107.05 E.03837
G1 X69.917 Y105.92 E.04924
G1 X70.168 Y103.939 E.08669
G1 X70.341 Y102.897 E.04586
G1 X70.526 Y101.929 E.04276
G1 X70.919 Y100.201 E.07695
G1 X71.191 Y99.176 E.046
G1 X71.467 Y98.232 E.04271
G1 X71.73 Y97.4 E.03787
G1 X72.105 Y96.316 E.0498
G1 X72.634 Y94.93 E.06438
G1 X72.984 Y94.09 E.03953
G1 X73.856 Y92.197 E.09047
G1 X74.536 Y90.879 E.06437
G1 X74.97 Y90.094 E.03893
G1 X75.552 Y89.104 E.04985
G1 X76.011 Y88.365 E.03778
G1 X77.013 Y86.867 E.07823
G1 X77.682 Y85.941 E.04959
G1 X78.255 Y85.19 E.04101
G1 X79.49 Y83.685 E.0845
G1 X80.744 Y82.298 E.08117
G1 X81.962 Y81.065 E.07524
G1 X83.336 Y79.795 E.08122
G1 X84.466 Y78.834 E.06439
G1 X85.166 Y78.273 E.03892
G1 X86.12 Y77.549 E.052
G1 X86.98 Y76.933 E.04595
G1 X88.467 Y75.946 E.07746
G1 X89.434 Y75.353 E.04925
G1 X90.201 Y74.91 E.03844
G1 X91.661 Y74.125 E.07196
G1 X92.995 Y73.474 E.06441
G1 X93.81 Y73.105 E.03887
G1 X95.474 Y72.419 E.07813
G1 X96.548 Y72.021 E.0497
G1 X98.313 Y71.442 E.08066
G1 X99.329 Y71.148 E.04591
G1 X101.134 Y70.697 E.08073
G1 X103.03 Y70.317 E.08396
G1 X104.16 Y70.135 E.04968
G1 X105.109 Y70.007 E.04156
G1 X105.9 Y69.93 E.0345
G1 X105.944 Y70.376 F18000
G1 F1500
G1 X107.067 Y70.266 E.04901
G1 X109.056 Y70.169 E.08644
G1 X110.631 Y70.163 E.06835
G1 X111.946 Y70.206 E.05709
G1 X112.831 Y70.259 E.03851
G1 X114.815 Y70.45 E.0865
G1 X116.447 Y70.683 E.0716
G1 X118.346 Y71.042 E.08387
G1 X119.933 Y71.416 E.07079
G1 X120.785 Y71.646 E.0383
G1 X122.186 Y72.068 E.06352
G1 X124.076 Y72.727 E.08689
G1 X125.394 Y73.252 E.06157
G1 X127.152 Y74.039 E.08363
G1 X128.911 Y74.932 E.08562
G1 X130.532 Y75.856 E.08098
G1 X131.416 Y76.403 E.04512
G1 X132.215 Y76.926 E.04147
G1 X133.786 Y78.038 E.08354
G1 X134.548 Y78.619 E.04158
G1 X135.415 Y79.317 E.04836
G1 X136.763 Y80.486 E.07743
G1 X137.829 Y81.489 E.06353
G1 X138.507 Y82.166 E.04158
G1 X139.515 Y83.237 E.06386
G1 X140.1 Y83.897 E.03824
G1 X141.239 Y85.272 E.07755
G1 X141.928 Y86.167 E.04899
G1 X142.475 Y86.919 E.04039
G1 X143.558 Y88.524 E.08404
G1 X144.586 Y90.222 E.08615
G1 X145.478 Y91.869 E.08133
G1 X145.941 Y92.806 E.04535
G1 X146.394 Y93.788 E.04697
G1 X147.081 Y95.426 E.0771
G1 X147.476 Y96.475 E.04867
G1 X147.786 Y97.366 E.04094
G1 X148.352 Y99.208 E.08363
G1 X148.816 Y101.017 E.08106
G1 X149.202 Y102.89 E.08302
G1 X149.461 Y104.507 E.07109
G1 X149.687 Y106.494 E.08683
G1 X149.818 Y108.625 E.09266
G1 X149.839 Y110.484 E.08068
G1 X149.789 Y112.051 E.06806
G1 X149.637 Y114.035 E.08638
G1 X149.388 Y115.999 E.08594
G1 X149.218 Y117.023 E.04505
G1 X149.034 Y117.981 E.04236
G1 X148.645 Y119.695 E.07627
G1 X148.378 Y120.702 E.04523
G1 X148.103 Y121.641 E.04247
G1 X147.473 Y123.533 E.08657
G1 X146.95 Y124.902 E.06359
G1 X146.606 Y125.728 E.03885
G1 X145.742 Y127.604 E.08966
G1 X145.067 Y128.913 E.06395
G1 X144.064 Y130.665 E.08765
G1 X143.611 Y131.394 E.03722
G1 X142.62 Y132.875 E.07736
G1 X141.959 Y133.791 E.04901
G1 X141.395 Y134.53 E.04037
G1 X140.172 Y136.019 E.08366
G1 X138.932 Y137.391 E.08027
G1 X137.678 Y138.659 E.07741
G1 X136.763 Y139.514 E.05436
G1 X136.103 Y140.1 E.03832
G1 X134.848 Y141.144 E.07083
G1 X133.848 Y141.916 E.05485
G1 X132.212 Y143.076 E.08706
G1 X130.649 Y144.073 E.08049
G1 X129.751 Y144.602 E.0452
G1 X128.135 Y145.475 E.07977
G1 X127.194 Y145.941 E.04556
G1 X126.205 Y146.398 E.04731
G1 X124.486 Y147.115 E.08083
G1 X123.51 Y147.482 E.04526
G1 X122.468 Y147.841 E.04785
G1 X120.701 Y148.378 E.08018
G1 X119.693 Y148.645 E.04523
G1 X118.764 Y148.866 E.04148
G1 X116.864 Y149.246 E.08409
G1 X115.944 Y149.396 E.04046
G1 X113.969 Y149.644 E.0864
G1 X112.926 Y149.734 E.04544
G1 X111.07 Y149.827 E.08071
G1 X109.157 Y149.833 E.08301
G1 X108.043 Y149.794 E.04841
G1 X107.087 Y149.735 E.04157
G1 X105.182 Y149.549 E.08307
G1 X103.553 Y149.317 E.07145
G1 X101.587 Y148.944 E.08685
G1 X100.167 Y148.609 E.06335
G1 X99.314 Y148.382 E.03829
G1 X97.755 Y147.914 E.07068
G1 X95.861 Y147.249 E.08715
G1 X94.698 Y146.786 E.05432
G1 X93.882 Y146.436 E.03852
G1 X92.852 Y145.963 E.04921
G1 X91.872 Y145.479 E.04746
G1 X90.311 Y144.637 E.07698
G1 X89.472 Y144.147 E.04218
G1 X88.588 Y143.599 E.04514
G1 X87.129 Y142.623 E.0762
G1 X86.22 Y141.967 E.04866
G1 X85.458 Y141.386 E.04158
G1 X83.98 Y140.172 E.08304
G1 X82.662 Y138.983 E.07706
G1 X81.488 Y137.829 E.07144
G1 X80.416 Y136.686 E.06801
