; HEADER_BLOCK_START
; generated by AnycubicSlicerNext 1.3.3.1 on 2025-03-14 at 04:56:29
; total layer number: 315
; filament_density: 1.24
; filament_diameter: 1.75
; max_z_height: 63.04
; exclude_object: 0
; model_instances: 1
; HEADER_BLOCK_END

; THUMBNAIL_BLOCK_START
; THUMBNAIL_BLOCK_END

; external perimeters extrusion width = 0.42mm
; perimeters extrusion width = 0.45mm
; infill extrusion width = 0.45mm
; solid infill extrusion width = 0.42mm
; top infill extrusion width = 0.42mm
; support material extrusion width = 0.40mm
; first layer extrusion width = 0.50mm

; EXECUTABLE_BLOCK_START
M201 X2000 Y2000 Z800 E2000
M203 X300 Y300 Z8 E100
M204 P2000 R2000 T2000
M205 X10.00 Y10.00 Z2.00 E5.00 ; sets the jerk limits, mm/sec
;TYPE:Custom
G90 ; use absolute coordinates
M83 ; extruder relative mode
M104 S220 ; set extruder temp
M140 S60 ; set bed temp
M190 S60 ; wait for bed temp
M109 S220 ; wait for extruder temp
G28                                        ; move X/Y/Z to min endstops
G1 Z0.28                                   ; lift nozzle a bit 
G92 E0 
G1 Y3 F1800                                    ; zero the extruded length 
G1 X60  E25 F500                       ; Extrude 25mm of filament in a 5cm line. 
G92 E0                                     ; zero the extruded length again 
G1 E-2 F500                                ; Retract a little 
G1 X70 F4000                              ; Quickly wipe away from the filament line
M117
G90
G21
M83 ; use relative distances for extrusion
; filament start gcode
M106 S0
;LAYER_CHANGE
;Z:0.24
;HEIGHT:0.24
; BEFORE_LAYER_CHANGE 0 @ 0.24mm
G92 E0
G1 E-2.5 F6000
; AFTER_LAYER_CHANGE 0 @ 0.24mm
M204 P500
; printing object "GelenkV1Head.stl" id:17077368312012210176 copy 0
M204 T500
G1 X104.759 Y81.868 F18000
G1 Z.24
G1 E2.5 F6000
;TYPE:Support
;WIDTH:0.5
;MM3_PER_MM:0.107639
G1 F3000
G3 X110.209 Y85.547 I-.306 J6.329 E.3001
G3 X118.753 Y88.98 I3.261 J4.233 E.48174
G3 X127.218 Y92.906 I3.126 J4.349 E.49172
G3 X131.917 Y99.723 I-.388 J5.296 E.41216
G3 X132.199 Y109.341 I-2.159 J4.877 E.52073
G3 X137.459 Y113.574 I-.504 J6.01 E.31105
G3 X131.902 Y120.755 I-5.507 J1.479 E.45592
G3 X126.265 Y127.352 I-5.421 J1.074 E.43311
G3 X120.191 Y132.716 I-5.475 J-.079 E.39597
G3 X115.977 Y134.685 I-4.363 J-3.842 E.20774
G3 X104.131 Y134.75 I-5.936 J-2.229 E.66387
G3 X100.867 Y132.288 I1.134 J-4.897 E.18275
G3 X93.604 Y127.082 I-1.872 J-5.058 E.45713
G3 X88.64 Y119.133 I-.369 J-5.294 E.4986
G3 X86.294 Y110.906 I1.487 J-4.872 E.44084
G3 X87.006 Y98.838 I1.775 J-5.95 E.72223
G3 X91.177 Y94.398 I5.333 J.831 E.28101
G3 X96.894 Y89.226 I5.454 J.283 E.37151
G3 X98.138 Y87.635 I5.298 J2.858 E.08809
G3 X104.692 Y81.865 I6.315 J.566 E.41808
G1 X109.737 Y88.102 F18000
G1 F3000
G3 X131.858 Y108.654 I.259 J21.902 E1.44614
G2 X131.827 Y111.785 I11.647 J1.683 E.13633
G3 X88.143 Y111.367 I-21.827 J-1.786 E2.84953
G2 X88.185 Y108.083 I-13.542 J-1.814 E.14294
G3 X109.67 Y88.103 I21.815 J1.917 E1.39559
G1 E-1.75 F6000
;WIPE_START
G1 F3000
G1 X108.676 Y88.21 E-.75
;WIPE_END
G1 X136.91 Y117.44 F18000
G1 E2.5 F6000
G1 F3000
G1 X136.91 Y113.16 E.18579
G2 X136.411 Y112.192 I-3.073 J.97 E.04749
G1 X136.411 Y117.917 E.24855
G3 X135.913 Y118.577 I-2.174 J-1.124 E.03607
G1 X135.913 Y111.532 E.30585
G2 X135.415 Y111.028 I-1.719 J1.201 E.03092
G1 X135.415 Y119.082 E.34961
G1 X134.916 Y119.45 E.02691
G1 X134.916 Y110.659 E.38163
G2 X134.418 Y110.367 I-1.101 J1.307 E.0252
G1 X134.418 Y119.742 E.40699
G3 X133.92 Y119.99 I-.971 J-1.33 E.02427
G1 X133.92 Y110.119 E.42849
G1 X133.421 Y109.966 E.02263
G1 X133.421 Y120.143 E.44175
G3 X132.923 Y120.268 I-.615 J-1.391 E.02241
G1 X132.923 Y109.841 E.45263
G1 X132.425 Y109.777 E.02181
G1 X132.425 Y120.332 E.45819
G3 X131.926 Y120.352 I-.308 J-1.443 E.02175
G1 X131.926 Y114.08 E.27228
G3 X131.428 Y116.184 I-22.047 J-4.108 E.09393
G1 X131.428 Y123.281 E.30805
G3 X130.93 Y124.517 I-3.648 J-.752 E.05818
G1 X130.93 Y117.704 E.29574
G3 X130.431 Y118.943 I-21.745 J-8.026 E.05798
G1 X130.431 Y125.213 E.27215
G3 X129.933 Y125.704 I-1.599 J-1.124 E.03053
G1 X129.933 Y120.006 E.24736
G3 X129.435 Y120.942 I-20.002 J-10.042 E.04606
G1 X129.435 Y126.085 E.22323
G3 X128.936 Y126.394 I-1.1 J-1.215 E.0256
G1 X128.936 Y121.783 E.20018
G3 X128.438 Y122.548 I-19.852 J-12.389 E.03963
G1 X128.438 Y126.606 E.17619
G3 X127.94 Y126.766 I-.688 J-1.29 E.02284
G1 X127.94 Y123.251 E.15257
G3 X127.441 Y123.901 I-42.42 J-32.028 E.03554
G1 X127.441 Y126.879 E.12927
G3 X126.943 Y126.918 I-.358 J-1.351 E.02182
G1 X126.943 Y124.503 E.10486
G3 X126.445 Y125.067 I-30.09 J-26.081 E.03267
G1 X126.445 Y126.94 E.0813
G1 X125.946 Y126.961 E.02165
G1 X125.946 Y125.593 E.0594
G3 X125.448 Y126.086 I-12.933 J-12.57 E.03044
G1 X125.448 Y129.374 E.14273
G3 X124.95 Y130.266 I-2.706 J-.926 E.04461
G1 X124.913 Y126.584 E.15984
G3 X124.452 Y126.988 I-25.536 J-28.739 E.02661
G1 X124.452 Y130.875 E.16874
G3 X123.953 Y131.339 I-1.525 J-1.14 E.0297
G1 X123.953 Y127.399 E.171
G3 X123.455 Y127.787 I-10.781 J-13.347 E.02741
G1 X123.455 Y131.668 E.16846
G3 X122.957 Y131.926 I-.96 J-1.243 E.02449
G1 X122.957 Y128.153 E.16377
G3 X122.458 Y128.499 I-9.446 J-13.084 E.02633
G1 X122.458 Y132.139 E.15801
G3 X121.96 Y132.254 I-.567 J-1.314 E.02232
G1 X121.96 Y128.825 E.14885
G3 X121.462 Y129.13 I-8.35 J-13.074 E.02537
G1 X121.462 Y132.345 E.13953
G1 X120.963 Y132.367 E.02165
G1 X120.963 Y129.422 E.12783
G3 X120.465 Y129.695 I-7.646 J-13.369 E.02466
G1 X120.465 Y132.346 E.11506
G1 X119.967 Y132.343 E.02163
G1 X119.967 Y129.952 E.10379
G3 X119.468 Y130.193 I-6.8 J-13.411 E.02403
G1 X119.468 Y132.922 E.11846
G3 X118.97 Y133.364 I-1.426 J-1.107 E.02907
G1 X118.97 Y130.419 E.12782
G3 X118.472 Y130.631 I-6.047 J-13.541 E.0235
G1 X118.472 Y133.673 E.13206
G3 X117.973 Y133.914 I-.891 J-1.207 E.02417
G1 X117.973 Y130.829 E.13394
G3 X117.475 Y131.013 I-5.313 J-13.625 E.02306
G1 X117.475 Y134.107 E.13434
G3 X116.977 Y134.207 I-.514 J-1.278 E.02219
G1 X116.977 Y131.183 E.13126
G3 X116.478 Y131.341 I-4.618 J-13.729 E.02269
G1 X116.478 Y134.282 E.12768
G1 X115.98 Y134.282 E.02163
G1 X115.98 Y131.485 E.1214
G3 X115.482 Y131.619 I-4.671 J-16.393 E.0224
G1 X115.482 Y134.818 E.13886
G3 X114.983 Y135.757 I-3.138 J-1.064 E.04633
G1 X114.953 Y131.747 E.17407
G3 X114.485 Y131.847 I-4.392 J-19.254 E.02076
G1 X114.485 Y136.413 E.19821
G3 X113.987 Y136.927 I-1.831 J-1.277 E.03121
G1 X113.987 Y131.944 E.21634
G3 X113.488 Y132.028 I-2.754 J-14.721 E.02194
G1 X113.488 Y137.334 E.23031
G3 X112.99 Y137.642 I-1.197 J-1.38 E.02554
G1 X112.99 Y132.101 E.24051
G3 X112.492 Y132.163 I-1.983 J-13.981 E.0218
G1 X112.492 Y137.912 E.24958
G1 X111.993 Y138.101 E.02313
G1 X111.993 Y132.213 E.25559
G3 X111.495 Y132.252 I-1.374 J-14.288 E.0217
G1 X111.495 Y138.257 E.26064
G1 X110.997 Y138.358 E.02208
G1 X110.997 Y132.28 E.26383
G3 X110.498 Y132.297 I-.822 J-16.823 E.02165
G1 X110.498 Y138.418 E.2657
G1 X110 Y138.438 E.02165
G1 X110 Y132.303 E.26631
G3 X109.502 Y132.297 I-.054 J-16.504 E.02163
G1 X109.502 Y138.41 E.26534
G1 X109.003 Y138.35 E.02179
G1 X109.003 Y132.279 E.26352
G3 X108.505 Y132.252 I.414 J-12.38 E.02166
G1 X108.505 Y138.23 E.2595
G1 X108.007 Y138.086 E.02252
G1 X108.007 Y132.213 E.25493
G3 X107.508 Y132.163 I1.313 J-15.546 E.02174
G1 X107.508 Y137.862 E.24739
G3 X107.01 Y137.611 I.524 J-1.66 E.02433
G1 X107.01 Y132.102 E.23916
G1 X106.512 Y132.027 E.02187
G1 X106.512 Y137.267 E.22746
G3 X106.013 Y136.848 I1.043 J-1.745 E.0284
G1 X106.013 Y131.943 E.2129
G3 X105.515 Y131.847 I2.432 J-13.909 E.02203
G1 X105.515 Y136.336 E.19485
G3 X105.017 Y135.663 I1.821 J-1.87 E.03649
G1 X105.017 Y131.739 E.17036
G3 X104.518 Y131.618 I2.817 J-12.692 E.02226
G1 X104.518 Y134.637 E.13105
G1 X104.44 Y134.403 E.0107
G1 X104.02 Y134.314 E.01864
G1 X104.02 Y131.486 E.12274
G3 X103.522 Y131.341 I4.562 J-16.615 E.02253
G1 X103.522 Y134.13 E.12106
G3 X103.023 Y133.903 I.462 J-1.672 E.02388
G1 X103.023 Y131.184 E.11803
G3 X102.525 Y131.011 I4.479 J-13.728 E.0229
G1 X102.525 Y133.577 E.11137
G3 X102.027 Y133.134 I1.184 J-1.835 E.02904
G1 X102.027 Y130.829 E.10007
G3 X101.528 Y130.631 I6.105 J-16.128 E.02327
G1 X101.528 Y132.564 E.08387
G3 X101.03 Y130.419 I1.971 J-1.588 E.09886
G1 X100.532 Y130.193 E.02376
G1 X100.532 Y131.992 E.07812
G3 X100.033 Y132.126 I-.618 J-1.305 E.02252
G1 X100.033 Y129.952 E.09438
G3 X99.535 Y129.695 I7.66 J-15.486 E.02433
G1 X99.535 Y132.233 E.11017
G1 X99.037 Y132.256 E.02165
G1 X99.037 Y129.42 E.12311
G3 X98.538 Y129.132 I6.503 J-11.818 E.02499
G1 X98.538 Y132.251 E.13541
G1 X98.04 Y132.184 E.02183
G1 X98.04 Y128.824 E.14584
G3 X97.542 Y128.498 I8.43 J-13.433 E.02585
G1 X97.542 Y132.065 E.15481
G1 X97.043 Y131.903 E.02274
G1 X97.043 Y128.153 E.16278
G3 X96.545 Y127.785 I9.002 J-12.698 E.0269
G1 X96.545 Y131.649 E.16776
G3 X96.047 Y131.342 I.597 J-1.525 E.02555
G1 X96.047 Y127.398 E.17119
G3 X95.548 Y126.987 I10.594 J-13.346 E.02805
G1 X95.548 Y130.945 E.17179
G3 X95.05 Y130.388 I1.283 J-1.65 E.0326
G1 X95.05 Y126.548 E.16669
G3 X94.552 Y126.086 I10.05 J-11.336 E.02951
G1 X94.552 Y129.619 E.15335
G3 X94.054 Y125.59 I7.301 J-2.948 E.17822
G3 X93.555 Y125.067 I11.448 J-11.391 E.03139
G1 X93.555 Y126.681 E.07006
G1 X93.057 Y126.705 E.02166
G1 X93.057 Y124.503 E.09559
G3 X92.559 Y123.897 I12.404 J-10.702 E.03407
G1 X92.559 Y126.644 E.11926
G3 X92.06 Y126.56 I-.019 J-1.411 E.02205
G1 X92.06 Y123.25 E.14368
G3 X91.562 Y122.546 I18.034 J-13.296 E.03744
G1 X91.562 Y126.4 E.16729
G3 X91.064 Y126.187 I.337 J-1.475 E.02366
G1 X91.064 Y121.779 E.19133
G3 X90.565 Y120.937 I14.272 J-9.01 E.0425
G1 X90.565 Y125.921 E.21635
G3 X90.067 Y125.534 I.814 J-1.562 E.02754
G1 X90.067 Y120.004 E.24004
G3 X89.569 Y118.942 I33.374 J-16.315 E.05091
G1 X89.569 Y125.044 E.26486
G3 X89.07 Y124.377 I1.58 J-1.701 E.03633
G1 X89.07 Y117.706 E.28961
G3 X88.572 Y116.18 I25.648 J-9.224 E.06966
G1 X88.572 Y118.667 E.10795
G1 X88.074 Y118.46 E.02343
G1 X88.074 Y114.08 E.19013
G3 X87.926 Y109.852 I11.313 J-2.511 E.18468
G3 X88.074 Y105.918 I11.035 J-1.556 E.17178
G1 X88.074 Y97.066 E.38423
G3 X88.572 Y96.391 I2.105 J1.031 E.03664
G1 X88.574 Y103.806 E.32189
G3 X89.07 Y102.294 I24.12 J7.079 E.06907
G1 X89.07 Y95.896 E.27777
G3 X89.569 Y95.505 I1.323 J1.173 E.02765
G1 X89.569 Y101.059 E.24109
G3 X90.067 Y100 I18.802 J8.206 E.05079
G1 X90.067 Y95.237 E.20678
G3 X90.565 Y95.02 I.843 J1.261 E.02371
G1 X90.565 Y99.059 E.17529
G3 X91.064 Y98.217 I28.057 J16.042 E.04246
G1 X91.064 Y94.859 E.14576
G1 X91.562 Y94.698 E.02274
G1 X91.562 Y97.453 E.11958
G3 X92.06 Y96.75 I19.724 J13.455 E.0374
G1 X92.06 Y92.364 E.19036
G3 X92.559 Y91.56 I2.46 J.967 E.0413
G1 X92.588 Y96.063 E.19547
G3 X93.057 Y95.497 I31.775 J25.861 E.03192
G1 X93.057 Y90.989 E.19567
G3 X93.555 Y90.583 I1.365 J1.167 E.02805
G1 X93.555 Y94.935 E.18888
G3 X94.054 Y94.407 I28.108 J26.051 E.0315
G1 X94.054 Y90.259 E.18007
G1 X94.552 Y89.991 E.02456
G1 X94.552 Y93.914 E.17029
G3 X95.05 Y93.45 I12.213 J12.625 E.02955
G1 X95.05 Y89.83 E.15717
G3 X95.548 Y89.698 I.612 J1.304 E.0225
G1 X95.548 Y93.013 E.14391
G3 X96.047 Y92.601 I33.978 J40.574 E.02807
G1 X96.047 Y89.631 E.12891
G3 X96.545 Y89.614 I.296 J1.361 E.02176
G1 X96.545 Y92.213 E.11282
G3 X97.043 Y91.847 I12.374 J16.33 E.02684
G1 X97.139 Y89.641 E.09582
G3 X97.542 Y88.909 I3.591 J1.497 E.03637
G1 X97.542 Y91.501 E.11251
G3 X98.04 Y91.175 I21.995 J33.086 E.02585
G1 X98.04 Y88.294 E.12506
G2 X98.538 Y87.686 I-.162 J-.641 E.03651
G1 X98.538 Y90.867 E.13807
G3 X99.037 Y90.577 I64.889 J111.028 E.02502
G1 X99.037 Y85.771 E.20865
G3 X99.535 Y84.878 I2.996 J1.088 E.04455
G1 X99.535 Y90.305 E.23554
G3 X100.033 Y90.048 I8.176 J15.263 E.02433
G1 X100.033 Y84.224 E.25282
G1 X100.532 Y83.746 E.02999
G1 X100.532 Y89.807 E.26311
G3 X101.03 Y89.581 I6.949 J14.646 E.02376
G1 X101.064 Y83.333 E.27122
G3 X101.528 Y83.021 I1.192 J1.275 E.02438
G1 X101.528 Y89.369 E.27555
G3 X102.027 Y89.171 I6.151 J14.779 E.02327
G1 X102.027 Y82.785 E.27723
G3 X102.525 Y82.58 I.878 J1.432 E.02348
G1 X102.525 Y88.987 E.2781
G3 X103.023 Y88.816 I5.629 J15.615 E.02287
G1 X103.023 Y82.436 E.27696
G3 X103.522 Y82.334 I.562 J1.484 E.02217
G1 X103.522 Y88.659 E.27453
G3 X104.02 Y88.513 I5.716 J18.697 E.02253
G1 X104.02 Y82.274 E.27086
G3 X104.518 Y82.262 I.286 J1.529 E.02173
G1 X104.52 Y88.38 E.26559
G3 X105.017 Y88.261 I5.191 J20.435 E.02216
G1 X105.017 Y82.282 E.25953
G3 X105.515 Y82.358 I.014 J1.574 E.02198
G1 X105.515 Y88.152 E.25152
G3 X106.013 Y88.056 I10.403 J52.428 E.02203
G1 X106.013 Y82.46 E.24293
G3 X106.512 Y82.632 I-.281 J1.62 E.02299
G1 X106.512 Y87.971 E.23177
G3 X107.01 Y87.898 I3.264 J20.569 E.02186
G1 X107.01 Y82.822 E.22034
G1 X107.508 Y83.11 E.02497
G1 X107.508 Y87.837 E.2052
G3 X108.007 Y87.787 I1.812 J15.502 E.02174
G1 X108.007 Y83.439 E.18871
G1 X108.505 Y83.845 E.02791
G1 X108.505 Y87.748 E.16939
G3 X109.003 Y87.72 I1.037 J14.104 E.02167
G1 X109.003 Y84.387 E.14469
G3 X109.502 Y85.083 I-1.896 J1.884 E.03731
G1 X109.502 Y87.703 E.11376
G3 X110 Y87.697 I.411 J14.228 E.02163
G1 X110 Y86.086 E.06996
G1 X110.046 Y86.193 E.00508
G1 X110.498 Y85.832 E.02513
G1 X110.498 Y87.703 E.08124
G1 X110.997 Y87.72 E.02164
G1 X110.997 Y85.499 E.09642
G1 X111.495 Y85.23 E.02457
G1 X111.495 Y87.748 E.10927
G3 X111.993 Y87.787 I-.876 J14.326 E.0217
G1 X111.993 Y85.062 E.11829
G3 X112.492 Y84.923 I.629 J1.3 E.02257
G1 X112.492 Y87.837 E.12649
G3 X112.99 Y87.899 I-1.485 J14.045 E.0218
G1 X112.99 Y84.856 E.13208
G3 X113.488 Y84.833 I.313 J1.354 E.02177
G1 X113.488 Y87.972 E.13625
G3 X113.987 Y88.056 I-2.255 J14.798 E.02194
G1 X113.987 Y84.856 E.13893
G3 X114.485 Y84.944 I.007 J1.41 E.02209
G1 X114.485 Y88.153 E.13927
G3 X114.983 Y88.261 I-3.593 J17.778 E.02213
G1 X114.983 Y85.059 E.13898
G3 X115.482 Y85.272 I-.335 J1.475 E.02365
G1 X115.482 Y88.381 E.13496
G3 X115.98 Y88.513 I-5.228 J20.663 E.02238
G1 X115.98 Y85.527 E.12962
G1 X116.478 Y85.858 E.02596
G1 X116.478 Y88.658 E.12156
G3 X116.977 Y88.816 I-14.727 J47.411 E.02269
G1 X116.977 Y86.319 E.1084
G3 X117.475 Y86.924 I-1.416 J1.674 E.03422
G1 X117.475 Y88.987 E.08953
G3 X117.973 Y89.171 I-16.121 J44.435 E.02306
G1 X117.973 Y87.344 E.07928
G1 E-1.75 F6000
;WIPE_START
G1 F3000
G1 X117.973 Y88.344 E-.75
;WIPE_END
G1 X134.418 Y106.722 F18000
G1 E2.5 F6000
G1 F3000
G1 X134.418 Y102.946 E.16391
G2 X133.92 Y101.933 I-6.746 J2.691 E.04904
G1 X133.92 Y107.23 E.22991
G3 X133.421 Y107.887 I-2.055 J-1.042 E.03599
G1 X133.421 Y101.276 E.28696
G1 X132.923 Y100.801 E.02988
G1 X132.923 Y108.36 E.32811
G3 X132.425 Y108.711 I-1.215 J-1.196 E.0266
G1 X132.425 Y100.451 E.35856
G2 X131.926 Y100.165 I-1.034 J1.226 E.02507
G1 X131.926 Y105.92 E.24982
G2 X131.428 Y103.814 I-22.839 J4.291 E.09399
G1 X131.428 Y96.443 E.31997
G2 X130.93 Y95.498 I-2.846 J.897 E.04663
G1 X130.919 Y102.265 E.29375
G2 X130.431 Y101.057 I-24.23 J9.084 E.05656
G1 X130.431 Y94.858 E.26912
G1 X129.933 Y94.381 E.02992
G1 X129.933 Y99.996 E.24373
G2 X129.435 Y99.059 I-20.01 J10.044 E.04606
G1 X129.435 Y94.043 E.21775
G2 X128.936 Y93.767 I-1.008 J1.232 E.02486
G1 X128.936 Y98.217 E.19316
G2 X128.438 Y97.451 I-28.893 J18.246 E.03968
G1 X128.438 Y93.555 E.16911
G2 X127.94 Y93.424 I-.609 J1.304 E.02249
G1 X127.94 Y96.752 E.14445
G2 X127.441 Y96.1 I-13.894 J10.11 E.03561
G1 X127.441 Y93.319 E.12072
G1 X126.943 Y93.298 E.02165
G1 X126.943 Y95.496 E.0954
G2 X126.445 Y94.934 I-27.293 J23.718 E.03259
G1 X126.445 Y91.38 E.15427
G2 X125.946 Y90.488 I-2.7 J.923 E.0446
G1 X125.946 Y94.407 E.17013
G2 X125.448 Y93.913 I-29.679 J29.407 E.03048
G1 X125.448 Y89.88 E.17507
G2 X124.95 Y89.417 I-1.521 J1.137 E.02969
G1 X124.95 Y93.45 E.17506
G2 X124.452 Y93.013 I-11.595 J12.736 E.02876
G1 X124.452 Y89.088 E.1704
G2 X123.953 Y88.83 I-.958 J1.24 E.02449
G1 X123.953 Y92.601 E.16371
G2 X123.455 Y92.212 I-36.162 J45.815 E.02744
G1 X123.455 Y88.617 E.15606
G2 X122.957 Y88.501 I-.566 J1.311 E.02232
G1 X122.957 Y91.846 E.14519
G2 X122.458 Y91.502 I-11.551 J16.196 E.02629
G1 X122.458 Y88.411 E.13419
G1 X121.96 Y88.389 E.02165
G1 X121.96 Y91.175 E.12092
G2 X121.462 Y90.867 I-9.595 J14.975 E.02543
G1 X121.462 Y88.41 E.10666
G1 X120.963 Y88.479 E.02184
