; HEADER_BLOCK_START
; generated by AnycubicSlicerNext 1.3.3.1 on 2025-03-14 at 04:56:56
; total layer number: 170
; filament_density: 1.24
; filament_diameter: 1.75
; max_z_height: 34.04
; exclude_object: 0
; model_instances: 1
; HEADER_BLOCK_END

; THUMBNAIL_BLOCK_START
; THUMBNAIL_BLOCK_END

; external perimeters extrusion width = 0.42mm
; perimeters extrusion width = 0.45mm
; infill extrusion width = 0.45mm
; solid infill extrusion width = 0.42mm
; top infill extrusion width = 0.42mm
; support material extrusion width = 0.40mm
; first layer extrusion width = 0.50mm

; EXECUTABLE_BLOCK_START
M201 X2000 Y2000 Z800 E2000
M203 X300 Y300 Z8 E100
M204 P2000 R2000 T2000
M205 X10.00 Y10.00 Z2.00 E5.00 ; sets the jerk limits, mm/sec
;TYPE:Custom
G90 ; use absolute coordinates
M83 ; extruder relative mode
M104 S220 ; set extruder temp
M140 S60 ; set bed temp
M190 S60 ; wait for bed temp
M109 S220 ; wait for extruder temp
G28                                        ; move X/Y/Z to min endstops
G1 Z0.28                                   ; lift nozzle a bit 
G92 E0 
G1 Y3 F1800                                    ; zero the extruded length 
G1 X60  E25 F500                       ; Extrude 25mm of filament in a 5cm line. 
G92 E0                                     ; zero the extruded length again 
G1 E-2 F500                                ; Retract a little 
G1 X70 F4000                              ; Quickly wipe away from the filament line
M117
G90
G21
M83 ; use relative distances for extrusion
; filament start gcode
M106 S0
;LAYER_CHANGE
;Z:0.24
;HEIGHT:0.24
; BEFORE_LAYER_CHANGE 0 @ 0.24mm
G92 E0
G1 E-2.5 F6000
; AFTER_LAYER_CHANGE 0 @ 0.24mm
M204 P500
; printing object "GelenkV1Hinge.stl" id:2091668631296 copy 0
M204 T500
G1 X89.724 Y93.97 F18000
G1 Z.24
G1 E2.5 F6000
;TYPE:Support
;WIDTH:0.5
;MM3_PER_MM:0.107639
G1 F3000
G3 X92.061 Y94.918 I-.906 J5.59 E.11038
G3 X95.633 Y95.766 I.665 J5.143 E.16292
G2 X96.619 Y95.242 I.172 J-.865 E.05245
G3 X98.1 Y94.5 I2.891 J3.919 E.07228
G1 X98.1 Y106.089 E.50309
G1 X97.393 Y106.738 E.04165
G1 X97.393 Y108.804 E.08967
G1 X98.1 Y109.452 E.04165
G1 X98.1 Y110.548 E.04755
G1 X97.393 Y111.196 E.04165
G1 X97.393 Y113.262 E.08967
G1 X98.1 Y113.911 E.04165
G1 X98.1 Y125.644 E.50934
G3 X96.524 Y124.841 I5.434 J-12.613 E.07684
G3 X90.426 Y125.227 I-3.321 J-4.097 E.28288
G3 X86.292 Y124.97 I-1.763 J-5.011 E.18472
G3 X81.604 Y125.702 I-3.077 J-4.33 E.21349
G3 X74.364 Y121.384 I-1.883 J-5.072 E.41952
G3 X75.383 Y117.353 I5.293 J-.806 E.18539
G3 X75.465 Y115.988 I5.303 J-.367 E.05952
G3 X69.827 Y108.293 I-.865 J-5.279 E.51125
G3 X73.902 Y101.119 I4.756 J-2.043 E.41444
G3 X81.345 Y95.038 I5.231 J-1.193 E.51702
G3 X85.258 Y95.471 I1.246 J6.643 E.17342
G3 X89.657 Y93.967 I3.814 J3.972 E.20832
G1 X88.25 Y106.089 F18000
G1 F3000
G1 X88.25 Y105.965 E.00539
G1 X93.75 Y105.965 E.23876
G1 X93.75 Y106.089 E.00539
G1 X93.959 Y106.089 E.00905
G1 X94.607 Y106.738 E.03981
G1 X94.607 Y108.804 E.08967
G1 X93.959 Y109.452 E.03981
G1 X93.629 Y109.452 E.01429
G3 X93.474 Y108.595 I2.554 J-.907 E.03798
G1 X91.747 Y108.595 E.07496
G1 X92.213 Y109.946 E.06202
G1 X91.713 Y111.405 E.06694
G1 X93.412 Y111.405 E.07375
G3 X93.592 Y110.548 I2.578 J.094 E.0382
G1 X93.959 Y110.548 E.0159
G1 X94.607 Y111.196 E.03981
G1 X94.607 Y113.262 E.08967
G1 X93.75 Y114.035 E.05009
G1 X88.25 Y114.035 E.23876
G1 X88.25 Y113.911 E.00539
G1 X88.041 Y113.911 E.00905
G1 X87.393 Y113.262 E.03981
G1 X87.393 Y111.196 E.08967
G1 X88.041 Y110.548 E.03981
G1 X88.304 Y110.548 E.01139
G3 X88.673 Y111.405 I-1.485 J1.148 E.04094
G1 X90.602 Y111.405 E.08374
G1 X89.829 Y110.161 E.06359
G1 X90.753 Y108.595 E.07891
G1 X88.676 Y108.595 E.09019
G3 X88.041 Y109.452 I-.542 J.262 E.05684
G1 X87.393 Y108.804 E.03981
G1 X87.393 Y106.738 E.08967
G1 X88.183 Y106.089 E.04436
G1 E-1.75 F6000
;WIPE_START
G1 F3000
G1 X87.41 Y106.724 E-.75
;WIPE_END
G1 X77.393 Y106.738 F18000
G1 E2.5 F6000
G1 F3000
G1 X78.273 Y105.858 E.05403
G1 X78.263 Y105.965 E.00469
G1 X83.75 Y105.965 E.2382
G1 X84.607 Y106.738 E.05009
G1 X84.607 Y108.804 E.08967
G1 X83.959 Y109.452 E.03982
G3 X83.321 Y108.595 I.01 J-.673 E.05356
G1 X81.914 Y108.595 E.06107
G1 X81.328 Y109.172 E.0357
G1 X82.162 Y110.018 E.05155
G1 X80.991 Y111.405 E.07876
G1 X83.339 Y111.405 E.10193
G3 X83.641 Y110.548 I1.848 J.169 E.03985
G1 X83.959 Y110.548 E.0138
G1 X84.607 Y111.196 E.03981
G1 X84.607 Y113.262 E.08967
G1 X83.75 Y114.035 E.05009
G1 X78.25 Y114.035 E.23876
G1 X78.25 Y113.063 E.04216
G1 X83.017 Y113.053 E.20695
G1 X78.25 Y113.053 E.20695
G1 X78.25 Y111.633 E.06166
G3 X77.782 Y112.79 I-3.443 J-.719 E.05447
G1 X77.393 Y112.702 E.01733
G1 X77.393 Y111.196 E.06535
G1 X78.425 Y110.164 E.06339
G3 X78.313 Y111.405 I-3.503 J.308 E.05439
G1 X79.819 Y111.405 E.06538
G2 X79.418 Y108.595 I-8.107 J-.277 E.12383
G1 X78.25 Y108.595 E.05071
G1 X78.25 Y106.947 E.07157
G1 X83.095 Y106.947 E.21034
G1 X78.25 Y106.937 E.21034
G1 X78.25 Y106.099 E.03635
G3 X77.778 Y107.985 I-4.134 J-.033 E.08515
G1 X77.393 Y107.894 E.01719
G1 X77.393 Y106.805 E.04724
G1 E-1.75 F6000
;WIPE_START
G1 F3000
G1 X77.393 Y107.805 E-.75
;WIPE_END
G1 X97.542 Y125.188 F18000
G1 E2.5 F6000
G1 F3000
G1 X97.542 Y113.696 E.49882
G1 X97.542 Y110.762 F18000
G1 F3000
G1 X97.542 Y109.238 E.06614
G1 X97.542 Y106.304 F18000
G1 F3000
G1 X97.542 Y95.148 E.48425
G2 X97.043 Y95.454 I.861 J1.96 E.02547
G1 X97.043 Y124.703 E1.26962
G3 X96.545 Y124.35 I.764 J-1.609 E.02662
G1 X96.545 Y95.866 E1.23646
G3 X96.047 Y96.142 I-.418 J-.167 E.02678
G1 X96.047 Y124.682 E1.23886
G3 X95.548 Y125.021 I-2.012 J-2.422 E.0262
G1 X95.548 Y96.177 E1.25206
G1 X95.05 Y95.874 E.02531
G1 X95.05 Y125.257 E1.27547
G1 X94.552 Y125.434 E.02295
G1 X94.552 Y113.888 E.50119
G1 X94.054 Y114.438 E.03222
G1 X94.054 Y125.539 E.48188
G3 X93.555 Y125.621 I-.472 J-1.32 E.02204
G1 X93.555 Y114.438 E.48542
G1 X93.057 Y114.438 E.02163
G1 X93.057 Y125.612 E.48505
G3 X92.559 Y125.581 I-.166 J-1.348 E.0218
G1 X92.559 Y114.438 E.4837
G1 X92.06 Y114.438 E.02163
G1 X92.06 Y125.479 E.47927
G3 X91.562 Y125.333 I.25 J-1.773 E.02263
G1 X91.562 Y114.438 E.47291
G1 X91.064 Y114.438 E.02163
G1 X91.064 Y125.124 E.46386
G3 X90.565 Y124.84 I.896 J-2.154 E.02495
G1 X90.565 Y114.438 E.45155
G1 X90.067 Y114.438 E.02163
G1 X90.067 Y124.933 E.45557
G3 X89.569 Y125.043 I-.543 J-1.283 E.02227
G1 X89.569 Y114.438 E.46033
G1 X89.07 Y114.438 E.02163
G1 X89.07 Y125.125 E.4639
G1 X88.572 Y125.125 E.02163
G1 X88.572 Y114.438 E.46388
G1 X88.074 Y114.438 E.02163
G1 X88.074 Y125.091 E.46242
G1 X87.575 Y124.998 E.02201
G1 X87.575 Y113.73 E.48913
G1 E-1.75 F6000
;WIPE_START
G1 F3000
G1 X87.575 Y114.73 E-.75
;WIPE_END
G1 X94.552 Y110.855 F18000
G1 E2.5 F6000
G1 F3000
G1 X94.552 Y109.43 E.06188
G1 X94.054 Y109.856 E.02846
G1 X94.054 Y110.144 E.0125
G1 X93.555 Y110.144 E.02163
G1 X93.555 Y109.856 E.0125
G1 X93.342 Y109.856 E.00927
G2 X93.057 Y108.999 I-2.169 J.245 E.03949
G1 X93.057 Y111.001 E.08691
G1 X92.559 Y111.001 E.02163
G1 X92.559 Y108.797 E.09567
G1 E-1.75 F6000
;WIPE_START
G1 F3000
G1 X92.559 Y109.797 E-.75
;WIPE_END
G1 X94.552 Y106.397 F18000
G1 E2.5 F6000
G1 F3000
G1 X94.552 Y95.64 E.46695
G2 X94.054 Y95.447 I-.76 J1.219 E.02334
G1 X94.054 Y105.562 E.43908
G1 X93.555 Y105.562 E.02163
G1 X93.555 Y95.35 E.44328
G2 X93.057 Y95.282 I-.428 J1.281 E.02196
G1 X93.057 Y105.562 E.44622
G1 X92.559 Y105.562 E.02163
G1 X92.559 Y95.28 E.44631
G2 X92.06 Y95.328 I-.123 J1.335 E.02186
G1 X92.06 Y105.562 E.44422
G1 X91.562 Y105.562 E.02163
G1 X91.562 Y95.068 E.4555
G2 X91.064 Y94.801 I-.974 J1.22 E.02468
G1 X91.064 Y105.562 E.46709
G1 X90.565 Y105.562 E.02163
G1 X90.565 Y94.585 E.47648
G2 X90.067 Y94.464 I-.578 J1.289 E.02239
G1 X90.067 Y105.562 E.48176
G1 X89.569 Y105.562 E.02163
G1 X89.569 Y94.367 E.48596
G1 X89.07 Y94.343 E.02166
G1 X89.07 Y105.562 E.48698
G1 X88.572 Y105.562 E.02163
G1 X88.572 Y94.367 E.48597
G1 X88.074 Y94.431 E.02181
G1 X88.074 Y105.562 E.48315
G1 X87.846 Y105.562 E.00987
G3 X87.575 Y105.985 I-.347 J.076 E.02422
G1 X87.575 Y94.562 E.49584
G1 X87.077 Y94.73 E.02282
G1 X87.077 Y124.841 E1.30707
G1 X86.579 Y124.648 E.02319
G1 X86.579 Y94.999 E1.28702
G2 X86.08 Y95.322 I.672 J1.585 E.0259
G1 X86.08 Y124.626 E1.27206
G1 X85.582 Y124.938 E.02552
G1 X85.582 Y95.728 E1.26798
G1 X85.328 Y95.934 E.0142
G1 X85.084 Y95.835 E.01145
G1 X85.084 Y125.173 E1.27349
G3 X84.585 Y125.366 I-.88 J-1.529 E.02329
G1 X84.585 Y113.855 E.49969
G1 X84.087 Y114.438 E.03331
G1 X84.087 Y125.469 E.47884
G3 X83.589 Y125.541 I-.455 J-1.386 E.02197
G1 X83.589 Y114.438 E.48197
G1 X83.09 Y114.438 E.02163
G1 X83.09 Y125.547 E.48221
G3 X82.592 Y125.51 I-.149 J-1.37 E.02181
G1 X82.592 Y114.438 E.4806
G1 X82.094 Y114.438 E.02163
G1 X82.094 Y125.424 E.47686
G3 X81.595 Y125.28 I2.535 J-9.761 E.02251
G1 X81.595 Y114.438 E.47064
G1 X81.097 Y114.438 E.02163
G1 X81.097 Y125.443 E.47769
G3 X80.599 Y125.562 I-.726 J-1.932 E.0223
G1 X80.599 Y114.438 E.48287
G1 X80.1 Y114.438 E.02163
G1 X80.1 Y125.64 E.48625
G3 X79.602 Y125.667 I-.361 J-2.024 E.02172
G1 X79.602 Y114.438 E.48744
G1 X79.104 Y114.438 E.02163
G1 X79.104 Y125.644 E.48644
G3 X78.605 Y125.553 I.059 J-1.731 E.02207
G1 X78.605 Y114.438 E.48249
G1 X78.107 Y114.438 E.02163
G1 X78.107 Y125.428 E.47707
G3 X77.609 Y125.228 I.452 J-1.846 E.02339
G1 X77.609 Y112.958 E.53264
G1 E-1.75 F6000
;WIPE_START
G1 F3000
G1 X77.609 Y113.958 E-.75
;WIPE_END
G1 X89.569 Y111.203 F18000
G1 E2.5 F6000
G1 F3000
G1 X89.569 Y108.999 E.09567
G1 X89.087 Y108.999 E.0209
G3 X88.992 Y111.001 I-13.84 J.345 E.08709
G3 X88.572 Y109.856 I2.656 J-1.624 E.05329
G1 X88.074 Y109.856 E.02163
G1 X88.074 Y110.144 E.0125
G2 X87.575 Y110.443 I-.1 J.399 E.02802
G1 X87.575 Y109.272 E.05085
G1 X84.585 Y110.889 F18000
G1 F3000
G1 X84.585 Y109.397 E.06478
G1 X84.087 Y109.856 E.02942
G1 X84.087 Y110.144 E.0125
G1 X83.589 Y110.144 E.02163
G1 X83.54 Y109.856 E.01268
G3 X83.09 Y109.261 I1.415 J-1.536 E.03256
G1 X83.09 Y110.738 E.06412
G3 X82.592 Y111.001 I-.344 J-.048 E.02854
G1 X82.592 Y108.999 E.08691
G1 X82.094 Y108.999 E.02163
G1 X82.094 Y109.662 E.02878
G1 E-1.75 F6000
;WIPE_START
G1 F3000
G1 X82.094 Y108.999 E-.49727
G1 X82.431 Y108.999 E-.25273
;WIPE_END
G1 X84.585 Y106.431 F18000
G1 E2.5 F6000
G1 F3000
G1 X84.585 Y95.634 E.46867
G2 X84.087 Y95.436 I-.764 J1.2 E.02341
G1 X84.087 Y105.562 E.43953
G1 X83.589 Y105.562 E.02163
G1 X83.589 Y95.338 E.44379
G2 X83.09 Y95.267 I-.435 J1.261 E.02199
G1 X83.09 Y105.562 E.4469
G1 X82.592 Y105.562 E.02163
G1 X82.592 Y95.264 E.447
G2 X82.094 Y95.308 I-.135 J1.318 E.02185
G1 X82.094 Y105.562 E.44508
G1 X81.595 Y105.562 E.02163
G1 X81.595 Y95.402 E.44103
G3 X81.097 Y95.432 I-.286 J-.596 E.02222
G1 X81.097 Y105.562 E.43972
G1 X80.599 Y105.562 E.02163
G1 X80.599 Y95.23 E.44848
G2 X80.1 Y95.098 I-.606 J1.283 E.0225
G1 X80.1 Y105.562 E.4542
G1 X79.602 Y105.562 E.02163
G1 X79.602 Y94.996 E.45863
G2 X79.104 Y94.982 I-.288 J1.341 E.02176
G1 X79.104 Y105.562 E.45925
G1 X78.707 Y105.562 E.01723
G1 X78.782 Y104.779 E.03416
G1 X78.605 Y104.955 E.01082
G1 X78.605 Y94.987 E.43267
G1 X78.107 Y95.07 E.02192
G1 X78.107 Y105.453 E.45073
G1 X77.609 Y105.951 E.03059
G1 X77.609 Y95.19 E.46712
G1 X77.11 Y95.37 E.023
G1 X77.11 Y124.981 E1.28538
G3 X76.612 Y124.636 I1.989 J-3.401 E.02635
G1 X76.612 Y95.629 E1.25912
G2 X76.114 Y95.944 I.6 J1.503 E.02572
G1 X76.114 Y124.222 E1.22753
G1 X75.615 Y123.65 E.03295
G1 X75.615 Y117.712 E.25773
G2 X75.117 Y118.544 I5.279 J3.727 E.04214
G1 X75.117 Y123.214 E.20271
G1 E-1.75 F6000
;WIPE_START
G1 F3000
G1 X75.117 Y122.214 E-.75
;WIPE_END
G1 X82.094 Y111.203 F18000
G1 E2.5 F6000
G1 F3000
G1 X82.094 Y110.412 E.03435
G1 E-1.75 F6000
;WIPE_START
G1 F3000
G1 X82.094 Y111.203 E-.75
;WIPE_END
G1 X79.104 Y111.203 F18000
G1 E2.5 F6000
G1 F3000
G1 X79.104 Y108.999 E.09567
G1 X78.605 Y108.999 E.02163
G3 X78.107 Y109.911 I-.705 J.207 E.05012
G1 X78.107 Y108.999 E.0396
G1 X77.846 Y108.999 E.01132
G1 X77.846 Y108.415 E.02534
G1 X77.609 Y108.359 E.0106
G1 X77.609 Y110.695 E.10139
G1 X75.615 Y115.778 F18000
G1 F3000
G1 X75.615 Y96.374 E.84229
G2 X75.117 Y96.96 I1.331 J1.638 E.03356
G1 X75.117 Y115.601 E.80918
G1 X74.619 Y115.626 E.02166
G1 X74.619 Y97.789 E.77429
G2 X74.371 Y101.443 I5.013 J2.175 E.16215
G1 X74.12 Y101.489 E.01106
G1 X74.12 Y115.608 E.61286
G1 X73.622 Y115.543 E.02181
G1 X73.622 Y101.58 E.60609
G2 X73.124 Y101.702 I.076 J1.389 E.0224
G1 X73.124 Y115.409 E.59502
G3 X72.625 Y115.246 I.199 J-1.452 E.02288
G1 X72.625 Y101.893 E.57964
G2 X72.127 Y102.16 I.46 J1.46 E.02467
G1 X72.127 Y114.981 E.55656
G3 X71.629 Y114.655 I.646 J-1.532 E.02599
G1 X71.629 Y102.487 E.52822
G1 X71.13 Y102.939 E.02922
G1 X71.13 Y114.248 E.49087
G1 X70.632 Y113.681 E.03275
G1 X70.632 Y103.562 E.43927
G2 X70.134 Y104.478 I2.19 J1.785 E.04554
G1 X70.134 Y113.269 E.3816
G1 E-1.75 F6000
;WIPE_START
G1 F3000
G1 X70.134 Y112.269 E-.75
;WIPE_END
G1 X77.821 Y111.427 F18000
G1 E2.5 F6000
;TYPE:Support interface
;WIDTH:0.4
;MM3_PER_MM:0.083639
G1 F3000
G1 X77.821 Y111.574 E.00496
G2 X77.892 Y111.303 I-.717 J-.331 E.00949
G1 X77.821 Y111.374 E.00336
G1 E-1.75 F6000
;WIPE_START
G1 F3000
G1 X77.892 Y111.303 E-.14171
G1 X77.821 Y111.574 E-.39879
G1 X77.821 Y111.427 E-.2095
;WIPE_END
G1 X78.686 Y112.625 F18000
G1 E2.5 F6000
G1 F3000
G1 X78.679 Y111.833 E.0267
G1 X79.107 Y111.833 E.01445
G1 X79.898 Y112.625 E.03775
G1 X81.11 Y112.625 E.04088
G1 X80.319 Y111.833 E.03775
G1 X81.531 Y111.833 E.04088
G1 X82.322 Y112.625 E.03775
G1 X83.321 Y112.625 E.0337
G1 X83.321 Y112.412 E.00719
G1 X82.743 Y111.833 E.02759
G1 X83.321 Y111.833 E.01951
G1 X83.321 Y112.233 E.01349
G1 X84.179 Y111.878 F18000
G1 F3000
G2 X83.862 Y111.057 I-.569 J-.252 E.03297
G2 X84.179 Y112.057 I.755 J.311 E.03841
G1 X84.179 Y113.084 E.03466
G1 X84.086 Y113.177 E.0044
G1 X83.779 Y112.969 E.01251
G3 X83.271 Y113.409 I-.506 J-.072 E.0247
G1 X83.304 Y113.606 E.00674
G1 X78.679 Y113.492 E.15605
G1 X78.679 Y113.606 E.00385
G1 X79.489 Y113.606 E.02733
G1 E-1.75 F6000
;WIPE_START
G1 F3000
G1 X78.679 Y113.606 E-.60771
G1 X78.679 Y113.492 E-.08557
G1 X78.754 Y113.494 E-.05672
;WIPE_END
G1 X78.679 Y107.947 F18000
G1 E2.5 F6000
G1 F3000
G1 X78.679 Y108.167 E.0074
G1 X79.076 Y108.167 E.01342
G3 X78.679 Y107.375 I.197 J-.595 E.03319
G1 X79.497 Y107.375 E.02761
G1 X80.289 Y108.167 E.03775
G1 X81.501 Y108.167 E.04088
G1 X80.709 Y107.375 E.03775
G1 X81.921 Y107.375 E.04088
G1 X82.713 Y108.167 E.03775
G1 X83.321 Y108.167 E.02053
G2 X83.133 Y107.375 I-.49 J-.302 E.03048
G1 E-1.75 F6000
;WIPE_START
G1 F3000
G1 X83.321 Y107.563 E-.19954
G1 X83.321 Y108.167 E-.45249
G1 X83.191 Y108.167 E-.09797
;WIPE_END
G1 X84.179 Y107.03 F18000
G1 E2.5 F6000
G1 F3000
G1 X84.179 Y106.916 E.00385
G2 X83.488 Y106.518 I-.544 J.146 E.02984
G1 X84.179 Y107.208 E.03292
G1 X84.179 Y108.42 E.04088
G1 X83.799 Y108.041 E.01808
G2 X83.864 Y108.94 I1.302 J.358 E.031
G1 X84.179 Y108.599 E.01565
G1 E-1.75 F6000
;WIPE_START
G1 F3000
G1 X83.864 Y108.94 E-.34801
G1 X83.826 Y108.406 E-.40199
;WIPE_END
G1 X82.445 Y106.508 F18000
G1 E2.5 F6000
G1 F3000
G1 X83.321 Y106.508 E.02957
G1 X83.321 Y106.394 E.00385
G1 X78.679 Y106.508 E.15665
G1 X78.679 Y106.394 E.00385
G1 X79.549 Y106.394 E.02938
G1 E-1.75 F6000
;WIPE_START
G1 F3000
G1 X78.679 Y106.394 E-.65321
G1 X78.679 Y106.508 E-.08557
G1 X78.693 Y106.508 E-.01123
;WIPE_END
G1 X87.821 Y108.427 F18000
G1 E2.5 F6000
G1 F3000
G1 X88.263 Y108.869 E.02106
G2 X88.203 Y108.427 I-.763 J-.121 E.01527
G3 X88.083 Y107.476 I.993 J-.608 E.03329
G3 X88.16 Y106.577 I.228 J-.433 E.03871
G2 X88.05 Y107.302 I1.115 J.54 E.02509
G1 E-1.75 F6000
;WIPE_START
G1 F3000
G1 X88.16 Y106.577 E-.54955
G1 X87.971 Y106.766 E-.20045
;WIPE_END
G1 X88.773 Y108.167 F18000
G1 E2.5 F6000
G1 F3000
G1 X88.679 Y107.375 E.02689
G1 X89.194 Y107.375 E.01738
G1 X89.985 Y108.167 E.03775
G1 X91.197 Y108.167 E.04088
G1 X90.406 Y107.375 E.03775
G1 X91.618 Y107.375 E.04088
G1 X92.409 Y108.167 E.03775
G1 X93.321 Y108.167 E.03076
G2 X92.83 Y107.375 I-.641 J-.15 E.0349
G1 X93.321 Y107.375 E.01657
G1 X93.321 Y107.688 E.01055
G1 X93.866 Y107.34 F18000
G1 F3000
G2 X93.884 Y108.429 I2.173 J.508 E.03711
G1 X94.13 Y108.675 E.01172
