; HEADER_BLOCK_START
; generated by AnycubicSlicerNext 1.3.3.1 on 2025-03-14 at 04:56:02
; total layer number: 200
; filament_density: 1.24
; filament_diameter: 1.75
; max_z_height: 40.04
; exclude_object: 0
; model_instances: 1
; HEADER_BLOCK_END

; THUMBNAIL_BLOCK_START
; THUMBNAIL_BLOCK_END

; external perimeters extrusion width = 0.42mm
; perimeters extrusion width = 0.45mm
; infill extrusion width = 0.45mm
; solid infill extrusion width = 0.42mm
; top infill extrusion width = 0.42mm
; support material extrusion width = 0.40mm
; first layer extrusion width = 0.50mm

; EXECUTABLE_BLOCK_START
M201 X2000 Y2000 Z800 E2000
M203 X300 Y300 Z8 E100
M204 P2000 R2000 T2000
M205 X10.00 Y10.00 Z2.00 E5.00 ; sets the jerk limits, mm/sec
;TYPE:Custom
G90 ; use absolute coordinates
M83 ; extruder relative mode
M104 S220 ; set extruder temp
M140 S60 ; set bed temp
M190 S60 ; wait for bed temp
M109 S220 ; wait for extruder temp
G28                                        ; move X/Y/Z to min endstops
G1 Z0.28                                   ; lift nozzle a bit 
G92 E0 
G1 Y3 F1800                                    ; zero the extruded length 
G1 X60  E25 F500                       ; Extrude 25mm of filament in a 5cm line. 
G92 E0                                     ; zero the extruded length again 
G1 E-2 F500                                ; Retract a little 
G1 X70 F4000                              ; Quickly wipe away from the filament line
M117
G90
G21
M83 ; use relative distances for extrusion
; filament start gcode
M106 S0
;LAYER_CHANGE
;Z:0.24
;HEIGHT:0.24
; BEFORE_LAYER_CHANGE 0 @ 0.24mm
G92 E0
G1 E-2.5 F6000
; AFTER_LAYER_CHANGE 0 @ 0.24mm
M204 P500
; printing object "GelenkV1Axis.stl" id:1898551866880 copy 0
M204 T500
G1 X112.735 Y97.069 F18000
G1 Z.24
G1 E2.5 F6000
;TYPE:Support
;WIDTH:0.5
;MM3_PER_MM:0.107639
G1 F3000
G3 X117.368 Y104.328 I-.455 J5.398 E.43209
G2 X107.26 Y101.114 I-7.373 J5.685 E.48985
G3 X112.667 Y97.066 I5.171 J1.273 E.31759
G1 X116.977 Y103.552 F18000
G1 F3000
G1 X116.977 Y100.521 E.13156
G2 X116.478 Y99.606 I-2.77 J.915 E.04547
G1 X116.478 Y102.778 E.13768
G2 X115.98 Y102.36 I-13.692 J15.81 E.02824
G1 X115.98 Y98.983 E.14655
G2 X115.482 Y98.51 I-1.553 J1.136 E.02999
G1 X115.482 Y101.995 E.15128
G2 X114.983 Y101.675 I-5.243 J7.619 E.02571
G1 X114.983 Y98.181 E.15167
G2 X114.485 Y97.916 I-.981 J1.24 E.02465
G1 X114.485 Y101.396 E.15109
G2 X113.987 Y101.155 I-5.191 J10.07 E.02404
G1 X113.987 Y97.703 E.14985
G2 X113.488 Y97.581 I-.585 J1.312 E.02239
G1 X113.488 Y100.947 E.14611
G2 X112.99 Y100.77 I-4.026 J10.559 E.02295
G1 X112.99 Y97.485 E.14261
G1 X112.492 Y97.462 E.02165
G1 X112.492 Y100.623 E.1372
G2 X111.993 Y100.504 I-3.319 J12.839 E.02224
G1 X111.993 Y97.478 E.13137
G1 X111.495 Y97.545 E.02183
G1 X111.495 Y100.413 E.12448
G2 X110.997 Y100.349 I-1.845 J12.299 E.02181
G1 X110.997 Y97.676 E.11602
G1 X110.498 Y97.838 E.02274
G1 X110.498 Y100.31 E.10732
G2 X110 Y100.297 I-.549 J11.686 E.02164
G1 X110 Y98.104 E.09519
G2 X109.502 Y98.427 I.641 J1.535 E.02592
G1 X109.502 Y100.31 E.08172
G2 X109.003 Y100.349 I.608 J11.108 E.0217
G1 X109.003 Y98.832 E.06584
G1 X108.505 Y99.402 E.03288
G1 X108.505 Y100.413 E.04388
G2 X108.007 Y100.504 I1.589 J10.093 E.02199
G1 X108.007 Y99.81 E.03013
G1 E-1.75 F6000
;WIPE_START
G1 F3000
G1 X108.007 Y100.504 E-.52062
G1 X108.308 Y100.449 E-.22938
;WIPE_END
G1 X104.281 Y117.333 F18000
G1 E2.5 F6000
G1 F3000
G2 X114.699 Y118.024 I5.719 J-7.337 E.48124
G3 X104.125 Y117.208 I-5.31 J-.111 E.75011
G1 X104.228 Y117.291 E.00572
G1 E-1.75 F6000
;WIPE_START
G1 F3000
G1 X104.125 Y117.208 E-.0989
G1 X104.088 Y118.076 E-.6511
;WIPE_END
G1 X113.987 Y120.171 F18000
G1 E2.5 F6000
G1 F3000
G1 X113.987 Y118.845 E.05754
G3 X113.488 Y119.053 I-4.476 J-10.015 E.02345
G1 X113.488 Y120.661 E.06979
G3 X112.99 Y121.308 I-2.031 J-1.05 E.03564
G1 X112.99 Y119.23 E.0902
G3 X112.492 Y119.377 I-3.673 J-11.533 E.02256
G1 X112.492 Y121.784 E.1045
G3 X111.993 Y122.127 I-1.194 J-1.202 E.0264
G1 X111.984 Y119.498 E.11414
G3 X111.495 Y119.587 I-2.624 J-13.008 E.02157
G1 X111.495 Y122.406 E.12239
G1 X110.997 Y122.619 E.02352
G1 X110.997 Y119.651 E.12884
G3 X110.498 Y119.69 I-1.169 J-11.894 E.0217
G1 X110.498 Y122.753 E.13296
G3 X110 Y122.86 I-.544 J-1.32 E.02224
G1 X110 Y119.703 E.13704
G3 X109.502 Y119.69 I.044 J-11.42 E.02164
G1 X109.502 Y122.882 E.13857
G3 X109.003 Y122.877 I-.235 J-1.376 E.02175
G1 X109.003 Y119.651 E.14002
G3 X108.505 Y119.587 I1.126 J-10.643 E.02181
G1 X108.505 Y122.81 E.1399
G3 X108.007 Y122.69 I.08 J-1.433 E.02237
G1 X108.007 Y119.496 E.13866
G3 X107.508 Y119.377 I1.992 J-9.481 E.02224
G1 X107.508 Y122.528 E.13678
G3 X107.01 Y122.274 I.451 J-1.5 E.02441
G1 X107.01 Y119.23 E.13213
G3 X106.512 Y119.053 I2.726 J-8.481 E.02295
G1 X106.512 Y121.966 E.12642
G1 X106.013 Y121.568 E.02767
G1 X106.013 Y118.845 E.11821
G3 X105.515 Y118.604 I3.704 J-8.276 E.02404
G1 X105.515 Y121.011 E.1045
G3 X105.017 Y120.24 I1.874 J-1.758 E.04005
G1 X105.017 Y118.326 E.08311
G3 X104.518 Y118.006 I5.826 J-9.626 E.02571
G1 X104.518 Y119.56 E.06747
G1 E-1.75 F6000
;WIPE_START
G1 F3000
G1 X104.518 Y118.56 E-.75
;WIPE_END
G1 X105.948 Y117.255 F18000
G1 E2.5 F6000
;TYPE:Brim
G1 F3000
G1 X105.23 Y116.804 E.03684
G1 X104.56 Y116.282 E.03684
G1 X103.947 Y115.694 E.03687
G1 X103.524 Y115.208 E.02801
G1 X103.026 Y114.519 E.0369
G1 X102.601 Y113.784 E.03684
G1 X102.253 Y113.009 E.0369
G1 X102.05 Y112.42 E.02703
G1 X101.844 Y111.595 E.0369
G1 X101.724 Y110.755 E.03683
G1 X101.69 Y109.907 E.03684
G1 X101.743 Y109.06 E.03683
G1 X101.882 Y108.223 E.03684
G1 X102.105 Y107.404 E.03684
G1 X102.412 Y106.612 E.03686
G1 X102.697 Y106.034 E.02801
G1 X103.141 Y105.309 E.03689
G1 X103.655 Y104.633 E.03684
G1 X104.235 Y104.014 E.03684
G1 X104.876 Y103.458 E.03683
G1 X105.571 Y102.968 E.0369
G1 X106.11 Y102.657 E.02703
G1 X106.881 Y102.298 E.0369
G1 X107.683 Y102.02 E.03683
G1 X108.509 Y101.825 E.03684
G1 X109.35 Y101.716 E.03683
G1 X110.198 Y101.693 E.03682
G1 X110.843 Y101.733 E.02806
G1 X111.683 Y101.863 E.03689
G1 X112.504 Y102.077 E.03685
G1 X113.299 Y102.374 E.03684
G1 X114.06 Y102.75 E.03682
G1 X114.779 Y103.203 E.03692
G1 X115.275 Y103.58 E.02704
G1 X115.903 Y104.152 E.0369
G1 X116.469 Y104.785 E.03683
G1 X116.967 Y105.472 E.03684
G1 X117.392 Y106.206 E.03684
G1 X117.741 Y106.981 E.03687
G1 X117.952 Y107.59 E.02801
G1 X118.157 Y108.416 E.0369
G1 X118.276 Y109.256 E.03683
G1 X118.308 Y110.104 E.03684
G1 X118.254 Y110.951 E.03683
G1 X118.114 Y111.788 E.03684
G1 X117.89 Y112.606 E.03683
G1 X117.583 Y113.397 E.03684
G1 X117.197 Y114.153 E.03684
G1 X116.735 Y114.866 E.0369
G1 X116.352 Y115.357 E.02704
G1 X115.771 Y115.978 E.0369
G1 X115.13 Y116.536 E.0369
G1 X114.608 Y116.915 E.02798
G1 X113.878 Y117.349 E.0369
G1 X113.108 Y117.706 E.03683
G1 X112.306 Y117.983 E.03684
G1 X111.48 Y118.177 E.03684
G1 X110.638 Y118.285 E.03684
G1 X109.79 Y118.307 E.03683
G1 X108.944 Y118.242 E.03684
G1 X108.107 Y118.091 E.03689
G1 X107.506 Y117.927 E.02705
G1 X106.709 Y117.631 E.0369
G1 X105.984 Y117.273 E.0351
G1 X106.183 Y116.87 F18000
G1 F3000
G1 X106.162 Y116.86 E.00105
G1 X105.482 Y116.432 E.03485
G1 X104.849 Y115.938 E.03485
G1 X104.277 Y115.389 E.03444
G1 X103.872 Y114.924 E.02678
G1 X103.399 Y114.269 E.03506
G1 X102.998 Y113.573 E.03485
G1 X102.669 Y112.837 E.035
G1 X102.479 Y112.286 E.0253
G1 X102.284 Y111.502 E.03508
G1 X102.171 Y110.707 E.03484
G1 X102.14 Y109.905 E.03485
G1 X102.19 Y109.104 E.03484
G1 X102.322 Y108.312 E.03484
G1 X102.535 Y107.538 E.03485
G1 X102.82 Y106.798 E.03443
G1 X103.094 Y106.245 E.02678
G1 X103.516 Y105.557 E.03505
G1 X104.003 Y104.918 E.03485
G1 X104.542 Y104.343 E.03425
G1 X105.148 Y103.816 E.03484
G1 X105.808 Y103.35 E.03508
G1 X106.323 Y103.052 E.02582
G1 X107.056 Y102.712 E.03508
G1 X107.814 Y102.45 E.03484
G1 X108.596 Y102.266 E.03484
G1 X109.392 Y102.163 E.03484
G1 X110.196 Y102.142 E.03491
G1 X110.801 Y102.18 E.0263
G1 X111.599 Y102.304 E.03505
G1 X112.375 Y102.507 E.03485
G1 X113.114 Y102.783 E.03425
G1 X113.834 Y103.139 E.03483
G1 X114.519 Y103.568 E.03509
G1 X114.992 Y103.929 E.02582
G1 X115.589 Y104.474 E.03508
G1 X116.123 Y105.072 E.03484
G1 X116.594 Y105.723 E.03484
G1 X116.996 Y106.418 E.03484
G1 X117.321 Y107.141 E.03444
G1 X117.523 Y107.724 E.02678
G1 X117.717 Y108.508 E.03506
G1 X117.829 Y109.303 E.03484
G1 X117.859 Y110.105 E.03484
G1 X117.809 Y110.892 E.03425
G1 X117.677 Y111.684 E.03485
G1 X117.465 Y112.458 E.03484
G1 X117.176 Y113.207 E.03484
G1 X116.811 Y113.922 E.03484
G1 X116.373 Y114.601 E.03508
G1 X116.006 Y115.07 E.02582
G1 X115.454 Y115.66 E.03508
G1 X114.855 Y116.181 E.03446
G1 X114.356 Y116.543 E.02675
G1 X113.662 Y116.955 E.03506
G1 X112.933 Y117.292 E.03484
G1 X112.174 Y117.553 E.03484
G1 X111.393 Y117.736 E.03484
G1 X110.597 Y117.838 E.03484
G1 X109.808 Y117.858 E.03425
G1 X109.007 Y117.797 E.03484
G1 X108.212 Y117.655 E.03507
G1 X107.638 Y117.498 E.02583
G1 X106.881 Y117.215 E.03508
G1 X106.219 Y116.888 E.03205
G1 X106.418 Y116.486 F18000
G1 F3000
G1 X106.387 Y116.471 E.0015
G1 X105.746 Y116.069 E.03286
G1 X105.149 Y115.603 E.03286
G1 X104.606 Y115.083 E.0326
G1 X104.22 Y114.64 E.02554
G1 X103.773 Y114.019 E.03321
G1 X103.395 Y113.363 E.03285
G1 X103.084 Y112.667 E.0331
G1 X102.908 Y112.153 E.02357
G1 X102.724 Y111.409 E.03326
G1 X102.618 Y110.66 E.03285
G1 X102.589 Y109.904 E.03285
G1 X102.638 Y109.149 E.03285
G1 X102.76 Y108.416 E.03226
G1 X102.959 Y107.685 E.03287
G1 X103.229 Y106.985 E.0326
G1 X103.49 Y106.457 E.02555
G1 X103.89 Y105.805 E.0332
G1 X104.35 Y105.204 E.03286
G1 X104.859 Y104.662 E.03227
G1 X105.43 Y104.165 E.03286
G1 X106.045 Y103.732 E.03265
G1 X106.536 Y103.448 E.0246
G1 X107.23 Y103.126 E.03325
G1 X107.946 Y102.879 E.03285
G1 X108.683 Y102.707 E.03285
G1 X109.434 Y102.611 E.03285
G1 X110.194 Y102.591 E.033
G1 X110.758 Y102.628 E.02454
G1 X111.514 Y102.746 E.03321
G1 X112.246 Y102.938 E.03287
G1 X112.942 Y103.199 E.03227
G1 X113.621 Y103.534 E.03285
G1 X114.258 Y103.934 E.03266
G1 X114.709 Y104.277 E.0246
G1 X115.274 Y104.794 E.03324
G1 X115.769 Y105.349 E.03226
G1 X116.213 Y105.961 E.03285
G1 X116.593 Y106.616 E.03286
G1 X116.902 Y107.301 E.0326
G1 X117.094 Y107.857 E.02554
G1 X117.277 Y108.6 E.03321
G1 X117.382 Y109.35 E.03285
G1 X117.409 Y110.106 E.03286
G1 X117.362 Y110.848 E.03227
G1 X117.237 Y111.595 E.03286
G1 X117.036 Y112.324 E.03285
G1 X116.768 Y113.017 E.03226
G1 X116.425 Y113.692 E.03285
G1 X116.01 Y114.336 E.03324
G1 X115.661 Y114.782 E.0246
G1 X115.137 Y115.341 E.03325
G1 X114.581 Y115.826 E.03204
G1 X114.105 Y116.17 E.02552
G1 X113.446 Y116.56 E.03321
G1 X112.759 Y116.878 E.03285
G1 X112.043 Y117.123 E.03285
G1 X111.306 Y117.295 E.03285
G1 X110.555 Y117.39 E.03286
G1 X109.812 Y117.408 E.03227
G1 X109.057 Y117.351 E.03286
G1 X108.317 Y117.218 E.03264
G1 X107.77 Y117.068 E.02461
G1 X107.053 Y116.8 E.03324
G1 X106.454 Y116.504 E.02902
G1 X106.653 Y116.101 F18000
G1 F3000
G1 X106.6 Y116.075 E.00256
G1 X105.998 Y115.697 E.03087
G1 X105.448 Y115.267 E.03029
G1 X104.936 Y114.778 E.03076
G1 X104.568 Y114.356 E.02429
G1 X104.147 Y113.769 E.03135
G1 X103.793 Y113.153 E.03086
G1 X103.5 Y112.496 E.0312
G1 X103.337 Y112.02 E.02184
G1 X103.164 Y111.317 E.03144
G1 X103.065 Y110.613 E.03086
G1 X103.039 Y109.903 E.03086
G1 X103.085 Y109.193 E.03086
G1 X103.2 Y108.505 E.03028
G1 X103.384 Y107.832 E.0303
G1 X103.638 Y107.171 E.03075
G1 X103.886 Y106.669 E.0243
G1 X104.265 Y106.054 E.03134
G1 X104.697 Y105.489 E.03087
G1 X105.175 Y104.981 E.0303
G1 X105.702 Y104.523 E.03029
G1 X106.282 Y104.113 E.03082
G1 X106.748 Y103.844 E.02337
G1 X107.405 Y103.54 E.0314
G1 X108.077 Y103.309 E.03086
G1 X108.77 Y103.148 E.03086
G1 X109.475 Y103.058 E.03086
G1 X110.191 Y103.04 E.0311
G1 X110.715 Y103.075 E.02278
G1 X111.429 Y103.187 E.03137
G1 X112.117 Y103.368 E.03088
G1 X112.77 Y103.614 E.0303
G1 X113.395 Y103.923 E.03028
G1 X113.997 Y104.3 E.03084
G1 X114.426 Y104.626 E.02337
G1 X114.959 Y105.115 E.03141
G1 X115.423 Y105.636 E.03028
G1 X115.84 Y106.212 E.03087
G1 X116.19 Y106.816 E.03029
G1 X116.482 Y107.461 E.03076
G1 X116.665 Y107.99 E.02429
G1 X116.837 Y108.692 E.03135
G1 X116.934 Y109.396 E.03086
G1 X116.96 Y110.107 E.03087
G1 X116.914 Y110.803 E.0303
G1 X116.799 Y111.491 E.03029
G1 X116.612 Y112.177 E.03087
G1 X116.36 Y112.828 E.03028
G1 X116.039 Y113.462 E.03086
G1 X115.647 Y114.07 E.0314
G1 X115.316 Y114.495 E.02336
G1 X114.82 Y115.022 E.03142
G1 X114.306 Y115.47 E.02963
G1 X113.853 Y115.798 E.02427
G1 X113.231 Y116.166 E.03135
G1 X112.586 Y116.463 E.03086
G1 X111.913 Y116.693 E.03086
G1 X111.22 Y116.853 E.03086
G1 X110.515 Y116.942 E.03087
G1 X109.817 Y116.959 E.0303
G1 X109.121 Y116.906 E.0303
G1 X108.422 Y116.781 E.03081
G1 X107.903 Y116.639 E.02338
G1 X107.225 Y116.385 E.03141
G1 X106.689 Y116.119 E.02598
G1 X106.889 Y115.717 F18000
G1 F3000
G1 X106.814 Y115.68 E.00363
G1 X106.251 Y115.325 E.0289
G1 X105.737 Y114.923 E.02832
G1 X105.265 Y114.472 E.02832
G1 X104.917 Y114.072 E.02303
G1 X104.521 Y113.52 E.02947
G1 X104.19 Y112.943 E.02888
G1 X103.916 Y112.326 E.0293
G1 X103.766 Y111.888 E.0201
G1 X103.604 Y111.225 E.02962
G1 X103.512 Y110.567 E.02887
G1 X103.488 Y109.902 E.02887
G1 X103.53 Y109.252 E.02829
G1 X103.638 Y108.608 E.02832
G1 X103.809 Y107.978 E.02835
G1 X104.047 Y107.356 E.02891
G1 X104.282 Y106.881 E.02303
G1 X104.639 Y106.303 E.02947
G1 X105.044 Y105.775 E.02889
G1 X105.492 Y105.3 E.02833
G1 X105.985 Y104.873 E.02834
G1 X106.519 Y104.495 E.02841
G1 X106.961 Y104.24 E.02212
G1 X107.579 Y103.955 E.02955
G1 X108.208 Y103.739 E.02887
G1 X108.856 Y103.589 E.02887
G1 X109.516 Y103.506 E.02888
G1 X110.188 Y103.49 E.02919
G1 X110.671 Y103.522 E.02102
G1 X111.343 Y103.628 E.02953
G1 X111.987 Y103.799 E.02889
G1 X112.597 Y104.029 E.02833
G1 X113.182 Y104.319 E.02833
G1 X113.737 Y104.666 E.02842
G1 X114.142 Y104.975 E.02212
G1 X114.644 Y105.435 E.02956
G1 X115.077 Y105.923 E.02831
G1 X115.467 Y106.463 E.0289
G1 X115.793 Y107.027 E.02832
G1 X116.062 Y107.622 E.02832
G1 X116.236 Y108.123 E.02303
G1 X116.397 Y108.783 E.02947
G1 X116.487 Y109.442 E.02887
G1 X116.511 Y110.107 E.02889
G1 X116.467 Y110.758 E.02833
G1 X116.359 Y111.401 E.02833
G1 X116.187 Y112.03 E.02831
G1 X115.953 Y112.639 E.02831
G1 X115.652 Y113.233 E.02888
G1 X115.285 Y113.805 E.02954
G1 X114.971 Y114.207 E.02211
G1 X114.504 Y114.703 E.02958
G1 X114.031 Y115.115 E.02723
G1 X113.601 Y115.426 E.02302
G1 X113.016 Y115.771 E.02948
G1 X112.412 Y116.048 E.02886
G1 X111.783 Y116.263 E.02887
G1 X111.135 Y116.412 E.02887
G1 X110.474 Y116.495 E.02889
G1 X109.822 Y116.51 E.02833
G1 X109.171 Y116.459 E.02834
G1 X108.527 Y116.344 E.0284
G1 X108.035 Y116.209 E.02214
G1 X107.398 Y115.97 E.02955
G1 X106.925 Y115.735 E.02294
G1 X107.144 Y115.343 F18000
G1 F3000
G1 X106.774 Y115.136 E.01841
G1 X106.318 Y114.819 E.0241
G1 X105.849 Y114.422 E.02666
G1 X105.42 Y113.976 E.02687
G1 X105.038 Y113.488 E.02688
G1 X104.708 Y112.964 E.02688
G1 X104.439 Y112.419 E.02638
G1 X104.06 Y111.226 E.05436
G1 X103.98 Y110.746 E.02113
G1 X103.938 Y110.217 E.02303
G1 X103.948 Y109.603 E.02663
G1 X104.02 Y108.987 E.02693
G1 X104.151 Y108.393 E.0264
G1 X104.344 Y107.811 E.02662
G1 X104.596 Y107.246 E.02686
G1 X104.9 Y106.717 E.02647
G1 X105.261 Y106.215 E.02683
G1 X105.63 Y105.794 E.02432
G1 X106.082 Y105.37 E.0269
G1 X106.566 Y105.002 E.02638
G1 X107.666 Y104.403 E.05438
G1 X108.166 Y104.219 E.02311
G1 X108.698 Y104.076 E.02393
G1 X109.243 Y103.983 E.02401
G1 X109.774 Y103.939 E.0231
G1 X110.388 Y103.948 E.02668
G1 X111.003 Y104.019 E.02685
G1 X111.607 Y104.153 E.02689
G1 X112.195 Y104.347 E.02688
G1 X112.76 Y104.6 E.02688
G1 X113.287 Y104.904 E.02638
G1 X114.266 Y105.69 E.05449
G1 X114.636 Y106.09 E.02366
G1 X115.005 Y106.576 E.0265
G1 X115.326 Y107.099 E.02663
G1 X115.568 Y107.597 E.02401
G1 X115.765 Y108.118 E.0242
G1 X115.921 Y108.69 E.0257
G1 X116.023 Y109.298 E.02677
G1 X116.062 Y109.852 E.0241
G1 X116.046 Y110.466 E.02666
G1 X115.967 Y111.08 E.02687
G1 X115.826 Y111.683 E.02688
G1 X115.628 Y112.257 E.02638
G1 X115.046 Y113.364 E.05427
G1 X114.74 Y113.783 E.02251
G1 X114.412 Y114.16 E.0217
